; generated by SuperSlicer 2.3.57 on 2022-04-17 at 18:21:38 UTC


;
;

;
;
; 

; external perimeters extrusion width = 0.40mm
; perimeters extrusion width = 0.45mm
; infill extrusion width = 0.72mm
; solid infill extrusion width = 0.56mm
; top infill extrusion width = 0.40mm
; first layer extrusion width = 0.50mm

; object:{"name":"3DBenchy","id":"3DBenchy.stl id:0 copy 0","object_center":[60.000000,60.000000,0.000000],"boundingbox_center":[60.000000,60.000000,9.600000],"boundingbox_size":[24.000400,12.401600,19.200000]}
; plater:{"center":[60.000000,60.000000,0.000000],"boundingbox_center":[60.000000,60.000000,9.600000],"boundingbox_size":[24.000400,12.401600,19.200000]}

M73 P0 R22
;TYPE:Custom
; custom gcode: start_gcode
PRINT_START BED=110 HOTEND=250 CHAMBER=45
; custom gcode end: start_gcode
G21 ; set units to millimeters
G90 ; use absolute coordinates
M83 ; use relative distances for extrusion
; custom gcode: start_filament_gcode
; Filament gcode
; custom gcode end: start_filament_gcode
M104 S250 ; set temperature
M109 S250 ; set temperature and wait for it to be reached
M190 S110 ; set bed temperature and wait for it to be reached
;LAYER_CHANGE
;Z:0.3
;HEIGHT:0.3
G1 E-0.4 F1800
G1 Z0.3 F27000
G1 Z0.5
G1 X46.807 Y53.487
G1 Z0.3
G1 E0.4 F1800
; custom gcode: feature_gcode
; External perimeter
;Skirt
SET_VELOCITY_LIMIT ACCEL=5000 ACCEL_TO_DECEL=2500 SQUARE_CORNER_VELOCITY=8

; Support material
; custom gcode end: feature_gcode

;TYPE:Skirt
;WIDTH:0.5
G1 X46.186 Y54.045 E0.0431
G1 X45.653 Y54.695 E0.04341
G1 X45.271 Y55.317 E0.03765
G1 X44.926 Y56.12 E0.04513
G1 X44.727 Y56.845 E0.0388
G1 X44.612 Y57.844 E0.0519
G1 X44.61 Y62.067 E0.218
G1 X44.75 Y63.268 E0.06238
G1 X45.111 Y64.347 E0.05875
G1 X45.618 Y65.255 E0.0537
G1 X46.361 Y66.13 E0.05926
G1 X47.054 Y66.697 E0.04618
G1 X47.755 Y67.109 E0.04196
G1 X48.575 Y67.442 E0.0457
G1 X49.482 Y67.648 E0.048
G1 X59.626 Y68.299 E0.52465
G1 X60.566 Y68.295 E0.04853
G1 X62.624 Y67.998 E0.10734
G1 X64.619 Y67.31 E0.10895
G1 X66.269 Y66.381 E0.09772
G1 X67.064 Y65.787 E0.05123
G1 X67.914 Y65.009 E0.05947
G1 X68.972 Y63.768 E0.08417
G1 X69.585 Y62.837 E0.05755
G1 X69.967 Y62.069 E0.04425
G1 X70.248 Y61.164 E0.04892
G1 X70.37 Y60.143 E0.05307
G1 X70.307 Y59.177 E0.04998
G1 X70.031 Y58.104 E0.05717
G1 X69.609 Y57.202 E0.05141
G1 X68.853 Y56.069 E0.07034
G1 X67.9 Y54.975 E0.07488
G1 X66.812 Y54.012 E0.07501
G1 X65.568 Y53.179 E0.07726
G1 X64.28 Y52.542 E0.07415
G1 X62.883 Y52.069 E0.07613
G1 X61.422 Y51.781 E0.07687
G1 X60.006 Y51.692 E0.07322
G1 X49.279 Y52.386 E0.55486
G1 X48.47 Y52.593 E0.0431
G1 X47.611 Y52.962 E0.04826
G1 X46.857 Y53.454 E0.04645
G1 X47.153 Y53.773 F27000
G1 F1800
G1 X46.571 Y54.272 E0.03957
G1 X46.046 Y54.896 E0.04206
G1 X45.679 Y55.476 E0.03545
G1 X45.344 Y56.243 E0.0432
G1 X45.155 Y56.926 E0.03655
G1 X45.048 Y57.854 E0.04826
G1 X45.045 Y62.001 E0.21404
G1 X45.164 Y63.118 E0.058
G1 X45.482 Y64.106 E0.05358
G1 X45.927 Y64.936 E0.04861
G1 X46.588 Y65.744 E0.05388
G1 X47.252 Y66.303 E0.04478
G1 X47.908 Y66.699 E0.03957
G1 X48.69 Y67.022 E0.04365
G1 X49.55 Y67.218 E0.04551
G1 X59.651 Y67.864 E0.52247
G1 X60.516 Y67.861 E0.04461
G1 X62.51 Y67.577 E0.10397
G1 X64.413 Y66.924 E0.10388
G1 X65.998 Y66.039 E0.09369
G1 X67.53 Y64.779 E0.10241
G1 X68.608 Y63.526 E0.08529
G1 X69.181 Y62.662 E0.0535
G1 X69.541 Y61.961 E0.04066
G1 X69.809 Y61.129 E0.04513
G1 X69.933 Y60.17 E0.04989
G1 X69.881 Y59.273 E0.04642
G1 X69.625 Y58.262 E0.05383
G1 X69.233 Y57.423 E0.04779
G1 X68.508 Y56.335 E0.06749
G1 X67.596 Y55.287 E0.07171
G1 X66.551 Y54.361 E0.07207
G1 X65.352 Y53.557 E0.0745
M73 P0 R21
G1 X64.114 Y52.945 E0.07129
G1 X62.773 Y52.49 E0.07309
G1 X61.37 Y52.214 E0.07384
G1 X60.009 Y52.128 E0.0704
G1 X49.53 Y52.786 E0.54192
G1 X48.745 Y52.961 E0.04151
G1 X47.93 Y53.288 E0.04534
G1 X47.204 Y53.741 E0.04419
G1 X47.48 Y54.086 F27000
G1 F1800
G1 X46.945 Y54.515 E0.03541
G1 X46.324 Y55.256 E0.04988
G1 X45.91 Y55.999 E0.04392
G1 X45.604 Y56.907 E0.04945
G1 X45.483 Y57.915 E0.05242
G1 X45.482 Y62.071 E0.21453
G1 X45.57 Y62.928 E0.04445
G1 X45.737 Y63.56 E0.03375
G1 X46.036 Y64.267 E0.03962
G1 X46.83 Y65.37 E0.07014
G1 X47.458 Y65.914 E0.04289
G1 X48.07 Y66.293 E0.03714
G1 X48.81 Y66.603 E0.04144
G1 X49.616 Y66.787 E0.04268
G1 X60.473 Y67.427 E0.56134
G1 X62.401 Y67.155 E0.10052
G1 X64.214 Y66.536 E0.0989
G1 X65.729 Y65.695 E0.08939
G1 X67.156 Y64.537 E0.09488
G1 X67.798 Y63.851 E0.04851
G1 X68.487 Y62.944 E0.05879
G1 X69.041 Y62.015 E0.05582
G1 X69.371 Y61.09 E0.0507
G1 X69.496 Y60.197 E0.04655
G1 X69.455 Y59.367 E0.04288
G1 X69.217 Y58.415 E0.05062
G1 X68.855 Y57.64 E0.04418
G1 X68.16 Y56.598 E0.06464
G1 X67.285 Y55.592 E0.06883
G1 X66.282 Y54.704 E0.06913
G1 X65.132 Y53.933 E0.07146
G1 X63.944 Y53.346 E0.06843
G1 X62.659 Y52.91 E0.07004
G1 X61.313 Y52.646 E0.0708
G1 X60.006 Y52.563 E0.06757
G1 X49.639 Y53.21 E0.53615
G1 X48.917 Y53.364 E0.03812
G1 X48.176 Y53.652 E0.041
G1 X47.595 Y53.994 E0.03479
G1 X47.527 Y54.048 E0.00451
; INIT printing object 3DBenchy.stl id:0 copy 0
G1 E-0.4
G1 Z0.5 F27000
; printing object 3DBenchy.stl id:0 copy 0
G1 X51.257 Y58.88
G1 Z0.3
G1 E0.4 F1800
; custom gcode: feature_gcode
; External perimeter
;Perimeter
SET_VELOCITY_LIMIT ACCEL=800 ACCEL_TO_DECEL=400 SQUARE_CORNER_VELOCITY=8

; Overhang perimeter
; custom gcode end: feature_gcode

;TYPE:Internal perimeter
G1 X60.003 Y58.341 E0.45229
G1 X60.595 Y58.377 E0.03062
G1 X60.843 Y58.416 E0.01295
G1 X61.17 Y58.491 E0.01733
G1 X61.488 Y58.588 E0.01718
G1 X61.734 Y58.682 E0.01359
G1 X61.977 Y58.792 E0.01377
G1 X62.255 Y58.941 E0.01627
G1 X62.505 Y59.097 E0.01522
G1 X62.754 Y59.276 E0.01583
G1 X62.975 Y59.46 E0.01483
G1 X63.182 Y59.657 E0.01476
G1 X63.49 Y60.014 E0.02431
G1 X63.131 Y60.394 E0.02697
G1 X62.823 Y60.667 E0.02127
G1 X62.494 Y60.91 E0.02112
G1 X62.127 Y61.131 E0.02211
G1 X61.89 Y61.249 E0.01368
G1 X61.612 Y61.366 E0.01555
G1 X61.338 Y61.461 E0.01495
G1 X61.079 Y61.532 E0.01388
G1 X60.502 Y61.634 E0.03027
G1 X60.225 Y61.657 E0.01433
G1 X59.958 Y61.661 E0.01378
G1 X51.256 Y61.12 E0.45004
G1 X51.257 Y58.94 E0.1125
G1 X50.82 Y61.529 F27000
G1 F1800
G1 X50.821 Y58.471 E0.15787
G1 X60.002 Y57.905 E0.4748
G1 X60.642 Y57.943 E0.03307
G1 X60.925 Y57.988 E0.01479
G1 X61.282 Y58.07 E0.01891
G1 X61.629 Y58.176 E0.01875
G1 X61.902 Y58.28 E0.01503
G1 X62.17 Y58.401 E0.0152
G1 X62.473 Y58.563 E0.01776
G1 X62.748 Y58.735 E0.01674
G1 X63.021 Y58.932 E0.01734
G1 X63.264 Y59.134 E0.01635
G1 X63.498 Y59.356 E0.01662
G1 X63.93 Y59.857 E0.03414
G1 X64.033 Y60.002 E0.0092
G1 X63.711 Y60.414 E0.02699
G1 X63.435 Y60.706 E0.02075
G1 X63.098 Y61.006 E0.0233
G1 X62.735 Y61.273 E0.0232
G1 X62.337 Y61.513 E0.02402
G1 X62.072 Y61.645 E0.01528
G1 X61.768 Y61.773 E0.01703
G1 X61.467 Y61.877 E0.01642
G1 X61.175 Y61.958 E0.01565
G1 X60.557 Y62.067 E0.03238
G1 X60.246 Y62.092 E0.01613
G1 X59.948 Y62.096 E0.01539
G1 X50.88 Y61.533 E0.46895
G1 X50.384 Y61.938 F27000
G1 F1800
G1 X50.386 Y58.061 E0.20014
G1 X60.002 Y57.468 E0.49731
M73 P1 R21
G1 X60.689 Y57.51 E0.03553
G1 X61.008 Y57.56 E0.01663
G1 X61.395 Y57.649 E0.02049
G1 X61.771 Y57.764 E0.02032
G1 X62.069 Y57.878 E0.01648
G1 X62.362 Y58.011 E0.01662
G1 X62.691 Y58.186 E0.01925
G1 X62.991 Y58.373 E0.01825
G1 X63.288 Y58.587 E0.01886
G1 X63.554 Y58.808 E0.01786
G1 X63.813 Y59.055 E0.01849
G1 X64.273 Y59.588 E0.03631
G1 X64.456 Y59.846 E0.01635
G1 X64.55 Y59.997 E0.00917
G1 X64.378 Y60.268 E0.01655
G1 X64.041 Y60.698 E0.02818
G1 X63.739 Y61.019 E0.02278
G1 X63.372 Y61.345 E0.02532
G1 X62.977 Y61.636 E0.02529
G1 X62.547 Y61.895 E0.02593
G1 X62.254 Y62.041 E0.01688
G1 X61.924 Y62.18 E0.01852
G1 X61.596 Y62.294 E0.01789
G1 X61.271 Y62.383 E0.01742
G1 X60.613 Y62.499 E0.03449
G1 X60.267 Y62.527 E0.01792
G1 X59.938 Y62.532 E0.01699
G1 X50.444 Y61.942 E0.49095
G1 X65.03 Y60.01 F27000
; custom gcode: feature_gcode
; External perimeter
;ExternalPerimeter
SET_VELOCITY_LIMIT ACCEL=450 ACCEL_TO_DECEL=250 SQUARE_CORNER_VELOCITY=8

; Perimeter
; custom gcode end: feature_gcode

;TYPE:External perimeter
G1 F1800
G1 X65.029 Y60.029 E0.00099
G1 X65.008 Y60.089 E0.00327
G1 X64.734 Y60.52 E0.02636
G1 X64.372 Y60.983 E0.03033
G1 X64.042 Y61.332 E0.0248
G1 X63.646 Y61.684 E0.02735
G1 X63.219 Y61.999 E0.02738
G1 X62.757 Y62.276 E0.02784
G1 X62.437 Y62.437 E0.01848
G1 X62.08 Y62.587 E0.02
G1 X61.725 Y62.71 E0.01937
G1 X61.367 Y62.808 E0.0192
G1 X60.668 Y62.932 E0.03659
G1 X60.288 Y62.963 E0.01972
G1 X59.927 Y62.968 E0.0186
G1 X50.28 Y62.368 E0.49894
G1 X50.172 Y62.346 E0.00568
G1 X50.115 Y62.32 E0.00326
G1 X50.039 Y62.258 E0.00503
G1 X50.004 Y62.21 E0.00305
G1 X49.965 Y62.112 E0.00545
G1 X49.949 Y61.98 E0.00686
G1 X49.95 Y57.976 E0.20666
G1 X49.963 Y57.892 E0.00443
G1 X50.003 Y57.794 E0.00542
G1 X50.058 Y57.724 E0.00463
G1 X50.135 Y57.67 E0.00484
G1 X50.199 Y57.645 E0.00353
G1 X50.292 Y57.63 E0.00488
G1 X60.002 Y57.032 E0.50215
G1 X60.737 Y57.076 E0.03799
G1 X61.09 Y57.132 E0.01847
G1 X61.507 Y57.227 E0.02207
G1 X61.913 Y57.352 E0.02188
G1 X62.237 Y57.475 E0.01792
G1 X62.555 Y57.62 E0.01804
G1 X62.91 Y57.809 E0.02074
G1 X63.235 Y58.012 E0.01977
G1 X63.555 Y58.243 E0.02037
G1 X63.843 Y58.483 E0.01938
G1 X64.129 Y58.754 E0.02035
G1 X64.616 Y59.319 E0.03849
G1 X64.82 Y59.606 E0.01816
G1 X65.001 Y59.901 E0.01787
G1 X65.015 Y59.952 E0.00272
;WIPE_START
G1 X65.014 Y60.02 F27000
;WIPE_END
G1 X62.073 Y58.918
; custom gcode: feature_gcode
; External perimeter
;SolidInfill
SET_VELOCITY_LIMIT ACCEL=3800 ACCEL_TO_DECEL=2000 SQUARE_CORNER_VELOCITY=8

; Bridge infill
; custom gcode end: feature_gcode

;TYPE:Solid infill
;WIDTH:0.467287
G1 F1800
G1 X63.075 Y59.92 E0.06837
G1 X63.149 Y60.006 E0.00549
G1 X62.955 Y60.212 E0.01367
G1 X62.847 Y60.308 E0.00696
G1 X61.349 Y58.81 E0.10218
G1 X61.108 Y58.736 E0.01217
G1 X60.562 Y58.628 E0.02683
G1 X60.551 Y58.627 E0.00057
G1 X62.508 Y60.585 E0.13357
G1 X62.353 Y60.699 E0.00929
G1 X62.137 Y60.83 E0.01219
G1 X59.907 Y58.6 E0.15211
G1 X59.327 Y58.636 E0.02805
G1 X61.727 Y61.036 E0.16373
G1 X61.518 Y61.132 E0.01109
G1 X61.287 Y61.211 E0.01181
G1 X58.747 Y58.672 E0.17328
G1 X58.166 Y58.707 E0.02805
G1 X60.786 Y61.327 E0.17873
G1 X60.473 Y61.383 E0.01533
G1 X60.237 Y61.394 E0.01142
G1 X57.586 Y58.743 E0.18085
G1 X57.006 Y58.779 E0.02805
G1 X59.613 Y61.386 E0.17786
G1 X58.956 Y61.345 E0.03175
G1 X56.425 Y58.815 E0.17263
G1 X55.845 Y58.85 E0.02805
G1 X58.299 Y61.304 E0.16741
G1 X57.642 Y61.264 E0.03175
G1 X55.265 Y58.886 E0.16218
G1 X54.685 Y58.922 E0.02805
G1 X56.985 Y61.223 E0.15696
G1 X56.328 Y61.182 E0.03175
G1 X54.104 Y58.958 E0.15173
G1 X53.524 Y58.994 E0.02805
G1 X55.672 Y61.141 E0.1465
G1 X55.015 Y61.1 E0.03175
G1 X52.944 Y59.029 E0.14128
G1 X52.363 Y59.065 E0.02805
G1 X54.358 Y61.059 E0.13605
G1 X53.701 Y61.019 E0.03175
G1 X51.783 Y59.101 E0.13082
G1 X51.509 Y59.118 E0.01324
G1 X51.509 Y59.443 E0.01568
G1 X53.044 Y60.978 E0.10471
G1 X52.387 Y60.937 E0.03175
G1 X51.509 Y60.059 E0.05991
G1 X51.509 Y60.675 E0.02971
G1 X51.93 Y61.096 E0.02877
; INIT stop printing object 3DBenchy.stl id:0 copy 0
M106 S33.15
;LAYER_CHANGE
;Z:0.4
;HEIGHT:0.1
G1 E-0.4 F1800
G1 Z0.5 F27000
; stop printing object 3DBenchy.stl id:0 copy 0
; INIT printing object 3DBenchy.stl id:0 copy 0
; printing object 3DBenchy.stl id:0 copy 0
G1 X53.181 Y61.506
G1 Z0.4
G1 E0.4 F1800
; custom gcode: feature_gcode
; External perimeter
;Perimeter
SET_VELOCITY_LIMIT ACCEL=800 ACCEL_TO_DECEL=400 SQUARE_CORNER_VELOCITY=8

; Overhang perimeter
; custom gcode end: feature_gcode

;TYPE:Internal perimeter
;WIDTH:0.45
G1 F7200
G1 X53.181 Y58.49 E0.05105
G1 X59.656 Y58.06 E0.10984
G1 X60.081 Y58.049 E0.0072
G1 X60.411 Y58.065 E0.00558
G1 X60.738 Y58.103 E0.00558
G1 X60.998 Y58.149 E0.00446
G1 X61.334 Y58.231 E0.00586
G1 X61.948 Y58.448 E0.01101
G1 X62.195 Y58.562 E0.00461
G1 X62.486 Y58.719 E0.0056
G1 X62.739 Y58.877 E0.00505
G1 X63.01 Y59.072 E0.00564
G1 X63.26 Y59.279 E0.0055
G1 X63.502 Y59.508 E0.00565
G1 X63.695 Y59.716 E0.0048
G1 X63.921 Y59.993 E0.00606
G1 X63.748 Y60.222 E0.00485
G1 X63.468 Y60.525 E0.00698
G1 X63.133 Y60.829 E0.00766
G1 X62.798 Y61.082 E0.0071
G1 X62.409 Y61.325 E0.00777
G1 X62.113 Y61.478 E0.00565
G1 X61.863 Y61.588 E0.00461
G1 X61.239 Y61.794 E0.01113
G1 X60.953 Y61.86 E0.00497
G1 X60.637 Y61.912 E0.00542
G1 X60.296 Y61.943 E0.00579
G1 X59.99 Y61.951 E0.00518
G1 X53.241 Y61.51 E0.11449
G1 X52.752 Y61.361 F27000
G1 F7200
G1 X52.752 Y58.648 E0.04592
G1 X50.589 Y58.637 E0.03662
G1 X50.59 Y58.233 E0.00684
G1 X59.636 Y57.632 E0.15345
G1 X60.086 Y57.62 E0.00762
G1 X60.446 Y57.637 E0.00609
G1 X60.8 Y57.678 E0.00604
G1 X61.086 Y57.73 E0.00492
G1 X61.456 Y57.82 E0.00645
G1 X62.109 Y58.05 E0.01171
G1 X62.387 Y58.178 E0.00518
G1 X62.702 Y58.348 E0.00606
G1 X62.978 Y58.521 E0.00552
G1 X63.272 Y58.732 E0.00613
G1 X63.544 Y58.958 E0.00599
G1 X63.807 Y59.207 E0.00612
G1 X64.019 Y59.434 E0.00526
G1 X64.251 Y59.719 E0.00622
G1 X64.453 Y60.002 E0.00588
G1 X64.076 Y60.497 E0.01052
G1 X63.77 Y60.829 E0.00764
G1 X63.407 Y61.159 E0.00831
G1 X63.041 Y61.436 E0.00776
G1 X62.621 Y61.698 E0.00838
G1 X62.297 Y61.865 E0.00617
G1 X62.017 Y61.988 E0.00519
G1 X61.354 Y62.207 E0.01181
G1 X61.035 Y62.281 E0.00554
G1 X60.691 Y62.337 E0.0059
G1 X60.322 Y62.371 E0.00628
G1 X59.982 Y62.38 E0.00575
G1 X51.147 Y61.803 E0.14985
G1 X50.979 Y61.355 E0.00811
G1 X52.692 Y61.361 E0.02901
G1 X52.324 Y60.931 F27000
G1 F7200
G1 X52.324 Y59.074 E0.03143
G1 X50.159 Y59.064 E0.03664
G1 X50.163 Y57.832 E0.02085
G1 X59.616 Y57.204 E0.16036
G1 X60.091 Y57.191 E0.00803
G1 X60.481 Y57.21 E0.00661
G1 X60.863 Y57.254 E0.00651
G1 X61.175 Y57.31 E0.00537
G1 X61.579 Y57.409 E0.00703
G1 X62.27 Y57.652 E0.0124
G1 X62.578 Y57.794 E0.00575
G1 X62.917 Y57.978 E0.00652
G1 X63.217 Y58.165 E0.00599
G1 X63.534 Y58.393 E0.00661
G1 X63.829 Y58.637 E0.00647
G1 X64.112 Y58.905 E0.0066
G1 X64.342 Y59.153 E0.00573
G1 X64.592 Y59.459 E0.00669
G1 X64.795 Y59.744 E0.00592
G1 X64.951 Y59.997 E0.00504
G1 X64.762 Y60.304 E0.00609
G1 X64.405 Y60.773 E0.00998
G1 X64.073 Y61.134 E0.00831
G1 X63.681 Y61.49 E0.00896
G1 X63.284 Y61.789 E0.00841
G1 X62.833 Y62.07 E0.00899
G1 X62.482 Y62.252 E0.00669
G1 X62.17 Y62.389 E0.00576
G1 X61.47 Y62.621 E0.01249
G1 X61.118 Y62.701 E0.00611
G1 X60.746 Y62.762 E0.00638
G1 X60.347 Y62.799 E0.00678
G1 X59.973 Y62.809 E0.00633
G1 X50.159 Y62.168 E0.16647
G1 X50.155 Y61.25 E0.01553
G1 X50.142 Y61.023 E0.00386
G1 X50.393 Y61.016 E0.00426
G1 X50.359 Y60.924 E0.00166
G1 X52.264 Y60.931 E0.03225
G1 X51.92 Y60.526 F27000
; custom gcode: feature_gcode
; External perimeter
;ExternalPerimeter
SET_VELOCITY_LIMIT ACCEL=450 ACCEL_TO_DECEL=250 SQUARE_CORNER_VELOCITY=8

; Perimeter
; custom gcode end: feature_gcode

;TYPE:External perimeter
;WIDTH:0.4
G1 F3600
M106 S51
G1 X51.92 Y59.476 E0.0157
G1 X49.754 Y59.465 E0.03239
G1 X49.76 Y57.824 E0.02454
G1 X49.78 Y57.73 E0.00144
G1 X49.838 Y57.611 E0.00197
G1 X49.893 Y57.546 E0.00128
G1 X49.963 Y57.492 E0.00132
G1 X50.043 Y57.455 E0.00132
G1 X50.189 Y57.426 E0.00223
G1 X59.598 Y56.8 E0.14097
G1 X60.095 Y56.787 E0.00744
G1 X60.514 Y56.808 E0.00626
G1 X60.922 Y56.855 E0.00614
G1 X61.259 Y56.915 E0.00512
G1 X61.694 Y57.022 E0.0067
G1 X62.421 Y57.278 E0.01152
G1 X62.759 Y57.433 E0.00555
G1 X63.12 Y57.629 E0.00614
G1 X63.442 Y57.83 E0.00567
G1 X63.781 Y58.073 E0.00624
G1 X64.096 Y58.335 E0.00612
G1 X64.399 Y58.621 E0.00622
G1 X64.646 Y58.888 E0.00545
G1 X64.913 Y59.214 E0.0063
G1 X65.131 Y59.521 E0.00563
G1 X65.338 Y59.857 E0.0059
G1 X65.378 Y60.004 E0.00229
G1 X65.374 Y60.052 E0.00072
G1 X65.354 Y60.113 E0.00095
G1 X65.095 Y60.532 E0.00737
G1 X64.715 Y61.032 E0.00939
G1 X64.357 Y61.42 E0.00789
G1 X63.938 Y61.801 E0.00846
G1 X63.513 Y62.122 E0.00797
G1 X63.033 Y62.421 E0.00845
G1 X62.656 Y62.617 E0.00635
G1 X62.315 Y62.766 E0.00557
G1 X61.579 Y63.01 E0.0116
G1 X61.196 Y63.097 E0.00587
G1 X60.797 Y63.163 E0.00604
G1 X60.371 Y63.202 E0.0064
G1 X59.966 Y63.213 E0.00607
G1 X50.189 Y62.574 E0.14647
G1 X50.043 Y62.545 E0.00223
G1 X49.966 Y62.509 E0.00127
G1 X49.87 Y62.43 E0.00186
G1 X49.819 Y62.36 E0.00129
G1 X49.782 Y62.277 E0.00137
G1 X49.755 Y62.131 E0.00221
G1 X49.751 Y61.263 E0.01299
