; generated by SuperSlicer 2.3.57 on 2022-04-17 at 19:02:50 UTC


;
;

;
;
; 

; external perimeters extrusion width = 0.40mm
; perimeters extrusion width = 0.45mm
; infill extrusion width = 0.72mm
; solid infill extrusion width = 0.56mm
; top infill extrusion width = 0.40mm
; first layer extrusion width = 0.50mm

; object:{"name":"3DBenchy","id":"3DBenchy.stl id:0 copy 0","object_center":[60.000000,60.000000,0.000000],"boundingbox_center":[60.000000,60.000000,15.600000],"boundingbox_size":[39.000650,20.152600,31.200000]}
; plater:{"center":[60.000000,60.000000,0.000000],"boundingbox_center":[60.000000,60.000000,15.600000],"boundingbox_size":[39.000650,20.152600,31.200000]}

M73 P0 R51
;TYPE:Custom
; custom gcode: start_gcode
PRINT_START BED=110 HOTEND=250 CHAMBER=45
; custom gcode end: start_gcode
G21 ; set units to millimeters
G90 ; use absolute coordinates
M83 ; use relative distances for extrusion
; custom gcode: start_filament_gcode
; Filament gcode
; custom gcode end: start_filament_gcode
M104 S250 ; set temperature
M109 S250 ; set temperature and wait for it to be reached
M190 S110 ; set bed temperature and wait for it to be reached
;LAYER_CHANGE
;Z:0.3
;HEIGHT:0.3
G1 E-0.4 F1800
G1 Z0.3 F27000
G1 Z0.5
G1 X40.239 Y52.154
G1 Z0.3
G1 E0.4 F1800
; custom gcode: feature_gcode
; External perimeter
;Skirt
SET_VELOCITY_LIMIT ACCEL=5000 ACCEL_TO_DECEL=2500 SQUARE_CORNER_VELOCITY=8

; Support material
; custom gcode end: feature_gcode

;TYPE:Skirt
;WIDTH:0.5
G1 X39.707 Y52.686 E0.0388
G1 X39.137 Y53.432 E0.04853
G1 X38.465 Y54.851 E0.08101
G1 X38.187 Y56.167 E0.06943
G1 X38.057 Y58.537 E0.12254
G1 X38.057 Y61.647 E0.16053
G1 X38.247 Y64.273 E0.1359
G1 X38.458 Y65.136 E0.04583
G1 X38.787 Y65.945 E0.04508
G1 X39.145 Y66.581 E0.03765
G1 X39.663 Y67.27 E0.04453
G1 X40.552 Y68.095 E0.06257
G1 X41.338 Y68.612 E0.04855
G1 X42.421 Y69.072 E0.06072
G1 X43.47 Y69.301 E0.05543
G1 X60.063 Y70.314 E0.85811
G1 X61.631 Y70.227 E0.08104
G1 X62.816 Y70.049 E0.06182
G1 X64.09 Y69.747 E0.06763
G1 X65.161 Y69.397 E0.05816
G1 X67.244 Y68.436 E0.11838
G1 X69.768 Y66.79 E0.15555
G1 X70.853 Y65.751 E0.07752
G1 X71.922 Y64.482 E0.08565
G1 X72.931 Y62.752 E0.10336
G1 X73.352 Y61.746 E0.0563
G1 X73.57 Y60.7 E0.05513
G1 X73.59 Y59.398 E0.06725
G1 X73.301 Y58.12 E0.06759
G1 X72.872 Y57.142 E0.05513
G1 X71.728 Y55.424 E0.10658
G1 X70.553 Y54.081 E0.09208
G1 X69.222 Y52.888 E0.09228
G1 X67.316 Y51.604 E0.11863
G1 X65.725 Y50.825 E0.09142
G1 X64.013 Y50.233 E0.09349
G1 X61.804 Y49.793 E0.11629
G1 X60.032 Y49.686 E0.09162
G1 X43.59 Y50.682 E0.85021
G1 X42.656 Y50.858 E0.04909
G1 X41.745 Y51.186 E0.04995
G1 X41.044 Y51.563 E0.04109
G1 X40.287 Y52.118 E0.04844
G1 X40.579 Y52.437 F27000
G1 F1800
G1 X40.065 Y52.939 E0.0371
G1 X39.518 Y53.645 E0.04611
G1 X38.877 Y54.992 E0.07696
G1 X38.619 Y56.223 E0.06495
G1 X38.494 Y58.53 E0.11923
G1 X38.492 Y61.622 E0.15961
G1 X38.667 Y64.145 E0.13053
G1 X38.862 Y64.971 E0.0438
G1 X39.16 Y65.713 E0.04125
G1 X39.945 Y66.929 E0.07473
G1 X40.573 Y67.55 E0.04559
G1 X41.522 Y68.216 E0.05982
G1 X42.555 Y68.657 E0.05798
G1 X43.547 Y68.873 E0.05243
G1 X60.051 Y69.879 E0.85344
G1 X61.593 Y69.793 E0.0797
G1 X62.736 Y69.621 E0.0597
G1 X64.998 Y68.993 E0.12116
G1 X67.016 Y68.065 E0.11463
G1 X69.431 Y66.505 E0.1484
G1 X70.522 Y65.468 E0.0777
G1 X71.552 Y64.252 E0.08225
G1 X72.536 Y62.567 E0.10073
G1 X72.922 Y61.66 E0.05088
G1 X73.134 Y60.682 E0.05162
G1 X73.158 Y59.455 E0.06338
G1 X72.885 Y58.25 E0.06374
G1 X72.486 Y57.345 E0.05107
G1 X71.376 Y55.681 E0.10322
G1 X70.241 Y54.384 E0.08898
G1 X68.953 Y53.231 E0.08924
G1 X67.091 Y51.977 E0.11583
M73 P0 R50
G1 X65.559 Y51.227 E0.08809
G1 X63.903 Y50.654 E0.09042
G1 X61.751 Y50.225 E0.1133
G1 X60.032 Y50.121 E0.08885
G1 X43.672 Y51.111 E0.84598
G1 X42.795 Y51.272 E0.04602
G1 X41.959 Y51.568 E0.0458
G1 X41.318 Y51.905 E0.03737
G1 X40.627 Y52.401 E0.04392
G1 X40.908 Y52.73 F27000
G1 F1800
G1 X40.413 Y53.203 E0.03532
G1 X39.89 Y53.872 E0.04384
G1 X39.288 Y55.136 E0.07226
G1 X39.05 Y56.283 E0.06049
G1 X38.93 Y58.53 E0.1161
G1 X38.927 Y61.598 E0.15838
G1 X39.088 Y64.026 E0.1256
G1 X39.269 Y64.812 E0.04165
G1 X39.538 Y65.492 E0.03772
G1 X40.237 Y66.599 E0.06757
G1 X40.821 Y67.19 E0.04288
G1 X41.716 Y67.826 E0.05665
G1 X42.687 Y68.242 E0.05457
G1 X43.623 Y68.443 E0.04939
G1 X60.039 Y69.443 E0.8489
G1 X61.548 Y69.36 E0.07803
G1 X62.657 Y69.193 E0.05787
G1 X64.84 Y68.586 E0.11697
G1 X66.789 Y67.693 E0.11062
G1 X69.102 Y66.212 E0.14176
G1 X70.192 Y65.183 E0.07738
G1 X71.182 Y64.02 E0.07884
G1 X72.142 Y62.38 E0.09807
G1 X72.492 Y61.571 E0.04553
G1 X72.698 Y60.667 E0.04783
G1 X72.726 Y59.517 E0.05936
G1 X72.472 Y58.387 E0.05979
G1 X72.101 Y57.549 E0.04731
G1 X71.029 Y55.944 E0.09964
G1 X69.932 Y54.692 E0.0859
G1 X68.689 Y53.577 E0.08623
G1 X66.873 Y52.354 E0.113
G1 X65.392 Y51.63 E0.08506
G1 X63.788 Y51.074 E0.08762
G1 X61.687 Y50.656 E0.11057
G1 X60.028 Y50.557 E0.0858
G1 X43.742 Y51.541 E0.84215
G1 X42.929 Y51.687 E0.04265
G1 X42.162 Y51.955 E0.04193
G1 X41.576 Y52.257 E0.03401
G1 X40.957 Y52.695 E0.03919
; INIT printing object 3DBenchy.stl id:0 copy 0
G1 E-0.4
G1 Z0.5 F27000
; printing object 3DBenchy.stl id:0 copy 0
G1 X58.216 Y57.787
G1 Z0.3
G1 E0.4 F1800
; custom gcode: feature_gcode
; External perimeter
;Perimeter
SET_VELOCITY_LIMIT ACCEL=800 ACCEL_TO_DECEL=400 SQUARE_CORNER_VELOCITY=8

; Overhang perimeter
; custom gcode end: feature_gcode

;TYPE:Internal perimeter
G1 X57.869 Y57.349 E0.02885
G1 X57.447 Y56.984 E0.02881
G1 X57.107 Y56.794 E0.02009
G1 X57.176 Y56.492 E0.016
G1 X59.529 Y56.347 E0.12169
G1 X60.029 Y56.332 E0.02581
G1 X60.467 Y56.343 E0.02266
G1 X60.94 Y56.382 E0.02447
G1 X61.403 Y56.448 E0.02415
G1 X61.853 Y56.538 E0.02368
G1 X62.287 Y56.651 E0.02313
G1 X62.719 Y56.788 E0.0234
G1 X63.177 Y56.964 E0.02535
G1 X63.916 Y57.296 E0.0418
G1 X62.932 Y57.608 E0.05329
G1 X62.27 Y57.385 E0.03606
G1 X61.272 Y57.465 E0.05164
G1 X60.927 Y57.269 E0.02049
G1 X60.19 Y57.539 E0.04051
G1 X60.053 Y57.46 E0.00819
G1 X59.302 Y57.364 E0.03905
G1 X58.531 Y57.564 E0.04114
G1 X58.265 Y57.753 E0.01681
G1 X64.462 Y57.58 F27000
G1 F1800
G1 X63.123 Y58.004 E0.07254
G1 X62.95 Y58.167 E0.01223
G1 X62.742 Y58.004 E0.01364
G1 X62.215 Y57.826 E0.0287
G1 X61.419 Y57.89 E0.04124
G1 X61.331 Y58 E0.00723
G1 X60.887 Y57.748 E0.02636
G1 X60.15 Y58.018 E0.04054
G1 X59.912 Y57.881 E0.01417
G1 X59.33 Y57.807 E0.03025
G1 X58.717 Y57.966 E0.03269
G1 X58.066 Y58.427 E0.04117
G1 X57.869 Y58.051 E0.02189
G1 X57.553 Y57.651 E0.02631
G1 X57.196 Y57.343 E0.02438
G1 X56.761 Y57.1 E0.02569
G1 X56.288 Y56.954 E0.02557
G1 X55.76 Y56.876 E0.02752
G1 X54.568 Y56.851 E0.06156
G1 X54.154 Y56.903 E0.02155
G1 X53.535 Y57.157 E0.03452
G1 X53.124 Y56.932 E0.02417
G1 X52.546 Y56.776 E0.03092
G1 X52.166 Y56.756 E0.01961
G1 X52.164 Y56.365 E0.02019
G1 X59.509 Y55.912 E0.37982
G1 X60.028 Y55.896 E0.02679
G1 X60.491 Y55.908 E0.02392
G1 X60.988 Y55.949 E0.02576
G1 X61.477 Y56.019 E0.02545
G1 X61.95 Y56.114 E0.02494
G1 X62.407 Y56.232 E0.02437
G1 X62.863 Y56.377 E0.02466
G1 X63.345 Y56.561 E0.02664
G1 X63.764 Y56.75 E0.02371
G1 X64.213 Y56.984 E0.02613
G1 X64.641 Y57.239 E0.02573
G1 X64.951 Y57.425 E0.01869
G1 X64.926 Y57.433 E0.00136
G1 X65.41 Y57.761 E0.03016
G1 X64.597 Y57.903 E0.0426
G1 X64.485 Y57.635 E0.01498
G1 X50.166 Y56.488 F27000
G1 F1800
G1 X51.567 Y56.402 E0.07248
G1 X51.634 Y56.762 E0.01892
G1 X51.005 Y56.96 E0.03405
G1 X50.787 Y57.089 E0.01307
G1 X50.604 Y56.887 E0.01401
G1 X50.18 Y56.891 E0.0219
G1 X50.168 Y56.548 E0.01771
G1 X64.213 Y58.116 F27000
G1 F1800
G1 X63.349 Y58.39 E0.0468
G1 X62.976 Y58.741 E0.02643
G1 X62.532 Y58.393 E0.02912
G1 X62.161 Y58.268 E0.02023
G1 X61.642 Y58.309 E0.0269
G1 X61.439 Y58.562 E0.01671
G1 X60.848 Y58.226 E0.03513
G1 X60.11 Y58.496 E0.04057
G1 X59.771 Y58.303 E0.02015
G1 X59.358 Y58.25 E0.02145
G1 X58.904 Y58.368 E0.02424
G1 X58.609 Y58.577 E0.01866
G1 X58.374 Y58.987 E0.02443
G1 X58.354 Y59.431 E0.02291
G1 X58.494 Y59.871 E0.02387
G1 X58.704 Y60.245 E0.02212
G1 X57.853 Y60.202 E0.04399
G1 X57.906 Y59.935 E0.01405
G1 X57.894 Y59.378 E0.02876
G1 X57.817 Y59.008 E0.01947
G1 X57.705 Y58.677 E0.01805
G1 X57.502 Y58.29 E0.02259
G1 X57.237 Y57.954 E0.02207
G1 X56.945 Y57.702 E0.01994
G1 X56.589 Y57.503 E0.02105
G1 X56.191 Y57.38 E0.02148
G1 X55.724 Y57.311 E0.02438
G1 X54.591 Y57.287 E0.0585
G1 X54.266 Y57.328 E0.01692
G1 X53.889 Y57.482 E0.02101
G1 X53.591 Y57.777 E0.02164
G1 X53.256 Y57.501 E0.0224
G1 X52.96 Y57.339 E0.01738
G1 X52.477 Y57.208 E0.02585
G1 X51.986 Y57.183 E0.02536
G1 X51.583 Y57.235 E0.02098
G1 X51.183 Y57.36 E0.02163
G1 X50.895 Y57.531 E0.01727
G1 X50.755 Y57.703 E0.01145
G1 X50.413 Y57.325 E0.02634
G1 X49.894 Y57.329 E0.02677
G1 X49.774 Y57.304 E0.00635
G1 X49.249 Y57.295 E0.02708
G1 X48.284 Y57.295 E0.04983
G1 X47.119 Y57.33 E0.06016
G1 X46.833 Y57.707 E0.0244
G1 X46.497 Y57.451 E0.02182
G1 X46.135 Y57.292 E0.02039
G1 X45.867 Y57.214 E0.01438
G1 X45.328 Y57.181 E0.02791
G1 X44.785 Y57.258 E0.0283
G1 X44.353 Y57.424 E0.02387
G1 X43.91 Y57.718 E0.02747
G1 X43.929 Y56.786 E0.04814
G1 X43.946 Y56.682 E0.00543
G1 X43.989 Y56.574 E0.00597
G1 X44.04 Y56.51 E0.00423
G1 X44.118 Y56.455 E0.00494
G1 X44.174 Y56.434 E0.00309
G1 X44.296 Y56.414 E0.00638
G1 X59.489 Y55.476 E0.78571
G1 X60.027 Y55.461 E0.02777
G1 X60.515 Y55.473 E0.02517
G1 X61.037 Y55.516 E0.02706
G1 X61.55 Y55.589 E0.02675
G1 X62.048 Y55.689 E0.0262
G1 X62.528 Y55.813 E0.02561
G1 X63.007 Y55.965 E0.02593
G1 X63.512 Y56.159 E0.02794
G1 X63.954 Y56.358 E0.025
G1 X64.425 Y56.603 E0.02743
G1 X64.876 Y56.873 E0.02712
G1 X65.314 Y57.17 E0.02733
G1 X65.697 Y57.462 E0.02484
G1 X66.093 Y57.802 E0.02694
G1 X66.534 Y58.227 E0.03161
G1 X65.536 Y58.235 E0.05155
G1 X65.06 Y58.264 E0.02458
G1 X64.785 Y58.313 E0.01443
G1 X64.649 Y58.412 E0.00868
G1 X64.375 Y58.503 E0.01495
G1 X64.236 Y58.171 E0.01858
G1 E-0.4
G1 Z0.5 F27000
G1 X67.266 Y60.982
G1 Z0.3
G1 E0.4 F1800
G1 X66.892 Y60.707 E0.024
G1 X67.24 Y60.281 E0.02837
G1 X67.555 Y60.503 E0.01987
G1 X67.297 Y60.931 E0.02577
G1 E-0.4
G1 Z0.5 F27000
G1 X63.924 Y62.253
G1 Z0.3
G1 E0.4 F1800
G1 X64.521 Y62.726 E0.03934
G1 X65.319 Y62.861 E0.04174
G1 X64.405 Y63.407 E0.05494
G1 X63.829 Y63.701 E0.03337
G1 X63.199 Y63.964 E0.03524
G1 X63.616 Y63.047 E0.05201
G1 X63.902 Y62.309 E0.04084
G1 E-0.4
G1 Z0.5 F27000
G1 X50.905 Y60.405
G1 Z0.3
G1 E0.4 F1800
G1 X50.638 Y60.563 E0.01597
G1 X50.413 Y60.815 E0.01744
G1 X50.217 Y61.276 E0.02586
G1 X49.886 Y61.209 E0.01743
G1 X49.883 Y59.476 E0.08942
G1 X50.229 Y59.402 E0.01829
G1 X50.624 Y59.206 E0.02273
G1 X50.872 Y59.402 E0.01634
G1 X50.778 Y59.655 E0.01394
G1 X50.723 Y60.061 E0.02116
G1 X50.877 Y60.352 E0.01699
G1 E-0.4
G1 Z0.5 F27000
G1 X45.282 Y60.617
G1 Z0.3
G1 E0.4 F1800
G1 X45.23 Y60.121 E0.02578
G1 X45.229 Y59.87 E0.01292
G1 X45.246 Y59.678 E0.00996
G1 X45.307 Y59.367 E0.01638
G1 X45.597 Y59.541 E0.01745
G1 X46.004 Y59.683 E0.02224
G1 X46.458 Y59.728 E0.02355
G1 X46.826 Y59.522 E0.02178
G1 X47.035 Y59.261 E0.01728
G1 X47.318 Y59.416 E0.01666
G1 X47.698 Y59.522 E0.02038
G1 X47.708 Y61.013 E0.07694
G1 X47.391 Y61.091 E0.01682
G1 X47.17 Y60.666 E0.02477
G1 X46.918 Y60.429 E0.01782
G1 X46.62 Y60.277 E0.0173
G1 X46.314 Y60.215 E0.01609
G1 X46.062 Y60.22 E0.01302
G1 X45.748 Y60.305 E0.01679
G1 X45.332 Y60.584 E0.02586
G1 E-0.4
G1 Z0.5 F27000
G1 X60.478 Y64.096
G1 Z0.3
G1 E0.4 F1800
G1 X59.993 Y64.104 E0.02501
G1 X59.481 Y64.087 E0.02648
G1 X51.798 Y63.612 E0.39732
G1 X49.079 Y63.445 E0.14058
G1 X49.041 Y63.098 E0.01799
G1 X49.455 Y62.979 E0.02224
G1 X49.876 Y62.684 E0.02653
G1 X50.103 Y62.36 E0.02042
G1 X50.36 Y62.662 E0.02049
G1 X50.694 Y62.9 E0.02115
G1 X51.035 Y63.053 E0.01927
G1 X51.404 Y63.156 E0.01981
G1 X51.999 Y63.211 E0.03083
G1 X52.419 Y63.189 E0.02173
G1 X52.909 Y63.079 E0.02587
G1 X53.385 Y62.856 E0.02715
G1 X53.541 Y62.734 E0.01022
G1 X53.808 Y62.968 E0.01837
G1 X54.444 Y63.121 E0.03374
G1 X54.856 Y63.089 E0.02133
G1 X55.38 Y63.095 E0.02707
G1 X55.866 Y63.064 E0.0251
G1 X56.645 Y62.86 E0.04157
G1 X56.717 Y62.974 E0.00697
G1 X57.331 Y63.292 E0.03569
G1 X57.991 Y63.376 E0.03433
G1 X58.391 Y63.315 E0.02091
G1 X58.908 Y63.046 E0.03007
G1 X59.172 Y63.172 E0.01506
G1 X59.777 Y63.127 E0.03134
G1 X60.02 Y62.994 E0.0143
G1 X60.253 Y63.099 E0.01319
G1 X60.281 Y63.575 E0.02459
G1 X60.456 Y64.039 E0.02563
G1 X48.305 Y63.045 F27000
G1 F1800
G1 X48.229 Y63.392 E0.01834
G1 X46.656 Y63.295 E0.08138
G1 X46.581 Y63.003 E0.01554
G1 X47.042 Y62.711 E0.0282
G1 X47.352 Y62.409 E0.02234
G1 X47.953 Y62.911 E0.0404
G1 X48.249 Y63.023 E0.01633
G1 X43.911 Y62.28 F27000
G1 F1800
G1 X44.518 Y62.606 E0.03553
G1 X44.991 Y62.74 E0.02537
G1 X45.565 Y62.771 E0.02966
G1 X45.903 Y62.736 E0.01756
G1 X46.211 Y62.66 E0.01634
G1 X46.5 Y62.539 E0.01622
G1 X46.771 Y62.368 E0.01652
G1 X47.054 Y62.091 E0.02044
G1 X47.231 Y61.82 E0.01672
G1 X47.354 Y61.514 E0.01701
G1 X47.695 Y61.587 E0.018
G1 X47.685 Y61.842 E0.01317
G1 X47.873 Y62.276 E0.02444
G1 X48.176 Y62.53 E0.02041
G1 X48.514 Y62.659 E0.01866
G1 X48.928 Y62.677 E0.02137
G1 X49.265 Y62.581 E0.01811
G1 X49.563 Y62.372 E0.0188
G1 X49.773 Y62.073 E0.01883
G1 X49.933 Y61.531 E0.02914
G1 X50.254 Y61.543 E0.01657
G1 X50.313 Y61.816 E0.01442
G1 X50.446 Y62.091 E0.01576
G1 X50.657 Y62.339 E0.01679
G1 X50.911 Y62.52 E0.01612
G1 X51.183 Y62.642 E0.01537
G1 X51.484 Y62.726 E0.0161
G1 X52.007 Y62.774 E0.02714
G1 X52.36 Y62.755 E0.01823
G1 X52.767 Y62.665 E0.02153
G1 X53.155 Y62.483 E0.02212
G1 X53.613 Y62.123 E0.03006
G1 X53.72 Y62.312 E0.0112
G1 X54.014 Y62.57 E0.02018
G1 X54.479 Y62.681 E0.02465
G1 X54.842 Y62.653 E0.0188
G1 X55.369 Y62.66 E0.02721
G1 X55.796 Y62.632 E0.02208
G1 X56.458 Y62.459 E0.03532
G1 X56.767 Y62.237 E0.01965
G1 X57.022 Y62.642 E0.02469
G1 X57.462 Y62.87 E0.02558
G1 X57.986 Y62.936 E0.02723
G1 X58.255 Y62.895 E0.01404
G1 X58.549 Y62.742 E0.01714
G1 X58.799 Y62.512 E0.01752
G1 X59.255 Y62.729 E0.02606
G1 X59.651 Y62.7 E0.02052
G1 X60.001 Y62.508 E0.02061
G1 X60.511 Y62.738 E0.02886
G1 X60.785 Y62.775 E0.01426
G1 X60.696 Y63.203 E0.02258
G1 X60.712 Y63.483 E0.0145
G1 X60.884 Y63.94 E0.02518
G1 X61.386 Y64.455 E0.03713
G1 X60.393 Y64.533 E0.05141
G1 X59.99 Y64.54 E0.02083
G1 X59.46 Y64.522 E0.02738
G1 X44.297 Y63.586 E0.78411
G1 X44.181 Y63.567 E0.0061
G1 X44.09 Y63.528 E0.00512
G1 X44.016 Y63.468 E0.0049
G1 X43.987 Y63.428 E0.00258
G1 X43.956 Y63.358 E0.00391
G1 X43.936 Y63.269 E0.00475
G1 X43.913 Y62.34 E0.04793
G1 E-0.4
G1 Z0.5 F27000
G1 X60.128 Y59.345
G1 Z0.3
G1 E0.4 F1800
; custom gcode: feature_gcode
; External perimeter
;ExternalPerimeter
SET_VELOCITY_LIMIT ACCEL=450 ACCEL_TO_DECEL=250 SQUARE_CORNER_VELOCITY=8

; Perimeter
; custom gcode end: feature_gcode

;TYPE:External perimeter
G1 X60.113 Y59.358 E0.00102
G1 X60.004 Y59.157 E0.01179
G1 X59.901 Y59.028 E0.0085
G1 X59.922 Y58.891 E0.00718
G1 X59.63 Y58.724 E0.01737
G1 X59.386 Y58.693 E0.01266
G1 X59.09 Y58.769 E0.01579
G1 X58.939 Y58.877 E0.00958
G1 X58.804 Y59.112 E0.01402
G1 X58.792 Y59.373 E0.01346
G1 X58.895 Y59.697 E0.01754
G1 X59.25 Y60.327 E0.03733
G1 X59.38 Y60.485 E0.01056
G1 X59.386 Y60.513 E0.00149
G1 X59.374 Y60.546 E0.00179
G1 X59.239 Y60.736 E0.01202
G1 X59.15 Y61.015 E0.01513
G1 X58.891 Y61.476 E0.02727
G1 X58.833 Y61.713 E0.01261
G1 X58.888 Y61.974 E0.01376
G1 X59.059 Y62.153 E0.01277
G1 X59.338 Y62.286 E0.01595
G1 X59.525 Y62.272 E0.00969
G1 X59.752 Y62.148 E0.01334
G1 X59.777 Y62.044 E0.00555
G1 X59.98 Y61.756 E0.01817
G1 X60.06 Y61.605 E0.00884
G1 X60.11 Y61.636 E0.00305
G1 X60.307 Y61.978 E0.02037
G1 X60.348 Y62.029 E0.00338
G1 X60.367 Y62.195 E0.00861
G1 X60.632 Y62.314 E0.01499
G1 X60.783 Y62.335 E0.00783
G1 X60.964 Y62.312 E0.00946
G1 X61.205 Y62.234 E0.01307
G1 X61.363 Y62.058 E0.01218
G1 X61.438 Y61.85 E0.01141
G1 X61.444 Y61.64 E0.01086
G1 X61.401 Y61.423 E0.01139
G1 X60.879 Y60.526 E0.05359
G1 X60.858 Y60.456 E0.00377
G1 X60.859 Y60.439 E0.00087
G1 X60.894 Y60.328 E0.00604
G1 X61.055 Y60.015 E0.01816
G1 X61.138 Y59.763 E0.01368
G1 X61.28 Y59.498 E0.0155
G1 X61.32 Y59.301 E0.01041
G1 X61.267 Y59.073 E0.01208
G1 X61.106 Y58.874 E0.01319
G1 X60.808 Y58.704 E0.01772
G1 X60.476 Y58.826 E0.01824
G1 X60.237 Y59.135 E0.02015
