; generated by SuperSlicer 2.3.57 on 2022-04-13 at 15:08:19 UTC


;
;

;
;
; 

; external perimeters extrusion width = 0.40mm
; perimeters extrusion width = 0.45mm
; infill extrusion width = 0.72mm
; solid infill extrusion width = 0.56mm
; top infill extrusion width = 0.40mm
; first layer extrusion width = 0.50mm

; object:{"name":"3mm_Hinge_Bottom_B_x1","id":"3mm_Hinge_Bottom_B_x1.stl id:0 copy 0","object_center":[56.822885,83.637673,0.000000],"boundingbox_center":[56.822885,83.637673,2.499526],"boundingbox_size":[34.999893,30.000000,4.999052]}
; object:{"name":"Door_Handle_x1","id":"Door_Handle_x1.STL id:1 copy 0","object_center":[59.812145,100.182592,0.000000],"boundingbox_center":[59.812145,100.182592,5.000000],"boundingbox_size":[104.243851,25.499999,10.000000]}
; plater:{"center":[59.812145,90.785133,0.000000],"boundingbox_center":[59.812145,90.785133,5.000000],"boundingbox_size":[104.243851,44.294919,10.000000]}

M73 P0 R48
;TYPE:Custom
; custom gcode: start_gcode
PRINT_START BED=110 HOTEND=260 CHAMBER=45
; custom gcode end: start_gcode
G21 ; set units to millimeters
G90 ; use absolute coordinates
M83 ; use relative distances for extrusion
; custom gcode: start_filament_gcode
; Filament gcode
; custom gcode end: start_filament_gcode
M104 S260 ; set temperature
M109 S260 ; set temperature and wait for it to be reached
M190 S110 ; set bed temperature and wait for it to be reached
;LAYER_CHANGE
;Z:0.2375
;HEIGHT:0.2375
G1 E-2 F1800
G1 Z0.2375 F27000
G1 Z0.5375
G1 X34.649 Y68.427
G1 Z0.2375
G1 E2 F1800
; custom gcode: feature_gcode
; External perimeter
;Skirt
SET_VELOCITY_LIMIT ACCEL=5000 ACCEL_TO_DECEL=2500 SQUARE_CORNER_VELOCITY=8

; Support material
; custom gcode end: feature_gcode

;TYPE:Skirt
;WIDTH:0.5
G1 X5.93 Y82.969 E1.35591
G1 X5.195 Y83.425 E0.03646
G1 X4.467 Y84.085 E0.04138
G1 X3.881 Y84.867 E0.04115
G1 X3.453 Y85.751 E0.04138
G1 X3.201 Y86.701 E0.04138
G1 X3.133 Y87.468 E0.03247
G1 X3.137 Y91.71 E0.17868
G1 X3.261 Y92.601 E0.03787
G1 X3.541 Y93.461 E0.0381
G1 X4.24 Y94.634 E0.05752
G1 X5.219 Y95.578 E0.05729
G1 X32.087 Y114.433 E1.38257
G1 X34.064 Y115.614 E0.09697
G1 X35.753 Y116.315 E0.07702
G1 X36.838 Y116.637 E0.04768
G1 X38.255 Y116.921 E0.06087
G1 X40.264 Y117.072 E0.08485
G1 X79.383 Y117.072 E1.64773
G1 X80.605 Y117.011 E0.05155
G1 X82.438 Y116.721 E0.07818
G1 X83.655 Y116.389 E0.05311
G1 X84.769 Y115.977 E0.05006
G1 X85.899 Y115.442 E0.05264
G1 X87.523 Y114.443 E0.08029
G1 X114.872 Y95.19 E1.40879
G1 X115.431 Y94.574 E0.03505
G1 X115.883 Y93.875 E0.03505
G1 X116.216 Y93.112 E0.03505
G1 X116.421 Y92.306 E0.03505
G1 X116.492 Y91.527 E0.03294
G1 X116.491 Y87.481 E0.17043
G1 X116.363 Y86.395 E0.04607
G1 X116.001 Y85.345 E0.04677
G1 X115.42 Y84.399 E0.04677
G1 X114.65 Y83.599 E0.04677
G1 X113.725 Y82.985 E0.04677
G1 X75.043 Y64.378 E1.808
G1 X73.987 Y64.019 E0.047
G1 X72.883 Y63.898 E0.04677
G1 X45.066 Y63.898 E1.17166
G1 X43.844 Y64.026 E0.05176
G1 X42.592 Y64.405 E0.05511
G1 X34.703 Y68.399 E0.37246
G1 X34.905 Y68.8 F27000
G1 F1800
G1 X6.134 Y83.368 E1.35837
G1 X5.494 Y83.762 E0.03168
G1 X4.818 Y84.366 E0.03818
G1 X4.271 Y85.089 E0.03818
G1 X3.874 Y85.904 E0.03818
G1 X3.642 Y86.78 E0.03818
G1 X3.582 Y87.477 E0.02944
G1 X3.584 Y91.665 E0.17641
G1 X3.694 Y92.479 E0.0346
G1 X3.942 Y93.256 E0.03437
G1 X4.582 Y94.344 E0.05315
G1 X5.49 Y95.22 E0.05315
G1 X32.344 Y114.066 E1.38189
G1 X34.252 Y115.207 E0.09362
G1 X35.908 Y115.894 E0.07551
G1 X36.963 Y116.206 E0.04633
G1 X38.315 Y116.476 E0.05809
G1 X40.266 Y116.624 E0.08242
G1 X79.371 Y116.624 E1.64713
G1 X80.553 Y116.566 E0.04985
G1 X82.343 Y116.282 E0.07635
G1 X83.514 Y115.963 E0.05112
G1 X84.573 Y115.573 E0.04753
G1 X85.676 Y115.053 E0.05135
G1 X87.267 Y114.075 E0.07866
G1 X114.551 Y94.876 E1.40527
G1 X115.072 Y94.304 E0.03258
G1 X115.49 Y93.659 E0.03236
G1 X115.796 Y92.955 E0.03236
G1 X115.982 Y92.21 E0.03236
G1 X116.044 Y91.513 E0.02944
G1 X116.042 Y87.484 E0.16973
G1 X115.926 Y86.494 E0.04198
G1 X115.595 Y85.537 E0.04266
G1 X115.062 Y84.669 E0.04288
G1 X114.359 Y83.941 E0.04266
G1 X113.51 Y83.379 E0.04288
G1 X74.858 Y64.787 E1.80661
G1 X73.894 Y64.458 E0.04288
G1 X72.883 Y64.346 E0.04288
G1 X45.084 Y64.347 E1.17091
G1 X43.952 Y64.462 E0.04792
G1 X42.789 Y64.808 E0.05111
G1 X34.959 Y68.773 E0.36967
G1 X35.162 Y69.174 F27000
G1 F1800
G1 X6.339 Y83.767 E1.36079
G1 X5.785 Y84.105 E0.02735
G1 X5.161 Y84.655 E0.03502
G1 X4.66 Y85.312 E0.03481
G1 X4.295 Y86.059 E0.03502
G1 X4.083 Y86.863 E0.03502
G1 X4.032 Y91.633 E0.20092
G1 X4.127 Y92.362 E0.03097
G1 X4.347 Y93.063 E0.03097
G1 X4.929 Y94.06 E0.04861
G1 X5.764 Y94.865 E0.04882
G1 X33.314 Y114.175 E1.4171
G1 X35.103 Y115.106 E0.08496
G1 X36.359 Y115.57 E0.0564
G1 X38.259 Y116.015 E0.08219
G1 X40.284 Y116.175 E0.08555
G1 X79.369 Y116.175 E1.64633
M73 P1 R48
G1 X81.377 Y116.014 E0.08484
G1 X83.311 Y115.557 E0.08369
G1 X85.296 Y114.747 E0.0903
G1 X87.006 Y113.71 E0.08426
G1 X113.823 Y94.891 E1.37993
G1 X114.379 Y94.418 E0.03076
G1 X114.845 Y93.855 E0.03076
G1 X115.33 Y92.926 E0.04416
G1 X115.572 Y91.901 E0.04437
G1 X115.569 Y87.072 E0.20337
G1 X115.375 Y86.191 E0.038
G1 X114.999 Y85.371 E0.038
G1 X114.458 Y84.65 E0.038
G1 X113.775 Y84.06 E0.038
G1 X113.205 Y83.728 E0.02778
G1 X74.676 Y65.197 E1.80084
G1 X73.804 Y64.898 E0.03885
G1 X72.882 Y64.795 E0.03906
G1 X45.096 Y64.795 E1.17038
G1 X44.054 Y64.899 E0.04412
G1 X42.989 Y65.211 E0.04673
G1 X35.216 Y69.147 E0.36701
; INIT printing object 3mm_Hinge_Bottom_B_x1.stl id:0 copy 0
G1 E-2
G1 Z0.5375 F27000
; printing object 3mm_Hinge_Bottom_B_x1.stl id:0 copy 0
G1 X58.98 Y88.798
G1 Z0.2375
G1 E2 F1800
; custom gcode: feature_gcode
; External perimeter
;Perimeter
SET_VELOCITY_LIMIT ACCEL=800 ACCEL_TO_DECEL=400 SQUARE_CORNER_VELOCITY=8

; Overhang perimeter
; custom gcode end: feature_gcode

;TYPE:Internal perimeter
G1 X58.632 Y89.295 E0.02558
G1 X58.361 Y89.877 E0.02705
G1 X58.194 Y90.498 E0.02705
G1 X58.141 Y91.103 E0.02558
G1 X58.159 Y91.493 E0.01647
G1 X58.264 Y92.091 E0.02557
G1 X58.484 Y92.695 E0.02705
G1 X58.787 Y93.221 E0.02558
G1 X59.025 Y93.531 E0.01647
G1 X59.43 Y93.935 E0.0241
G1 X59.74 Y94.173 E0.01647
G1 X60.266 Y94.477 E0.02558
G1 X60.869 Y94.697 E0.02705
G1 X61.502 Y94.808 E0.02705
G1 X62.144 Y94.808 E0.02705
G1 X62.777 Y94.697 E0.02705
G1 X63.38 Y94.477 E0.02705
G1 X63.936 Y94.156 E0.02705
G1 X64.401 Y93.766 E0.02558
G1 X64.666 Y93.477 E0.01647
G1 X64.994 Y93.009 E0.0241
G1 X65.174 Y92.662 E0.01647
G1 X65.382 Y92.091 E0.02558
G1 X65.493 Y91.459 E0.02705
G1 X65.493 Y90.817 E0.02705
G1 X65.382 Y90.184 E0.02705
G1 X65.174 Y89.613 E0.02558
G1 X64.994 Y89.267 E0.01647
G1 X64.645 Y88.769 E0.02558
G1 X64.191 Y88.315 E0.02705
G1 X63.665 Y87.947 E0.02705
G1 X63.083 Y87.675 E0.02705
G1 X62.463 Y87.509 E0.02705
G1 X61.858 Y87.456 E0.02558
G1 X61.467 Y87.473 E0.01647
G1 X60.869 Y87.579 E0.02558
G1 X60.266 Y87.798 E0.02705
G1 X59.71 Y88.119 E0.02705
G1 X59.244 Y88.51 E0.02557
G1 X59.021 Y88.754 E0.01394
G1 X59.352 Y89.057 F27000
G1 F1800
G1 X59.331 Y89.08 E0.00129
G1 X59.022 Y89.521 E0.02268
G1 X58.784 Y90.032 E0.02374
G1 X58.638 Y90.576 E0.02374
G1 X58.591 Y91.113 E0.02268
G1 X58.606 Y91.444 E0.01399
G1 X58.699 Y91.975 E0.02268
G1 X58.892 Y92.504 E0.02374
G1 X59.161 Y92.971 E0.02268
G1 X59.364 Y93.234 E0.01399
G1 X59.726 Y93.597 E0.02162
G1 X59.99 Y93.799 E0.01399
G1 X60.456 Y94.068 E0.02268
G1 X60.986 Y94.261 E0.02374
G1 X61.541 Y94.359 E0.02374
G1 X62.105 Y94.359 E0.02374
G1 X62.66 Y94.261 E0.02374
G1 X63.19 Y94.068 E0.02374
G1 X63.678 Y93.787 E0.02374
G1 X64.09 Y93.441 E0.02268
G1 X64.315 Y93.196 E0.01399
G1 X64.609 Y92.775 E0.02162
G1 X64.762 Y92.481 E0.01399
G1 X64.947 Y91.975 E0.02268
G1 X65.044 Y91.42 E0.02374
G1 X65.044 Y90.856 E0.02374
G1 X64.947 Y90.301 E0.02374
G1 X64.762 Y89.795 E0.02268
G1 X64.609 Y89.5 E0.01399
G1 X64.3 Y89.059 E0.02268
G1 X63.902 Y88.66 E0.02374
G1 X63.44 Y88.337 E0.02374
G1 X62.929 Y88.099 E0.02374
G1 X62.384 Y87.953 E0.02374
G1 X61.848 Y87.906 E0.02268
G1 X61.516 Y87.921 E0.01399
G1 X60.986 Y88.014 E0.02268
G1 X60.456 Y88.207 E0.02374
G1 X59.968 Y88.489 E0.02374
G1 X59.556 Y88.835 E0.02268
G1 X59.392 Y89.013 E0.01017
G1 X59.724 Y89.316 F27000
G1 F1800
G1 X59.682 Y89.361 E0.00258
G1 X59.413 Y89.746 E0.01979
G1 X59.208 Y90.186 E0.02043
G1 X59.082 Y90.654 E0.02043
G1 X59.041 Y91.122 E0.01979
G1 X59.053 Y91.395 E0.01151
G1 X59.135 Y91.858 E0.01979
G1 X59.301 Y92.314 E0.02043
G1 X59.536 Y92.721 E0.01979
G1 X59.702 Y92.937 E0.01151
G1 X60.023 Y93.259 E0.01914
G1 X60.24 Y93.425 E0.01151
G1 X60.647 Y93.66 E0.01979
G1 X61.103 Y93.826 E0.02043
G1 X61.58 Y93.91 E0.02043
G1 X62.065 Y93.91 E0.02043
G1 X62.543 Y93.826 E0.02043
G1 X62.999 Y93.66 E0.02043
G1 X63.419 Y93.417 E0.02043
G1 X63.779 Y93.115 E0.01979
G1 X63.964 Y92.914 E0.01151
G1 X64.224 Y92.542 E0.01914
G1 X64.35 Y92.299 E0.01151
G1 X64.511 Y91.858 E0.01979
G1 X64.595 Y91.38 E0.02043
G1 X64.595 Y90.895 E0.02043
G1 X64.511 Y90.417 E0.02043
G1 X64.35 Y89.976 E0.01979
G1 X64.224 Y89.734 E0.01151
G1 X63.955 Y89.349 E0.01979
G1 X63.612 Y89.006 E0.02043
G1 X63.214 Y88.727 E0.02043
G1 X62.775 Y88.522 E0.02043
G1 X62.306 Y88.397 E0.02043
G1 X61.838 Y88.356 E0.01979
G1 X61.565 Y88.368 E0.01151
G1 X61.103 Y88.449 E0.01979
G1 X60.647 Y88.615 E0.02043
G1 X60.227 Y88.858 E0.02043
G1 X59.867 Y89.16 E0.01979
G1 X59.764 Y89.272 E0.00641
G1 X60.095 Y89.575 F27000
; custom gcode: feature_gcode
; External perimeter
;ExternalPerimeter
SET_VELOCITY_LIMIT ACCEL=450 ACCEL_TO_DECEL=250 SQUARE_CORNER_VELOCITY=8

; Perimeter
; custom gcode end: feature_gcode

;TYPE:External perimeter
G1 F1800
G1 X60.033 Y89.643 E0.00386
G1 X59.803 Y89.972 E0.01689
G1 X59.631 Y90.34 E0.01712
G1 X59.526 Y90.733 E0.01712
G1 X59.491 Y91.132 E0.01689
G1 X59.5 Y91.346 E0.00903
G1 X59.57 Y91.741 E0.01689
G1 X59.709 Y92.123 E0.01712
G1 X59.91 Y92.471 E0.01689
G1 X60.04 Y92.641 E0.00903
G1 X60.32 Y92.92 E0.01666
G1 X60.49 Y93.051 E0.00903
G1 X60.837 Y93.251 E0.01689
G1 X61.219 Y93.391 E0.01712
G1 X61.62 Y93.461 E0.01712
G1 X62.026 Y93.461 E0.01712
G1 X62.427 Y93.391 E0.01712
G1 X62.809 Y93.251 E0.01712
G1 X63.161 Y93.048 E0.01712
G1 X63.468 Y92.79 E0.01689
G1 X63.613 Y92.632 E0.00903
G1 X63.84 Y92.308 E0.01666
G1 X63.939 Y92.118 E0.00903
G1 X64.076 Y91.741 E0.01689
G1 X64.146 Y91.341 E0.01712
G1 X64.146 Y90.934 E0.01712
G1 X64.076 Y90.534 E0.01712
G1 X63.939 Y90.157 E0.01689
G1 X63.84 Y89.967 E0.00903
G1 X63.61 Y89.638 E0.01689
G1 X63.322 Y89.351 E0.01712
G1 X62.989 Y89.118 E0.01712
G1 X62.621 Y88.946 E0.01712
G1 X62.228 Y88.841 E0.01712
G1 X61.828 Y88.806 E0.01689
G1 X61.614 Y88.815 E0.00903
G1 X61.219 Y88.885 E0.01689
G1 X60.837 Y89.024 E0.01712
G1 X60.485 Y89.227 E0.01712
G1 X60.178 Y89.485 E0.01689
G1 X60.136 Y89.531 E0.00264
;WIPE_START
G1 X60.006 Y89.556 F27000
;WIPE_END
G1 X49.301 Y78.851
; custom gcode: feature_gcode
; External perimeter
;Perimeter
SET_VELOCITY_LIMIT ACCEL=800 ACCEL_TO_DECEL=400 SQUARE_CORNER_VELOCITY=8

; Overhang perimeter
; custom gcode end: feature_gcode

;TYPE:Internal perimeter
G1 F1800
G1 X49.645 Y78.506 E0.02053
G1 X49.994 Y78.009 E0.02558
G1 X50.174 Y77.662 E0.01647
G1 X50.382 Y77.091 E0.02558
G1 X50.493 Y76.459 E0.02705
G1 X50.493 Y75.817 E0.02705
G1 X50.382 Y75.184 E0.02705
G1 X50.174 Y74.613 E0.02558
G1 X49.994 Y74.267 E0.01647
G1 X49.645 Y73.769 E0.02558
G1 X49.191 Y73.315 E0.02705
G1 X48.665 Y72.947 E0.02705
G1 X48.083 Y72.675 E0.02705
G1 X47.463 Y72.509 E0.02705
G1 X46.858 Y72.456 E0.02558
G1 X46.467 Y72.473 E0.01647
G1 X45.869 Y72.579 E0.02558
G1 X45.266 Y72.798 E0.02705
G1 X44.71 Y73.119 E0.02705
G1 X44.244 Y73.51 E0.02558
G1 X43.98 Y73.798 E0.01647
G1 X43.632 Y74.295 E0.02558
G1 X43.375 Y74.846 E0.02558
G1 X43.258 Y75.219 E0.01647
G1 X43.152 Y75.817 E0.02558
G1 X43.152 Y76.459 E0.02705
G1 X43.258 Y77.057 E0.02558
G1 X43.375 Y77.43 E0.01647
G1 X43.632 Y77.98 E0.02558
G1 X44 Y78.506 E0.02705
G1 X44.455 Y78.96 E0.02705
G1 X44.981 Y79.329 E0.02705
G1 X45.563 Y79.6 E0.02705
G1 X46.183 Y79.766 E0.02705
G1 X46.788 Y79.819 E0.02558
G1 X47.179 Y79.802 E0.01647
G1 X47.777 Y79.697 E0.02558
G1 X48.347 Y79.489 E0.02558
G1 X48.694 Y79.308 E0.01647
G1 X49.191 Y78.96 E0.02558
G1 X49.258 Y78.893 E0.00399
G1 X48.941 Y78.576 F27000
G1 F1800
G1 X49.3 Y78.216 E0.0214
G1 X49.609 Y77.775 E0.02268
G1 X49.762 Y77.481 E0.01399
G1 X49.947 Y76.975 E0.02268
G1 X50.044 Y76.42 E0.02374
G1 X50.044 Y75.856 E0.02374
G1 X49.947 Y75.301 E0.02374
G1 X49.762 Y74.795 E0.02268
G1 X49.609 Y74.5 E0.01399
G1 X49.3 Y74.059 E0.02268
G1 X48.902 Y73.66 E0.02374
G1 X48.44 Y73.337 E0.02374
G1 X47.929 Y73.099 E0.02374
G1 X47.384 Y72.953 E0.02374
G1 X46.848 Y72.906 E0.02268
G1 X46.516 Y72.921 E0.01399
G1 X45.986 Y73.014 E0.02268
G1 X45.456 Y73.207 E0.02374
G1 X44.968 Y73.489 E0.02374
G1 X44.556 Y73.835 E0.02268
G1 X44.331 Y74.08 E0.01399
G1 X44.022 Y74.521 E0.02268
G1 X43.795 Y75.009 E0.02268
G1 X43.695 Y75.326 E0.01399
G1 X43.601 Y75.856 E0.02268
G1 X43.601 Y76.42 E0.02374
G1 X43.695 Y76.95 E0.02268
G1 X43.795 Y77.267 E0.01399
G1 X44.022 Y77.755 E0.02268
G1 X44.346 Y78.216 E0.02374
G1 X44.744 Y78.615 E0.02374
G1 X45.206 Y78.938 E0.02374
G1 X45.717 Y79.176 E0.02374
G1 X46.261 Y79.322 E0.02374
G1 X46.798 Y79.369 E0.02268
G1 X47.13 Y79.355 E0.01399
G1 X47.66 Y79.261 E0.02268
G1 X48.166 Y79.077 E0.02268
G1 X48.46 Y78.924 E0.01399
G1 X48.898 Y78.617 E0.02249
G1 X48.612 Y78.27 F27000
G1 F1800
G1 X48.955 Y77.927 E0.02043
G1 X49.224 Y77.542 E0.01979
G1 X49.35 Y77.299 E0.01151
G1 X49.511 Y76.858 E0.01979
G1 X49.595 Y76.38 E0.02043
G1 X49.595 Y75.895 E0.02043
G1 X49.511 Y75.417 E0.02043
G1 X49.35 Y74.976 E0.01979
G1 X49.224 Y74.734 E0.01151
G1 X48.955 Y74.349 E0.01979
G1 X48.612 Y74.006 E0.02043
G1 X48.214 Y73.727 E0.02043
G1 X47.775 Y73.522 E0.02043
G1 X47.306 Y73.397 E0.02043
G1 X46.838 Y73.356 E0.01979
G1 X46.565 Y73.368 E0.01151
G1 X46.103 Y73.449 E0.01979
G1 X45.647 Y73.615 E0.02043
G1 X45.227 Y73.858 E0.02043
G1 X44.867 Y74.16 E0.01979
G1 X44.682 Y74.361 E0.01151
G1 X44.413 Y74.746 E0.01979
G1 X44.214 Y75.172 E0.01979
G1 X44.132 Y75.432 E0.01151
G1 X44.05 Y75.895 E0.01979
G1 X44.05 Y76.38 E0.02043
G1 X44.132 Y76.843 E0.01979
G1 X44.214 Y77.103 E0.01151
G1 X44.413 Y77.529 E0.01979
G1 X44.691 Y77.927 E0.02043
G1 X45.034 Y78.27 E0.02043
G1 X45.431 Y78.548 E0.02043
G1 X45.871 Y78.753 E0.02043
G1 X46.34 Y78.878 E0.02043
G1 X46.808 Y78.919 E0.01979
G1 X47.081 Y78.907 E0.01151
G1 X47.543 Y78.826 E0.01979
G1 X47.985 Y78.665 E0.01979
G1 X48.227 Y78.539 E0.01151
G1 X48.563 Y78.304 E0.01726
G1 X48.305 Y77.936 F27000
; custom gcode: feature_gcode
; External perimeter
;ExternalPerimeter
SET_VELOCITY_LIMIT ACCEL=450 ACCEL_TO_DECEL=250 SQUARE_CORNER_VELOCITY=8

; Perimeter
; custom gcode end: feature_gcode

;TYPE:External perimeter
G1 F1800
G1 X48.322 Y77.924 E0.00087
G1 X48.61 Y77.637 E0.01712
G1 X48.84 Y77.308 E0.01689
G1 X48.939 Y77.118 E0.00903
G1 X49.076 Y76.741 E0.01689
G1 X49.146 Y76.341 E0.01712
G1 X49.146 Y75.934 E0.01712
G1 X49.076 Y75.534 E0.01712
G1 X48.939 Y75.157 E0.01689
G1 X48.84 Y74.967 E0.00903
G1 X48.61 Y74.638 E0.01689
G1 X48.322 Y74.351 E0.01712
G1 X47.989 Y74.118 E0.01712
G1 X47.621 Y73.946 E0.01712
G1 X47.228 Y73.841 E0.01712
G1 X46.828 Y73.806 E0.01689
G1 X46.614 Y73.815 E0.00903
G1 X46.219 Y73.885 E0.01689
G1 X45.837 Y74.024 E0.01712
G1 X45.485 Y74.227 E0.01712
G1 X45.178 Y74.485 E0.01689
G1 X45.033 Y74.643 E0.00903
G1 X44.803 Y74.972 E0.01689
G1 X44.634 Y75.335 E0.01689
G1 X44.569 Y75.539 E0.00903
G1 X44.5 Y75.934 E0.01689
G1 X44.5 Y76.341 E0.01712
G1 X44.569 Y76.736 E0.01689
G1 X44.634 Y76.94 E0.00903
G1 X44.803 Y77.304 E0.01689
G1 X45.036 Y77.637 E0.01712
G1 X45.324 Y77.924 E0.01712
G1 X45.657 Y78.157 E0.01712
G1 X46.025 Y78.329 E0.01712
G1 X46.418 Y78.435 E0.01712
G1 X46.817 Y78.469 E0.01689
G1 X47.032 Y78.46 E0.00903
G1 X47.427 Y78.39 E0.01689
G1 X47.803 Y78.253 E0.01689
G1 X47.994 Y78.154 E0.00903
G1 X48.256 Y77.971 E0.01349
;WIPE_START
G1 X48.324 Y77.945 F27000
;WIPE_END
G1 X66.845 Y81.941
; custom gcode: feature_gcode
; External perimeter
;Perimeter
SET_VELOCITY_LIMIT ACCEL=800 ACCEL_TO_DECEL=400 SQUARE_CORNER_VELOCITY=8

; Overhang perimeter
; custom gcode end: feature_gcode

