;FLAVOR:Marlin
;TIME:5644
;Filament used: 2.951m
;Layer height: 0.15
;MINX:95.932
;MINY:87.55
;MINZ:0.3
;MAXX:132.468
;MAXY:132.45
;MAXZ:34.65
;Generated with Cura_SteamEngine 4.10.0
M140 S65
M105
M190 S65
M104 S200
M105
M109 S200
M82 ;absolute extrusion mode
G28 ;Home
G1 Z15.0 F2000 ;Move the platform
G92 E0
G92 E0
G1 F1500 E-7
;LAYER_COUNT:232
;LAYER:0
M107
M204 S1000
G0 F6000 X97.948 Y90.272 Z0.3
;TYPE:SKIRT
G1 F1500 E0
G1 F1200 X98.491 Y89.699 E0.04135
G1 X99.09 Y89.184 E0.08273
G1 X99.738 Y88.733 E0.12409
G1 X100.429 Y88.349 E0.1655
G1 X101.154 Y88.037 E0.20685
G1 X101.907 Y87.8 E0.2482
G1 X102.681 Y87.641 E0.2896
G1 X103.466 Y87.56 E0.33094
G1 X103.868 Y87.55 E0.352
G1 X112.668 Y87.55 E0.81299
G1 X113.457 Y87.59 E0.85437
G1 X114.237 Y87.709 E0.8957
G1 X114.287 Y87.722 E0.89841
G1 X114.681 Y87.641 E0.91948
G1 X115.466 Y87.56 E0.96082
G1 X115.868 Y87.55 E0.98189
G1 X124.668 Y87.55 E1.44287
G1 X125.457 Y87.59 E1.48426
G1 X126.237 Y87.709 E1.52559
G1 X127.002 Y87.907 E1.56699
G1 X127.742 Y88.181 E1.60832
G1 X128.451 Y88.529 E1.6497
G1 X129.122 Y88.947 E1.69111
G1 X129.746 Y89.43 E1.73244
G1 X130.319 Y89.973 E1.7738
G1 X130.834 Y90.572 E1.81518
G1 X131.285 Y91.22 E1.85654
G1 X131.669 Y91.911 E1.89795
G1 X131.981 Y92.636 E1.9393
G1 X132.218 Y93.389 E1.98065
G1 X132.377 Y94.163 E2.02204
G1 X132.458 Y94.948 E2.06338
G1 X132.468 Y95.35 E2.08445
G1 X132.468 Y105.15 E2.59782
G1 X132.428 Y105.939 E2.6392
G1 X132.384 Y106.229 E2.65457
G1 X132.458 Y106.948 E2.69243
G1 X132.468 Y107.35 E2.7135
G1 X132.468 Y117.15 E3.22687
G1 X132.428 Y117.939 E3.26825
G1 X132.309 Y118.719 E3.30958
G1 X132.111 Y119.484 E3.35098
G1 X131.837 Y120.224 E3.39231
G1 X131.489 Y120.933 E3.43369
G1 X131.071 Y121.604 E3.4751
G1 X130.588 Y122.228 E3.51644
G1 X130.045 Y122.801 E3.55779
G1 X129.446 Y123.316 E3.59917
G1 X128.798 Y123.767 E3.64053
G1 X128.107 Y124.151 E3.68194
G1 X127.382 Y124.463 E3.72329
G1 X126.629 Y124.7 E3.76464
G1 X125.855 Y124.859 E3.80603
G1 X125.07 Y124.94 E3.84737
G1 X124.953 Y124.943 E3.8535
G1 X124.928 Y125.439 E3.87952
G1 X124.809 Y126.219 E3.92085
G1 X124.611 Y126.984 E3.96225
G1 X124.337 Y127.724 E4.00358
G1 X123.989 Y128.433 E4.04496
G1 X123.571 Y129.104 E4.08637
G1 X123.088 Y129.728 E4.12771
G1 X122.545 Y130.301 E4.16906
G1 X121.946 Y130.816 E4.21044
G1 X121.298 Y131.267 E4.2518
G1 X120.607 Y131.651 E4.29321
G1 X119.882 Y131.963 E4.33456
G1 X119.129 Y132.2 E4.37591
G1 X118.355 Y132.359 E4.4173
G1 X117.57 Y132.44 E4.45864
G1 X117.168 Y132.45 E4.47971
G1 X106.682 Y132.45 E5.02901
G1 X105.893 Y132.41 E5.0704
G1 X105.113 Y132.291 E5.11173
G1 X104.348 Y132.093 E5.15313
G1 X103.608 Y131.819 E5.19446
G1 X102.899 Y131.471 E5.23584
G1 X102.228 Y131.053 E5.27725
G1 X101.604 Y130.57 E5.31859
G1 X101.031 Y130.027 E5.35994
G1 X100.516 Y129.428 E5.40132
G1 X100.065 Y128.78 E5.44268
G1 X99.681 Y128.089 E5.48409
G1 X99.369 Y127.364 E5.52544
G1 X99.132 Y126.611 E5.56679
G1 X98.973 Y125.837 E5.60818
G1 X98.892 Y125.052 E5.64952
G1 X98.882 Y124.651 E5.67054
G1 X98.882 Y123.141 E5.74964
G1 X98.79 Y123.07 E5.75572
G1 X98.217 Y122.527 E5.79708
G1 X97.702 Y121.928 E5.83846
G1 X97.251 Y121.28 E5.87982
G1 X96.867 Y120.589 E5.92123
G1 X96.555 Y119.864 E5.96257
G1 X96.318 Y119.111 E6.00393
G1 X96.159 Y118.337 E6.04532
G1 X96.078 Y117.552 E6.08666
G1 X96.068 Y117.15 E6.10773
G1 X96.068 Y107.35 E6.6211
G1 X96.108 Y106.561 E6.66248
G1 X96.152 Y106.271 E6.67785
G1 X96.078 Y105.552 E6.71571
G1 X96.068 Y105.15 E6.73677
G1 X96.068 Y95.35 E7.25015
G1 X96.108 Y94.561 E7.29153
G1 X96.227 Y93.781 E7.33286
G1 X96.425 Y93.016 E7.37426
G1 X96.699 Y92.276 E7.41559
G1 X97.047 Y91.567 E7.45697
G1 X97.465 Y90.896 E7.49838
G1 X97.948 Y90.272 E7.53972
G0 F6000 X98.343 Y90.427
G1 F1200 X98.884 Y89.88 E7.58002
G1 X99.479 Y89.392 E7.62033
G1 X100.121 Y88.969 E7.6606
G1 X100.804 Y88.614 E7.70093
G1 X101.519 Y88.333 E7.74117
G1 X102.261 Y88.127 E7.78151
G1 X103.019 Y87.999 E7.82178
G1 X103.868 Y87.95 E7.86633
G1 X112.668 Y87.95 E8.32731
G1 X113.436 Y87.99 E8.3676
G1 X114.196 Y88.109 E8.4079
G1 X114.263 Y88.127 E8.41153
G1 X115.019 Y87.999 E8.4517
G1 X115.868 Y87.95 E8.49625
G1 X124.668 Y87.95 E8.95723
G1 X125.436 Y87.99 E8.99752
G1 X126.196 Y88.109 E9.03782
G1 X126.939 Y88.307 E9.0781
G1 X127.658 Y88.581 E9.1184
G1 X128.344 Y88.928 E9.15868
G1 X128.991 Y89.344 E9.19897
G1 X129.591 Y89.825 E9.23925
G1 X130.138 Y90.366 E9.27956
G1 X130.626 Y90.961 E9.31987
G1 X131.049 Y91.603 E9.36014
G1 X131.404 Y92.286 E9.40046
G1 X131.685 Y93.001 E9.44071
G1 X131.891 Y93.743 E9.48105
G1 X132.019 Y94.501 E9.52132
G1 X132.068 Y95.35 E9.56587
G1 X132.068 Y105.15 E10.07924
G1 X132.028 Y105.918 E10.11952
G1 X131.976 Y106.248 E10.13702
G1 X132.019 Y106.501 E10.15047
G1 X132.068 Y107.35 E10.19501
G1 X132.068 Y117.15 E10.70838
G1 X132.028 Y117.918 E10.74867
G1 X131.909 Y118.678 E10.78897
G1 X131.711 Y119.421 E10.82925
G1 X131.437 Y120.14 E10.86956
G1 X131.09 Y120.826 E10.90983
G1 X130.674 Y121.473 E10.95012
G1 X130.193 Y122.073 E10.99041
G1 X129.652 Y122.62 E11.03071
G1 X129.057 Y123.108 E11.07102
G1 X128.415 Y123.531 E11.11129
G1 X127.732 Y123.886 E11.15162
G1 X127.017 Y124.167 E11.19186
G1 X126.275 Y124.373 E11.2322
G1 X125.517 Y124.501 E11.27247
G1 X124.668 Y124.55 E11.31702
G1 X124.568 Y124.55 E11.32226
G1 X124.568 Y124.65 E11.32749
G1 X124.528 Y125.418 E11.36778
G1 X124.409 Y126.178 E11.40808
G1 X124.211 Y126.921 E11.44836
G1 X123.937 Y127.64 E11.48867
G1 X123.59 Y128.326 E11.52894
G1 X123.174 Y128.973 E11.56923
G1 X122.693 Y129.573 E11.60952
G1 X122.152 Y130.12 E11.64982
G1 X121.557 Y130.608 E11.69013
G1 X120.915 Y131.031 E11.7304
G1 X120.232 Y131.386 E11.77073
G1 X119.517 Y131.667 E11.81097
G1 X118.775 Y131.873 E11.85131
G1 X118.017 Y132.001 E11.89158
G1 X117.168 Y132.05 E11.93613
G1 X106.682 Y132.05 E12.48543
G1 X105.914 Y132.01 E12.52572
G1 X105.154 Y131.891 E12.56602
G1 X104.411 Y131.693 E12.6063
G1 X103.692 Y131.419 E12.6466
G1 X103.006 Y131.072 E12.68688
G1 X102.359 Y130.656 E12.72717
G1 X101.759 Y130.175 E12.76745
G1 X101.212 Y129.634 E12.80776
G1 X100.724 Y129.039 E12.84807
G1 X100.301 Y128.397 E12.88834
G1 X99.946 Y127.714 E12.92867
G1 X99.665 Y126.999 E12.96891
G1 X99.459 Y126.257 E13.00925
G1 X99.331 Y125.499 E13.04952
G1 X99.282 Y124.651 E13.09401
G1 X99.282 Y122.945 E13.18338
G1 X98.945 Y122.675 E13.206
G1 X98.398 Y122.134 E13.24631
G1 X97.91 Y121.539 E13.28662
G1 X97.487 Y120.897 E13.32689
G1 X97.132 Y120.214 E13.36722
G1 X96.851 Y119.499 E13.40746
G1 X96.645 Y118.757 E13.4478
G1 X96.517 Y117.999 E13.48807
G1 X96.468 Y117.15 E13.53262
G1 X96.468 Y107.35 E14.04599
G1 X96.508 Y106.582 E14.08627
G1 X96.56 Y106.252 E14.10377
G1 X96.517 Y105.999 E14.11722
G1 X96.468 Y105.15 E14.16177
G1 X96.468 Y95.35 E14.67514
G1 X96.508 Y94.582 E14.71542
G1 X96.627 Y93.822 E14.75572
G1 X96.825 Y93.079 E14.796
G1 X97.099 Y92.36 E14.83631
G1 X97.446 Y91.674 E14.87658
G1 X97.862 Y91.027 E14.91687
G1 X98.343 Y90.427 E14.95716
G0 F6000 X98.739 Y90.587
G1 F1200 X99.276 Y90.066 E14.99635
G1 X99.866 Y89.607 E15.03551
G1 X100.502 Y89.212 E15.07473
G1 X101.176 Y88.888 E15.1139
G1 X101.881 Y88.638 E15.15309
G1 X102.609 Y88.464 E15.1923
G1 X103.351 Y88.369 E15.23148
G1 X103.868 Y88.35 E15.25859
G1 X112.668 Y88.35 E15.71957
G1 X113.415 Y88.39 E15.75876
G1 X114.153 Y88.509 E15.79792
G1 X114.278 Y88.543 E15.8047
G1 X114.609 Y88.464 E15.82253
G1 X115.351 Y88.369 E15.86172
G1 X115.868 Y88.35 E15.88882
G1 X124.668 Y88.35 E16.3498
G1 X125.415 Y88.39 E16.38899
G1 X126.153 Y88.509 E16.42815
G1 X126.875 Y88.707 E16.46737
G1 X127.571 Y88.98 E16.50653
G1 X128.234 Y89.327 E16.54573
G1 X128.857 Y89.742 E16.58495
G1 X129.431 Y90.221 E16.62411
G1 X129.952 Y90.758 E16.6633
G1 X130.411 Y91.348 E16.70246
G1 X130.806 Y91.984 E16.74168
G1 X131.13 Y92.658 E16.78086
G1 X131.38 Y93.363 E16.82004
G1 X131.554 Y94.091 E16.85925
G1 X131.649 Y94.833 E16.89844
G1 X131.668 Y95.35 E16.92554
G1 X131.668 Y105.15 E17.43891
G1 X131.628 Y105.897 E17.4781
G1 X131.573 Y106.239 E17.49624
G1 X131.649 Y106.833 E17.52761
G1 X131.668 Y107.35 E17.55471
G1 X131.668 Y117.15 E18.06808
G1 X131.628 Y117.897 E18.10727
G1 X131.509 Y118.635 E18.14643
G1 X131.311 Y119.357 E18.18565
G1 X131.038 Y120.053 E18.22481
G1 X130.691 Y120.716 E18.26401
G1 X130.276 Y121.339 E18.30323
G1 X129.797 Y121.913 E18.34239
G1 X129.26 Y122.434 E18.38159
G1 X128.67 Y122.893 E18.42074
G1 X128.034 Y123.288 E18.45996
G1 X127.36 Y123.612 E18.49914
G1 X126.655 Y123.862 E18.53832
G1 X125.927 Y124.036 E18.57753
G1 X125.185 Y124.131 E18.61672
G1 X124.668 Y124.15 E18.64382
G1 X124.168 Y124.15 E18.67001
G1 X124.168 Y124.65 E18.69621
G1 X124.128 Y125.397 E18.73539
G1 X124.009 Y126.135 E18.77455
G1 X123.811 Y126.857 E18.81377
G1 X123.538 Y127.553 E18.85293
G1 X123.191 Y128.216 E18.89213
G1 X122.776 Y128.839 E18.93135
G1 X122.297 Y129.413 E18.97051
G1 X121.76 Y129.934 E19.00971
G1 X121.17 Y130.393 E19.04886
G1 X120.534 Y130.788 E19.08808
G1 X119.86 Y131.112 E19.12726
G1 X119.155 Y131.362 E19.16644
G1 X118.427 Y131.536 E19.20565
G1 X117.685 Y131.631 E19.24484
G1 X117.168 Y131.65 E19.27194
G1 X106.682 Y131.65 E19.82125
G1 X105.935 Y131.61 E19.86043
G1 X105.197 Y131.491 E19.89959
G1 X104.475 Y131.293 E19.93881
G1 X103.779 Y131.02 E19.97798
G1 X103.116 Y130.673 E20.01718
G1 X102.493 Y130.258 E20.05639
G1 X101.919 Y129.779 E20.09555
G1 X101.398 Y129.242 E20.13475
G1 X100.939 Y128.652 E20.17391
G1 X100.544 Y128.016 E20.21313
G1 X100.22 Y127.342 E20.2523
G1 X99.97 Y126.637 E20.29149
G1 X99.796 Y125.909 E20.3307
G1 X99.701 Y125.167 E20.36988
G1 X99.682 Y124.651 E20.39693
G1 X99.682 Y122.76 E20.49599
G1 X99.105 Y122.279 E20.53534
G1 X98.584 Y121.742 E20.57454
G1 X98.125 Y121.152 E20.61369
G1 X97.73 Y120.516 E20.65291
G1 X97.406 Y119.842 E20.69209
G1 X97.156 Y119.137 E20.73127
G1 X96.982 Y118.409 E20.77048
G1 X96.887 Y117.667 E20.80967
G1 X96.868 Y117.15 E20.83677
G1 X96.868 Y107.35 E21.35014
G1 X96.908 Y106.603 E21.38933
G1 X96.963 Y106.261 E21.40747
G1 X96.887 Y105.667 E21.43885
G1 X96.868 Y105.15 E21.46595
G1 X96.868 Y95.35 E21.97932
G1 X96.908 Y94.603 E22.0185
G1 X97.027 Y93.865 E22.05766
G1 X97.225 Y93.143 E22.09688
G1 X97.498 Y92.447 E22.13605
G1 X97.845 Y91.784 E22.17525
G1 X98.26 Y91.161 E22.21446
G1 X98.739 Y90.587 E22.25362
G0 F6000 X98.657 Y91.3
G1 F1200 X99.133 Y90.752 E22.29165
G1 X99.667 Y90.259 E22.32972
G1 X100.252 Y89.829 E22.36775
G1 X100.881 Y89.465 E22.40582
G1 X101.546 Y89.172 E22.44389
G1 X102.239 Y88.954 E22.48195
G1 X102.951 Y88.814 E22.51996
G1 X103.868 Y88.75 E22.56811
G1 X112.668 Y88.75 E23.0291
G1 X113.393 Y88.79 E23.06713
G1 X114.11 Y88.909 E23.10521
G1 X114.257 Y88.951 E23.11322
G1 X114.951 Y88.814 E23.15027
G1 X115.868 Y88.75 E23.19843
G1 X124.668 Y88.75 E23.65941
G1 X125.393 Y88.79 E23.69745
G1 X126.11 Y88.909 E23.73552
G1 X126.809 Y89.107 E23.77358
G1 X127.482 Y89.38 E23.81162
G1 X128.121 Y89.725 E23.84967
G1 X128.718 Y90.139 E23.88772
G1 X129.266 Y90.615 E23.92575
G1 X129.759 Y91.149 E23.96382
G1 X130.189 Y91.734 E24.00185
G1 X130.553 Y92.363 E24.03992
G1 X130.846 Y93.028 E24.07799
G1 X131.064 Y93.721 E24.11605
G1 X131.204 Y94.433 E24.15406
G1 X131.268 Y95.35 E24.20221
G1 X131.268 Y105.15 E24.71558
G1 X131.228 Y105.875 E24.75362
G1 X131.167 Y106.244 E24.77321
G1 X131.204 Y106.433 E24.7833
G1 X131.268 Y107.35 E24.83145
G1 X131.268 Y117.15 E25.34482
G1 X131.228 Y117.875 E25.38286
G1 X131.109 Y118.592 E25.42093
G1 X130.911 Y119.291 E25.45899
G1 X130.638 Y119.964 E25.49704
G1 X130.293 Y120.603 E25.53508
G1 X129.879 Y121.2 E25.57313
G1 X129.403 Y121.748 E25.61116
G1 X128.869 Y122.241 E25.64923
G1 X128.284 Y122.671 E25.68726
G1 X127.655 Y123.035 E25.72533
G1 X126.99 Y123.328 E25.7634
G1 X126.297 Y123.546 E25.80146
G1 X125.585 Y123.686 E25.83947
G1 X124.668 Y123.75 E25.88762
G1 X123.768 Y123.75 E25.93477
G1 X123.768 Y124.65 E25.98192
G1 X123.728 Y125.375 E26.01995
G1 X123.609 Y126.092 E26.05803
G1 X123.411 Y126.791 E26.09608
G1 X123.138 Y127.464 E26.13413
G1 X122.793 Y128.103 E26.17217
G1 X122.379 Y128.7 E26.21023
G1 X121.903 Y129.248 E26.24825
G1 X121.369 Y129.741 E26.28632
G1 X120.784 Y130.171 E26.32436
G1 X120.155 Y130.535 E26.36243
G1 X119.49 Y130.828 E26.40049
G1 X118.797 Y131.046 E26.43855
G1 X118.085 Y131.186 E26.47656
G1 X117.168 Y131.25 E26.52472
G1 X106.682 Y131.25 E27.07402
G1 X105.957 Y131.21 E27.11206
G1 X105.24 Y131.091 E27.15013
G1 X104.541 Y130.893 E27.18819
G1 X103.868 Y130.62 E27.22623
G1 X103.229 Y130.275 E27.26428
G1 X102.632 Y129.861 E27.30233
G1 X102.084 Y129.385 E27.34036
G1 X101.591 Y128.851 E27.37843
G1 X101.161 Y128.266 E27.41646
G1 X100.797 Y127.637 E27.45453
G1 X100.504 Y126.972 E27.4926
G1 X100.286 Y126.279 E27.53066
G1 X100.146 Y125.567 E27.56867
G1 X100.082 Y124.651 E27.61677
G1 X100.082 Y122.544 E27.72714
G1 X99.818 Y122.361 E27.74397
G1 X99.27 Y121.885 E27.782
G1 X98.777 Y121.351 E27.82007
G1 X98.347 Y120.766 E27.8581
G1 X97.983 Y120.137 E27.89617
G1 X97.69 Y119.472 E27.93424
G1 X97.472 Y118.779 E27.97229
G1 X97.332 Y118.067 E28.01031
G1 X97.268 Y117.15 E28.05846
G1 X97.268 Y107.35 E28.57183
G1 X97.308 Y106.625 E28.60987
G1 X97.369 Y106.256 E28.62946
G1 X97.332 Y106.067 E28.63955
G1 X97.268 Y105.15 E28.6877
G1 X97.268 Y95.35 E29.20107
G1 X97.308 Y94.625 E29.23911
G1 X97.427 Y93.908 E29.27718
G1 X97.625 Y93.209 E29.31524
G1 X97.898 Y92.536 E29.35328
G1 X98.243 Y91.897 E29.39132
G1 X98.657 Y91.3 E29.42938
G0 F6000 X99.053 Y91.444
G1 F1200 X99.527 Y90.923 E29.46628
G1 X100.057 Y90.459 E29.50318
G1 X100.636 Y90.059 E29.54005
G1 X101.257 Y89.727 E29.57693
G1 X101.911 Y89.467 E29.6138
G1 X102.591 Y89.283 E29.6507
G1 X103.287 Y89.177 E29.68758
G1 X103.868 Y89.15 E29.71805
G1 X112.668 Y89.15 E30.17904
G1 X113.371 Y89.19 E30.21592
G1 X114.065 Y89.309 E30.25281
G1 X114.271 Y89.37 E30.26406
G1 X114.591 Y89.283 E30.28144
G1 X115.287 Y89.177 E30.31832
G1 X115.868 Y89.15 E30.34878
G1 X124.668 Y89.15 E30.80977
G1 X125.371 Y89.19 E30.84666
G1 X126.065 Y89.309 E30.88354
G1 X126.74 Y89.507 E30.92039
G1 X127.389 Y89.779 E30.95725
G1 X128.003 Y90.124 E30.99415
G1 X128.574 Y90.535 E31.031
G1 X129.095 Y91.009 E31.0679
G1 X129.559 Y91.539 E31.1048
G1 X129.959 Y92.118 E31.14166
G1 X130.291 Y92.739 E31.17855
G1 X130.551 Y93.393 E31.21542
G1 X130.735 Y94.073 E31.25232
G1 X130.841 Y94.769 E31.2892
G1 X130.868 Y95.35 E31.31967
G1 X130.868 Y105.15 E31.83304
G1 X130.828 Y105.853 E31.86993
G1 X130.761 Y106.244 E31.89071
G1 X130.841 Y106.769 E31.91853
G1 X130.868 Y107.35 E31.949
G1 X130.868 Y117.15 E32.46237
G1 X130.828 Y117.853 E32.49925
G1 X130.709 Y118.547 E32.53614
G1 X130.511 Y119.222 E32.57299
G1 X130.239 Y119.871 E32.60985
G1 X129.894 Y120.485 E32.64674
G1 X129.483 Y121.056 E32.6836
G1 X129.009 Y121.577 E32.7205
G1 X128.479 Y122.041 E32.7574
G1 X127.9 Y122.441 E32.79426
G1 X127.279 Y122.773 E32.83115
G1 X126.625 Y123.033 E32.86802
G1 X125.945 Y123.217 E32.90492
G1 X125.249 Y123.323 E32.9418
G1 X124.668 Y123.35 E32.97227
G1 X123.368 Y123.35 E33.04037
G1 X123.368 Y124.65 E33.10847
G1 X123.328 Y125.353 E33.14535
G1 X123.209 Y126.047 E33.18224
G1 X123.011 Y126.722 E33.21909
G1 X122.739 Y127.371 E33.25595
G1 X122.394 Y127.985 E33.29285
G1 X121.983 Y128.556 E33.3297
G1 X121.509 Y129.077 E33.3666
G1 X120.979 Y129.541 E33.4035
G1 X120.4 Y129.941 E33.44036
G1 X119.779 Y130.273 E33.47725
G1 X119.125 Y130.533 E33.51412
G1 X118.445 Y130.717 E33.55102
G1 X117.749 Y130.823 E33.5879
G1 X117.168 Y130.85 E33.61837
G1 X106.682 Y130.85 E34.16768
G1 X105.979 Y130.81 E34.20456
G1 X105.285 Y130.691 E34.24145
G1 X104.61 Y130.493 E34.2783
G1 X103.961 Y130.221 E34.31516
G1 X103.347 Y129.876 E34.35205
G1 X102.776 Y129.465 E34.38891
G1 X102.255 Y128.991 E34.42581
G1 X101.791 Y128.461 E34.46271
G1 X101.391 Y127.882 E34.49957
G1 X101.059 Y127.261 E34.53646
G1 X100.799 Y126.607 E34.57333
G1 X100.615 Y125.927 E34.61023
G1 X100.509 Y125.231 E34.64711
G1 X100.482 Y124.651 E34.67753
G1 X100.482 Y122.339 E34.79864
G1 X99.962 Y121.965 E34.83219
G1 X99.441 Y121.491 E34.86909
G1 X98.977 Y120.961 E34.90599
G1 X98.577 Y120.382 E34.94286
G1 X98.245 Y119.761 E34.97974
G1 X97.985 Y119.107 E35.01661
G1 X97.801 Y118.427 E35.05352
G1 X97.695 Y117.731 E35.0904
G1 X97.668 Y117.15 E35.12086
