;FLAVOR:Marlin
;TIME:4578
;Filament used: 2.6952m
;Layer height: 0.2
;MINX:95.932
;MINY:88.95
;MINZ:0.3
;MAXX:131.068
;MAXY:131.05
;MAXZ:34.5
;Generated with Cura_SteamEngine 4.10.0
M140 S60
M105
M190 S60
M104 S195
M105
M109 S195
M82 ;absolute extrusion mode
G28 ;Home
G1 Z15.0 F2000 ;Move the platform
G92 E0
G92 E0
G1 F1500 E-4
;LAYER_COUNT:175
;LAYER:0
M107
M204 S1000
G0 F6000 X99.409 Y91.011 Z0.3
M204 S500
;TYPE:SKIRT
G1 F1500 E0
G1 F1200 X99.952 Y90.512 E0.03863
G1 X100.545 Y90.075 E0.07722
G1 X101.182 Y89.704 E0.11584
G1 X101.856 Y89.405 E0.15446
G1 X102.558 Y89.18 E0.19308
G1 X103.281 Y89.032 E0.23174
G1 X104.086 Y88.962 E0.27407
G1 X104.407 Y88.953 E0.29089
G1 X104.598 Y88.95 E0.3009
G1 X111.584 Y88.95 E0.66685
G1 X112.823 Y88.967 E0.73177
G1 X115.569 Y88.967 E0.87561
G1 X116.26 Y88.952 E0.91182
G1 X116.531 Y88.95 E0.92602
G1 X123.658 Y88.951 E1.29936
G1 X124.356 Y88.961 E1.33593
G1 X125.092 Y89.011 E1.37458
G1 X125.818 Y89.141 E1.41321
G1 X126.525 Y89.349 E1.45182
G1 X127.206 Y89.632 E1.49045
G1 X127.852 Y89.987 E1.52906
G1 X128.456 Y90.41 E1.56769
G1 X129.011 Y90.896 E1.60634
G1 X129.509 Y91.439 E1.64493
G1 X129.946 Y92.033 E1.68356
G1 X130.316 Y92.67 E1.72215
G1 X130.615 Y93.344 E1.76078
G1 X130.84 Y94.047 E1.79944
G1 X130.986 Y94.769 E1.83803
G1 X131.056 Y95.569 E1.8801
G1 X131.065 Y95.889 E1.89687
G1 X131.068 Y96.08 E1.90688
G1 X131.067 Y104.11 E2.32752
G1 X131.06 Y104.571 E2.35168
G1 X131.06 Y107.33 E2.49621
G1 X131.065 Y107.571 E2.50883
G1 X131.068 Y108.017 E2.5322
G1 X131.067 Y116.118 E2.95657
G1 X131.057 Y116.84 E2.99439
G1 X131.007 Y117.576 E3.03304
G1 X130.878 Y118.302 E3.07166
G1 X130.67 Y119.009 E3.11027
G1 X130.388 Y119.69 E3.14888
G1 X130.033 Y120.336 E3.18749
G1 X129.61 Y120.941 E3.22616
G1 X129.125 Y121.495 E3.26474
G1 X128.824 Y121.785 E3.28663
G1 X128.601 Y121.987 E3.30239
G1 X126.621 Y123.834 E3.44424
G1 X124.774 Y125.657 E3.58018
G1 X122.921 Y127.593 E3.72057
G1 X122.5 Y128.056 E3.75335
G1 X121.741 Y128.872 E3.81173
G1 X121.21 Y129.384 E3.85037
G1 X120.627 Y129.835 E3.88898
G1 X119.999 Y130.221 E3.92759
G1 X119.333 Y130.536 E3.96619
G1 X118.636 Y130.778 E4.00484
G1 X117.917 Y130.942 E4.04347
G1 X116.951 Y131.038 E4.09432
G1 X116.627 Y131.047 E4.1113
G1 X116.438 Y131.05 E4.1212
G1 X107.692 Y131.049 E4.57936
G1 X106.993 Y131.039 E4.61598
G1 X106.257 Y130.989 E4.65463
G1 X105.531 Y130.859 E4.69326
G1 X104.824 Y130.651 E4.73187
G1 X104.143 Y130.368 E4.7705
G1 X103.497 Y130.013 E4.80911
G1 X102.893 Y129.59 E4.84774
G1 X102.338 Y129.104 E4.88639
G1 X101.84 Y128.561 E4.92498
G1 X101.403 Y127.968 E4.96357
G1 X101.033 Y127.33 E5.0022
G1 X100.683 Y126.519 E5.04848
G1 X100.437 Y125.825 E5.08705
G1 X99.964 Y124.428 E5.16431
G1 X99.055 Y121.972 E5.3015
G1 X98.072 Y119.533 E5.43925
G1 X97.993 Y119.342 E5.45008
G1 X97.749 Y118.646 E5.48871
G1 X97.581 Y117.928 E5.52734
G1 X97.48 Y116.932 E5.57978
G1 X97.471 Y116.609 E5.59671
G1 X97.468 Y116.42 E5.60661
G1 X97.469 Y108.377 E6.02794
G1 X97.476 Y107.929 E6.05141
G1 X97.476 Y105.17 E6.19594
G1 X97.471 Y104.929 E6.20857
G1 X97.468 Y104.483 E6.23193
G1 X97.469 Y96.332 E6.65892
G1 X97.478 Y95.667 E6.69376
G1 X97.528 Y94.931 E6.73241
G1 X97.657 Y94.206 E6.77098
G1 X97.864 Y93.498 E6.80962
G1 X98.146 Y92.817 E6.84823
G1 X98.501 Y92.17 E6.88689
G1 X98.923 Y91.566 E6.92549
G1 X99.409 Y91.011 E6.96414
M204 S1000
G0 F6000 X99.801 Y91.185
M204 S500
G1 F1200 X100.339 Y90.714 E7.00159
G1 X100.927 Y90.306 E7.03908
G1 X101.556 Y89.966 E7.07654
G1 X102.22 Y89.699 E7.11403
G1 X102.909 Y89.507 E7.1515
G1 X103.615 Y89.393 E7.18896
G1 X104.098 Y89.362 E7.21431
G1 X104.598 Y89.35 E7.24051
G1 X111.584 Y89.35 E7.60647
G1 X112.818 Y89.367 E7.67112
G1 X115.578 Y89.367 E7.8157
G1 X116.263 Y89.352 E7.8516
G1 X116.534 Y89.35 E7.86579
G1 X123.653 Y89.351 E8.23872
G1 X124.351 Y89.361 E8.27529
G1 X125.064 Y89.411 E8.31273
G1 X125.768 Y89.54 E8.35022
G1 X126.452 Y89.748 E8.38767
G1 X127.109 Y90.03 E8.42513
G1 X127.731 Y90.384 E8.46262
G1 X128.309 Y90.805 E8.50008
G1 X128.837 Y91.288 E8.53756
G1 X129.307 Y91.826 E8.57499
G1 X129.715 Y92.414 E8.61248
G1 X130.054 Y93.044 E8.64995
G1 X130.321 Y93.707 E8.6874
G1 X130.512 Y94.397 E8.7249
G1 X130.625 Y95.103 E8.76235
G1 X130.656 Y95.58 E8.7874
G1 X130.668 Y96.08 E8.8136
G1 X130.667 Y104.105 E9.23398
G1 X130.66 Y104.571 E9.2584
G1 X130.66 Y107.339 E9.4034
G1 X130.665 Y107.574 E9.41571
G1 X130.668 Y108.02 E9.43907
G1 X130.667 Y116.113 E9.86302
G1 X130.657 Y116.835 E9.90085
G1 X130.608 Y117.548 E9.93829
G1 X130.478 Y118.252 E9.97579
G1 X130.272 Y118.936 E10.01321
G1 X129.99 Y119.594 E10.05071
G1 X129.636 Y120.215 E10.08816
G1 X129.215 Y120.794 E10.12566
G1 X128.555 Y121.489 E10.17587
G1 X128.289 Y121.73 E10.19467
G1 X126.368 Y123.522 E10.33229
G1 X124.47 Y125.396 E10.47201
G1 X122.636 Y127.311 E10.61091
G1 X122.207 Y127.784 E10.64436
G1 X121.448 Y128.6 E10.70274
G1 X120.933 Y129.096 E10.7402
G1 X120.365 Y129.531 E10.77768
G1 X119.752 Y129.9 E10.81516
G1 X119.102 Y130.198 E10.85262
G1 X118.423 Y130.422 E10.89007
G1 X117.723 Y130.568 E10.92753
G1 X116.94 Y130.639 E10.96871
G1 X116.616 Y130.648 E10.98569
G1 X116.438 Y130.65 E10.99502
G1 X107.697 Y130.649 E11.45291
G1 X106.998 Y130.639 E11.48953
G1 X106.285 Y130.589 E11.52698
G1 X105.582 Y130.46 E11.56442
G1 X104.897 Y130.253 E11.6019
G1 X104.24 Y129.97 E11.63938
G1 X103.618 Y129.616 E11.67687
G1 X103.04 Y129.195 E11.71433
G1 X102.512 Y128.713 E11.75178
G1 X102.042 Y128.174 E11.78924
G1 X101.634 Y127.586 E11.82673
G1 X101.295 Y126.956 E11.86421
G1 X101.06 Y126.385 E11.89655
G1 X100.816 Y125.696 E11.93484
G1 X100.35 Y124.321 E12.0109
G1 X99.425 Y121.821 E12.15053
G1 X98.42 Y119.326 E12.29144
G1 X98.363 Y119.189 E12.29921
G1 X98.127 Y118.514 E12.33667
G1 X97.968 Y117.817 E12.37412
G1 X97.879 Y116.921 E12.42129
G1 X97.87 Y116.598 E12.43822
G1 X97.868 Y116.42 E12.44754
G1 X97.869 Y108.382 E12.86861
G1 X97.876 Y107.929 E12.89234
G1 X97.876 Y105.161 E13.03734
G1 X97.871 Y104.926 E13.04966
G1 X97.868 Y104.48 E13.07302
G1 X97.869 Y96.337 E13.49959
G1 X97.878 Y95.672 E13.53443
G1 X97.927 Y94.959 E13.57187
G1 X98.056 Y94.255 E13.60936
G1 X98.263 Y93.571 E13.6468
G1 X98.545 Y92.913 E13.6843
G1 X98.898 Y92.291 E13.72176
G1 X99.318 Y91.713 E13.75919
G1 X99.801 Y91.185 E13.79668
M204 S1000
G0 F6000 X100.192 Y91.364
M204 S500
G1 F1200 X100.726 Y90.923 E13.83296
G1 X101.307 Y90.546 E13.86924
G1 X101.927 Y90.238 E13.9055
G1 X102.579 Y90.004 E13.94179
G1 X103.253 Y89.847 E13.97804
G1 X104.109 Y89.761 E14.02311
G1 X104.43 Y89.752 E14.03993
G1 X104.598 Y89.75 E14.04873
G1 X111.584 Y89.75 E14.41469
G1 X112.812 Y89.767 E14.47903
G1 X115.541 Y89.767 E14.62199
G1 X116.266 Y89.752 E14.65997
G1 X116.537 Y89.75 E14.67417
G1 X123.647 Y89.751 E15.04662
G1 X124.345 Y89.761 E15.08319
G1 X125.036 Y89.81 E15.11948
G1 X125.716 Y89.94 E15.15575
G1 X126.377 Y90.146 E15.19202
G1 X127.01 Y90.428 E15.22832
G1 X127.606 Y90.78 E15.26458
G1 X128.157 Y91.199 E15.30084
G1 X128.657 Y91.679 E15.33715
G1 X129.098 Y92.213 E15.37343
G1 X129.475 Y92.794 E15.40971
G1 X129.782 Y93.415 E15.446
G1 X130.015 Y94.067 E15.48227
G1 X130.172 Y94.741 E15.51852
G1 X130.257 Y95.591 E15.56327
G1 X130.266 Y95.911 E15.58004
G1 X130.268 Y96.08 E15.58889
G1 X130.267 Y104.099 E16.00897
G1 X130.26 Y104.571 E16.03369
G1 X130.26 Y107.348 E16.17917
G1 X130.265 Y107.577 E16.19117
G1 X130.268 Y108.023 E16.21453
G1 X130.267 Y116.107 E16.63801
G1 X130.257 Y116.829 E16.67583
G1 X130.208 Y117.52 E16.71212
G1 X130.079 Y118.2 E16.74838
G1 X129.873 Y118.861 E16.78465
G1 X129.592 Y119.494 E16.82093
G1 X129.239 Y120.091 E16.85726
G1 X128.821 Y120.642 E16.89349
G1 X128.287 Y121.192 E16.93365
G1 X128.085 Y121.375 E16.94792
G1 X126.062 Y123.262 E17.09284
G1 X124.182 Y125.117 E17.2312
G1 X122.35 Y127.031 E17.36999
G1 X121.914 Y127.511 E17.40396
G1 X121.155 Y128.327 E17.46234
G1 X120.655 Y128.806 E17.49861
G1 X120.103 Y129.225 E17.53491
G1 X119.507 Y129.576 E17.57115
G1 X118.874 Y129.857 E17.60743
G1 X118.212 Y130.063 E17.64374
G1 X117.532 Y130.191 E17.67999
G1 X116.929 Y130.239 E17.71168
G1 X116.605 Y130.248 E17.72866
G1 X116.438 Y130.25 E17.73741
G1 X107.703 Y130.249 E18.19499
G1 X107.004 Y130.239 E18.23161
G1 X106.313 Y130.19 E18.2679
G1 X105.633 Y130.06 E18.30416
G1 X104.972 Y129.854 E18.34043
G1 X104.339 Y129.572 E18.37673
G1 X103.743 Y129.22 E18.41299
G1 X103.192 Y128.801 E18.44926
G1 X102.692 Y128.321 E18.48556
G1 X102.251 Y127.787 E18.52184
G1 X101.875 Y127.206 E18.5581
G1 X101.567 Y126.586 E18.59436
G1 X101.437 Y126.251 E18.61319
G1 X101.195 Y125.568 E18.65114
G1 X100.729 Y124.19 E18.72735
G1 X99.795 Y121.669 E18.86818
G1 X98.791 Y119.176 E19.00897
G1 X98.733 Y119.036 E19.01691
G1 X98.505 Y118.382 E19.05319
G1 X98.355 Y117.706 E19.08946
G1 X98.279 Y116.91 E19.13135
G1 X98.27 Y116.587 E19.14828
G1 X98.268 Y116.42 E19.15703
G1 X98.269 Y108.388 E19.57778
G1 X98.276 Y107.929 E19.60183
G1 X98.276 Y105.152 E19.7473
G1 X98.271 Y104.923 E19.7593
G1 X98.268 Y104.477 E19.78266
G1 X98.269 Y96.343 E20.20876
G1 X98.278 Y95.678 E20.2436
G1 X98.327 Y94.987 E20.27989
G1 X98.455 Y94.307 E20.31613
G1 X98.662 Y93.645 E20.35247
G1 X98.943 Y93.012 E20.38875
G1 X99.295 Y92.416 E20.42501
G1 X99.713 Y91.864 E20.46128
G1 X100.192 Y91.364 E20.49755
M204 S1000
G0 F6000 X100.107 Y92.021
M204 S500
G1 F1200 X100.582 Y91.551 E20.53256
G1 X101.111 Y91.14 E20.56765
G1 X101.684 Y90.795 E20.60269
G1 X102.295 Y90.522 E20.63774
G1 X102.933 Y90.323 E20.67275
G1 X103.591 Y90.201 E20.70781
G1 X104.12 Y90.161 E20.7356
G1 X104.441 Y90.152 E20.75242
G1 X104.598 Y90.15 E20.76065
G1 X111.584 Y90.15 E21.12661
G1 X112.806 Y90.167 E21.19063
G1 X115.55 Y90.167 E21.33437
G1 X116.269 Y90.152 E21.37204
G1 X116.54 Y90.15 E21.38624
G1 X123.641 Y90.151 E21.75822
G1 X124.339 Y90.161 E21.79479
G1 X125.006 Y90.21 E21.82983
G1 X125.663 Y90.339 E21.8649
G1 X126.299 Y90.545 E21.89992
G1 X126.907 Y90.826 E21.93501
G1 X127.476 Y91.176 E21.97
G1 X128 Y91.593 E22.00508
G1 X128.47 Y92.069 E22.04013
G1 X128.88 Y92.597 E22.07514
G1 X129.225 Y93.171 E22.11023
G1 X129.498 Y93.782 E22.14528
G1 X129.696 Y94.421 E22.18033
G1 X129.817 Y95.079 E22.21537
G1 X129.857 Y95.603 E22.2429
G1 X129.866 Y95.923 E22.25967
G1 X129.868 Y96.08 E22.2679
G1 X129.867 Y104.093 E22.68766
G1 X129.86 Y104.571 E22.7127
G1 X129.86 Y107.315 E22.85644
G1 X129.865 Y107.579 E22.87028
G1 X129.868 Y108.025 E22.89364
G1 X129.867 Y116.102 E23.31675
G1 X129.857 Y116.824 E23.35458
G1 X129.808 Y117.491 E23.38961
G1 X129.68 Y118.147 E23.42462
G1 X129.474 Y118.784 E23.45969
G1 X129.194 Y119.391 E23.49471
G1 X128.843 Y119.961 E23.52978
G1 X128.427 Y120.485 E23.56483
G1 X128.018 Y120.896 E23.5952
G1 X127.788 Y121.104 E23.61145
G1 X125.791 Y122.968 E23.75455
G1 X123.913 Y124.821 E23.89275
G1 X122.049 Y126.768 E24.03395
G1 X121.621 Y127.239 E24.06729
G1 X120.862 Y128.055 E24.12567
G1 X120.378 Y128.517 E24.16072
G1 X119.843 Y128.918 E24.19574
G1 X119.263 Y129.252 E24.23081
G1 X118.648 Y129.514 E24.26582
G1 X118.005 Y129.701 E24.3009
G1 X117.345 Y129.811 E24.33595
G1 X116.917 Y129.839 E24.35842
G1 X116.593 Y129.848 E24.3754
G1 X116.438 Y129.85 E24.38352
G1 X107.709 Y129.849 E24.84079
G1 X107.01 Y129.839 E24.87741
G1 X106.343 Y129.79 E24.91244
G1 X105.686 Y129.661 E24.94752
G1 X105.05 Y129.455 E24.98254
G1 X104.442 Y129.175 E25.0176
G1 X103.873 Y128.824 E25.05262
G1 X103.349 Y128.407 E25.08771
G1 X102.879 Y127.931 E25.12275
G1 X102.469 Y127.403 E25.15777
G1 X102.124 Y126.829 E25.19285
G1 X101.814 Y126.117 E25.23353
G1 X101.574 Y125.44 E25.27116
G1 X101.107 Y124.06 E25.34747
G1 X100.17 Y121.529 E25.48885
G1 X99.162 Y119.027 E25.63016
G1 X99.102 Y118.883 E25.63833
G1 X98.884 Y118.251 E25.67335
G1 X98.743 Y117.597 E25.7084
G1 X98.679 Y116.899 E25.74511
G1 X98.67 Y116.576 E25.76204
G1 X98.668 Y116.42 E25.77021
G1 X98.669 Y108.394 E26.19065
G1 X98.676 Y107.929 E26.21502
G1 X98.676 Y105.185 E26.35876
G1 X98.671 Y104.921 E26.37259
G1 X98.668 Y104.475 E26.39596
G1 X98.669 Y96.348 E26.82169
G1 X98.678 Y95.683 E26.85653
G1 X98.727 Y95.016 E26.89156
G1 X98.855 Y94.359 E26.92662
G1 X99.06 Y93.723 E26.96163
G1 X99.34 Y93.115 E26.99669
G1 X99.691 Y92.545 E27.03176
G1 X100.107 Y92.021 E27.06681
M204 S1000
G0 F6000 X100.5 Y92.185
M204 S500
G1 F1200 X100.971 Y91.745 E27.10057
G1 X101.494 Y91.367 E27.13438
G1 X102.058 Y91.056 E27.16812
G1 X102.657 Y90.818 E27.20188
G1 X103.281 Y90.655 E27.23566
G1 X104.131 Y90.561 E27.28046
G1 X104.452 Y90.552 E27.29729
G1 X104.598 Y90.55 E27.30493
G1 X111.584 Y90.55 E27.67089
G1 X112.801 Y90.567 E27.73465
G1 X115.559 Y90.567 E27.87913
G1 X116.272 Y90.552 E27.91649
G1 X116.543 Y90.55 E27.93068
G1 X123.635 Y90.551 E28.3022
G1 X124.333 Y90.561 E28.33877
G1 X124.976 Y90.61 E28.37255
G1 X125.608 Y90.738 E28.40633
G1 X126.219 Y90.944 E28.4401
G1 X126.8 Y91.223 E28.47387
G1 X127.342 Y91.572 E28.50764
G1 X127.836 Y91.986 E28.5414
G1 X128.276 Y92.458 E28.5752
G1 X128.654 Y92.98 E28.60896
G1 X128.964 Y93.545 E28.64272
G1 X129.202 Y94.144 E28.67649
G1 X129.364 Y94.768 E28.71026
G1 X129.457 Y95.614 E28.75484
G1 X129.466 Y95.934 E28.77161
G1 X129.468 Y96.08 E28.77926
G1 X129.467 Y104.088 E29.19876
G1 X129.46 Y104.571 E29.22406
G1 X129.46 Y107.324 E29.36828
G1 X129.465 Y107.582 E29.3818
G1 X129.468 Y108.028 E29.40516
G1 X129.468 Y116.096 E29.8278
G1 X129.458 Y116.818 E29.86563
G1 X129.409 Y117.461 E29.89941
G1 X129.281 Y118.093 E29.93319
G1 X129.075 Y118.704 E29.96696
G1 X128.796 Y119.285 E30.00073
G1 X128.447 Y119.827 E30.0345
G1 X128.034 Y120.322 E30.06827
G1 X127.749 Y120.6 E30.08912
G1 X127.539 Y120.79 E30.10396
G1 X125.519 Y122.674 E30.24866
G1 X123.608 Y124.561 E30.38934
G1 X121.764 Y126.486 E30.52898
G1 X121.329 Y126.967 E30.56296
G1 X120.57 Y127.783 E30.62134
G1 X120.102 Y128.226 E30.65509
G1 X119.583 Y128.609 E30.68888
G1 X119.021 Y128.925 E30.72266
G1 X118.424 Y129.168 E30.75642
G1 X117.802 Y129.336 E30.79017
G1 X116.906 Y129.439 E30.83742
G1 X116.438 Y129.45 E30.86194
G1 X107.715 Y129.449 E31.31889
G1 X107.016 Y129.439 E31.35551
G1 X106.373 Y129.39 E31.3893
G1 X105.741 Y129.262 E31.42308
G1 X105.13 Y129.056 E31.45685
G1 X104.549 Y128.777 E31.49062
G1 X104.007 Y128.428 E31.52438
G1 X103.513 Y128.014 E31.55815
G1 X103.073 Y127.542 E31.59195
G1 X102.696 Y127.02 E31.62568
G1 X102.385 Y126.455 E31.65947
G1 X102.191 Y125.983 E31.6862
G1 X101.953 Y125.312 E31.7235
G1 X101.485 Y123.93 E31.79993
G1 X100.54 Y121.377 E31.94254
G1 X99.533 Y118.877 E32.08372
G1 X99.472 Y118.73 E32.09206
G1 X99.263 Y118.121 E32.12579
G1 X99.131 Y117.49 E32.15956
G1 X99.079 Y116.888 E32.19121
G1 X99.068 Y116.42 E32.21573
G1 X99.069 Y108.4 E32.63586
G1 X99.076 Y107.929 E32.66054
G1 X99.076 Y105.176 E32.80475
G1 X99.071 Y104.918 E32.81827
G1 X99.068 Y104.472 E32.84163
G1 X99.068 Y96.354 E33.26689
G1 X99.077 Y95.689 E33.30173
G1 X99.126 Y95.046 E33.33551
G1 X99.254 Y94.414 E33.36929
G1 X99.459 Y93.803 E33.40305
G1 X99.738 Y93.222 E33.43681
G1 X100.087 Y92.679 E33.47063
G1 X100.5 Y92.185 E33.50436
M204 S1000
G1 F1500 E29.50436
;MESH:calicat.stl
G0 F6000 X103.615 Y105.403
G0 X104.682 Y107.085
G0 X104.682 Y108.164
G0 X105.45 Y115.568
G0 X112.196 Y116.322
G0 X112.196 Y119.678
G0 X107.978 Y119.678
G0 X108.082 Y123.25
M204 S500
;TYPE:WALL-INNER
G1 F1500 E33.50436
G1 F1020 X108.081 Y120.449 E33.65109
G1 X108.081 Y120.25 E33.66151
G1 X108.28 Y120.25 E33.66826
G1 X112.768 Y120.25 E33.90336
G1 X112.768 Y115.75 E34.13909
G1 X105.268 Y115.75 E34.53198
G1 X105.268 Y108.75 E34.89867
G1 X111.268 Y108.75 E35.21298
G1 X111.268 Y113.75 E35.4749
G1 X117.268 Y113.75 E35.78921
G1 X117.268 Y108.75 E36.05113
G1 X123.268 Y108.75 E36.36544
G1 X123.268 Y115.75 E36.73213
G1 X115.768 Y115.75 E37.12502
G1 X115.768 Y123.25 E37.51791
G1 X108.082 Y123.25 E37.92053
M204 S1000
G0 F6000 X107.682 Y123.65
M204 S500
G1 F1020 X107.681 Y120.049 E38.10917
G1 X107.681 Y119.85 E38.1196
G1 X107.88 Y119.85 E38.12634
G1 X112.368 Y119.85 E38.36144
G1 X112.368 Y116.15 E38.55527
G1 X104.868 Y116.15 E38.94815
G1 X104.868 Y108.35 E39.35675
G1 X111.668 Y108.35 E39.71297
G1 X111.668 Y113.35 E39.97489
G1 X116.868 Y113.35 E40.24729
G1 X116.868 Y108.35 E40.50922
G1 X123.668 Y108.35 E40.86543
G1 X123.668 Y116.15 E41.27403
