;FLAVOR:Marlin
;TIME:4408
;Filament used: 2.24448m
;Layer height: 0.15
;MINX:95.932
;MINY:87.75
;MINZ:0.3
;MAXX:132.268
;MAXY:132.25
;MAXZ:34.65
;Generated with Cura_SteamEngine 4.10.0
M140 S60
M105
M190 S60
M104 S205
M105
M109 S205
M82 ;absolute extrusion mode
G28 ;Home
G1 Z15.0 F2000 ;Move the platform
G92 E0
G92 E0
G1 F1500 E-6.5
;LAYER_COUNT:232
;LAYER:0
M107
M204 S1000
G0 F6000 X98.148 Y90.472 Z0.3
;TYPE:SKIRT
G1 F1500 E0
G1 F1200 X98.691 Y89.899 E0.04135
G1 X99.29 Y89.384 E0.08273
G1 X99.938 Y88.933 E0.12409
G1 X100.629 Y88.549 E0.1655
G1 X101.354 Y88.237 E0.20685
G1 X102.107 Y88 E0.2482
G1 X102.881 Y87.841 E0.2896
G1 X103.666 Y87.76 E0.33094
G1 X104.068 Y87.75 E0.352
G1 X112.468 Y87.75 E0.79203
G1 X113.257 Y87.79 E0.83342
G1 X114.037 Y87.909 E0.87475
G1 X114.264 Y87.968 E0.88704
G1 X114.881 Y87.841 E0.92004
G1 X115.666 Y87.76 E0.96138
G1 X116.068 Y87.75 E0.98244
G1 X124.468 Y87.75 E1.42247
G1 X125.257 Y87.79 E1.46386
G1 X126.037 Y87.909 E1.50519
G1 X126.802 Y88.107 E1.54659
G1 X127.542 Y88.381 E1.58792
G1 X128.251 Y88.729 E1.6293
G1 X128.922 Y89.147 E1.67071
G1 X129.546 Y89.63 E1.71204
G1 X130.119 Y90.173 E1.7534
G1 X130.634 Y90.772 E1.79478
G1 X131.085 Y91.42 E1.83614
G1 X131.469 Y92.111 E1.87755
G1 X131.781 Y92.836 E1.9189
G1 X132.018 Y93.589 E1.96025
G1 X132.177 Y94.363 E2.00164
G1 X132.258 Y95.148 E2.04298
G1 X132.268 Y95.55 E2.06405
G1 X132.268 Y104.95 E2.55646
G1 X132.228 Y105.739 E2.59785
G1 X132.152 Y106.24 E2.62439
G1 X132.177 Y106.363 E2.63097
G1 X132.258 Y107.148 E2.67231
G1 X132.268 Y107.55 E2.69337
G1 X132.268 Y116.95 E3.18579
G1 X132.228 Y117.739 E3.22717
G1 X132.109 Y118.519 E3.26851
G1 X131.911 Y119.284 E3.3099
G1 X131.637 Y120.024 E3.35124
G1 X131.289 Y120.733 E3.39261
G1 X130.871 Y121.404 E3.43402
G1 X130.388 Y122.028 E3.47536
G1 X129.845 Y122.601 E3.51671
G1 X129.246 Y123.116 E3.5581
G1 X128.598 Y123.567 E3.59945
G1 X127.907 Y123.951 E3.64086
G1 X127.182 Y124.263 E3.68221
G1 X126.429 Y124.5 E3.72356
G1 X125.655 Y124.659 E3.76496
G1 X124.87 Y124.74 E3.8063
G1 X124.753 Y124.743 E3.81243
G1 X124.728 Y125.239 E3.83844
G1 X124.609 Y126.019 E3.87978
G1 X124.411 Y126.784 E3.92117
G1 X124.137 Y127.524 E3.96251
G1 X123.789 Y128.233 E4.00388
G1 X123.371 Y128.904 E4.04529
G1 X122.888 Y129.528 E4.08663
G1 X122.345 Y130.101 E4.12798
G1 X121.746 Y130.616 E4.16937
G1 X121.098 Y131.067 E4.21072
G1 X120.407 Y131.451 E4.25213
G1 X119.682 Y131.763 E4.29348
G1 X118.929 Y132 E4.33483
G1 X118.155 Y132.159 E4.37623
G1 X117.37 Y132.24 E4.41757
G1 X116.968 Y132.25 E4.43863
G1 X106.882 Y132.25 E4.96698
G1 X106.093 Y132.21 E5.00837
G1 X105.313 Y132.091 E5.0497
G1 X104.548 Y131.893 E5.0911
G1 X103.808 Y131.619 E5.13243
G1 X103.099 Y131.271 E5.17381
G1 X102.428 Y130.853 E5.21522
G1 X101.804 Y130.37 E5.25656
G1 X101.231 Y129.827 E5.29791
G1 X100.716 Y129.228 E5.33929
G1 X100.265 Y128.58 E5.38065
G1 X99.881 Y127.889 E5.42206
G1 X99.569 Y127.164 E5.46341
G1 X99.332 Y126.411 E5.50476
G1 X99.173 Y125.637 E5.54615
G1 X99.092 Y124.852 E5.58749
G1 X99.082 Y124.451 E5.60851
G1 X99.082 Y122.941 E5.68761
G1 X98.99 Y122.87 E5.69369
G1 X98.417 Y122.327 E5.73505
G1 X97.902 Y121.728 E5.77643
G1 X97.451 Y121.08 E5.81779
G1 X97.067 Y120.389 E5.8592
G1 X96.755 Y119.664 E5.90054
G1 X96.518 Y118.911 E5.9419
G1 X96.359 Y118.137 E5.98329
G1 X96.278 Y117.352 E6.02463
G1 X96.268 Y116.95 E6.0457
G1 X96.268 Y107.55 E6.53811
G1 X96.308 Y106.761 E6.5795
G1 X96.384 Y106.26 E6.60604
G1 X96.359 Y106.137 E6.61262
G1 X96.278 Y105.352 E6.65396
G1 X96.268 Y104.95 E6.67502
G1 X96.268 Y95.55 E7.16744
G1 X96.308 Y94.761 E7.20882
G1 X96.427 Y93.981 E7.25016
G1 X96.625 Y93.216 E7.29155
G1 X96.899 Y92.476 E7.33289
G1 X97.247 Y91.767 E7.37426
G1 X97.665 Y91.096 E7.41567
G1 X98.148 Y90.472 E7.45701
G0 F6000 X98.543 Y90.627
G1 F1200 X99.084 Y90.08 E7.49731
G1 X99.679 Y89.592 E7.53762
G1 X100.321 Y89.169 E7.5779
G1 X101.004 Y88.814 E7.61822
G1 X101.719 Y88.533 E7.65846
G1 X102.461 Y88.327 E7.6988
G1 X103.219 Y88.199 E7.73907
G1 X104.068 Y88.15 E7.78362
G1 X112.468 Y88.15 E8.22365
G1 X113.236 Y88.19 E8.26394
G1 X113.996 Y88.309 E8.30424
G1 X114.266 Y88.381 E8.31888
G1 X114.461 Y88.327 E8.32948
G1 X115.219 Y88.199 E8.36975
G1 X116.068 Y88.15 E8.41429
G1 X124.468 Y88.15 E8.85433
G1 X125.236 Y88.19 E8.89461
G1 X125.996 Y88.309 E8.93491
G1 X126.739 Y88.507 E8.97519
G1 X127.458 Y88.781 E9.0155
G1 X128.144 Y89.128 E9.05577
G1 X128.791 Y89.544 E9.09606
G1 X129.391 Y90.025 E9.13635
G1 X129.938 Y90.566 E9.17665
G1 X130.426 Y91.161 E9.21696
G1 X130.849 Y91.803 E9.25723
G1 X131.204 Y92.486 E9.29756
G1 X131.485 Y93.201 E9.3378
G1 X131.691 Y93.943 E9.37814
G1 X131.819 Y94.701 E9.41841
G1 X131.868 Y95.55 E9.46296
G1 X131.868 Y104.95 E9.95537
G1 X131.828 Y105.718 E9.99566
G1 X131.744 Y106.256 E10.02419
G1 X131.819 Y106.701 E10.04783
G1 X131.868 Y107.55 E10.09237
G1 X131.868 Y116.95 E10.58479
G1 X131.828 Y117.718 E10.62508
G1 X131.709 Y118.478 E10.66537
G1 X131.511 Y119.221 E10.70565
G1 X131.237 Y119.94 E10.74596
G1 X130.89 Y120.626 E10.78623
G1 X130.474 Y121.273 E10.82653
G1 X129.993 Y121.873 E10.86681
G1 X129.452 Y122.42 E10.90711
G1 X128.857 Y122.908 E10.94742
G1 X128.215 Y123.331 E10.9877
G1 X127.532 Y123.686 E11.02802
G1 X126.817 Y123.967 E11.06827
G1 X126.075 Y124.173 E11.1086
G1 X125.317 Y124.301 E11.14887
G1 X124.468 Y124.35 E11.19342
G1 X124.368 Y124.35 E11.19866
G1 X124.368 Y124.45 E11.2039
G1 X124.328 Y125.218 E11.24419
G1 X124.209 Y125.978 E11.28448
G1 X124.011 Y126.721 E11.32476
G1 X123.737 Y127.44 E11.36507
G1 X123.39 Y128.126 E11.40534
G1 X122.974 Y128.773 E11.44564
G1 X122.493 Y129.373 E11.48592
G1 X121.952 Y129.92 E11.52622
G1 X121.357 Y130.408 E11.56653
G1 X120.715 Y130.831 E11.60681
G1 X120.032 Y131.186 E11.64713
G1 X119.317 Y131.467 E11.68738
G1 X118.575 Y131.673 E11.72771
G1 X117.817 Y131.801 E11.76798
G1 X116.968 Y131.85 E11.81253
G1 X106.882 Y131.85 E12.34089
G1 X106.114 Y131.81 E12.38117
G1 X105.354 Y131.691 E12.42147
G1 X104.611 Y131.493 E12.46175
G1 X103.892 Y131.219 E12.50206
G1 X103.206 Y130.872 E12.54233
G1 X102.559 Y130.456 E12.58262
G1 X101.959 Y129.975 E12.62291
G1 X101.412 Y129.434 E12.66321
G1 X100.924 Y128.839 E12.70352
G1 X100.501 Y128.197 E12.74379
G1 X100.146 Y127.514 E12.78412
G1 X99.865 Y126.799 E12.82436
G1 X99.659 Y126.057 E12.8647
G1 X99.531 Y125.299 E12.90497
G1 X99.482 Y124.451 E12.94947
G1 X99.482 Y122.745 E13.03883
G1 X99.145 Y122.475 E13.06146
G1 X98.598 Y121.934 E13.10176
G1 X98.11 Y121.339 E13.14207
G1 X97.687 Y120.697 E13.18234
G1 X97.332 Y120.014 E13.22267
G1 X97.051 Y119.299 E13.26291
G1 X96.845 Y118.557 E13.30325
G1 X96.717 Y117.799 E13.34352
G1 X96.668 Y116.95 E13.38807
G1 X96.668 Y107.55 E13.88048
G1 X96.708 Y106.782 E13.92077
G1 X96.792 Y106.244 E13.94929
G1 X96.717 Y105.799 E13.97293
G1 X96.668 Y104.95 E14.01748
G1 X96.668 Y95.55 E14.5099
G1 X96.708 Y94.782 E14.55019
G1 X96.827 Y94.022 E14.59048
G1 X97.025 Y93.279 E14.63076
G1 X97.299 Y92.56 E14.67107
G1 X97.646 Y91.874 E14.71134
G1 X98.062 Y91.227 E14.75164
G1 X98.543 Y90.627 E14.79192
G0 F6000 X98.939 Y90.787
G1 F1200 X99.476 Y90.266 E14.83111
G1 X100.066 Y89.807 E14.87027
G1 X100.702 Y89.412 E14.90949
G1 X101.376 Y89.088 E14.94867
G1 X102.081 Y88.838 E14.98785
G1 X102.809 Y88.664 E15.02706
G1 X103.551 Y88.569 E15.06625
G1 X104.068 Y88.55 E15.09335
G1 X112.468 Y88.55 E15.53338
G1 X113.215 Y88.59 E15.57257
G1 X113.953 Y88.709 E15.61173
G1 X114.264 Y88.794 E15.62862
G1 X114.809 Y88.664 E15.65797
G1 X115.551 Y88.569 E15.69715
G1 X116.068 Y88.55 E15.72426
G1 X124.468 Y88.55 E16.16429
G1 X125.215 Y88.59 E16.20348
G1 X125.953 Y88.709 E16.24263
G1 X126.675 Y88.907 E16.28185
G1 X127.371 Y89.18 E16.32102
G1 X128.034 Y89.527 E16.36022
G1 X128.657 Y89.942 E16.39943
G1 X129.231 Y90.421 E16.43859
G1 X129.752 Y90.958 E16.47779
G1 X130.211 Y91.548 E16.51695
G1 X130.606 Y92.184 E16.55617
G1 X130.93 Y92.858 E16.59534
G1 X131.18 Y93.563 E16.63453
G1 X131.354 Y94.291 E16.67374
G1 X131.449 Y95.033 E16.71292
G1 X131.468 Y95.55 E16.74002
G1 X131.468 Y104.95 E17.23244
G1 X131.428 Y105.697 E17.27163
G1 X131.341 Y106.237 E17.30028
G1 X131.354 Y106.291 E17.30319
G1 X131.449 Y107.033 E17.34238
G1 X131.468 Y107.55 E17.36948
G1 X131.468 Y116.95 E17.86189
G1 X131.428 Y117.697 E17.90108
G1 X131.309 Y118.435 E17.94024
G1 X131.111 Y119.157 E17.97946
G1 X130.838 Y119.853 E18.01862
G1 X130.491 Y120.516 E18.05782
G1 X130.076 Y121.139 E18.09704
G1 X129.597 Y121.713 E18.1362
G1 X129.06 Y122.234 E18.17539
G1 X128.47 Y122.693 E18.21455
G1 X127.834 Y123.088 E18.25377
G1 X127.16 Y123.412 E18.29295
G1 X126.455 Y123.662 E18.33213
G1 X125.727 Y123.836 E18.37134
G1 X124.985 Y123.931 E18.41053
G1 X124.468 Y123.95 E18.43763
G1 X123.968 Y123.95 E18.46382
G1 X123.968 Y124.45 E18.49001
G1 X123.928 Y125.197 E18.5292
G1 X123.809 Y125.935 E18.56836
G1 X123.611 Y126.657 E18.60758
G1 X123.338 Y127.353 E18.64674
G1 X122.991 Y128.016 E18.68594
G1 X122.576 Y128.639 E18.72516
G1 X122.097 Y129.213 E18.76432
G1 X121.56 Y129.734 E18.80352
G1 X120.97 Y130.193 E18.84267
G1 X120.334 Y130.588 E18.88189
G1 X119.66 Y130.912 E18.92107
G1 X118.955 Y131.162 E18.96025
G1 X118.227 Y131.336 E18.99946
G1 X117.485 Y131.431 E19.03865
G1 X116.968 Y131.45 E19.06575
G1 X106.882 Y131.45 E19.5941
G1 X106.135 Y131.41 E19.63329
G1 X105.397 Y131.291 E19.67245
G1 X104.675 Y131.093 E19.71167
G1 X103.979 Y130.82 E19.75083
G1 X103.316 Y130.473 E19.79003
G1 X102.693 Y130.058 E19.82925
G1 X102.119 Y129.579 E19.86841
G1 X101.598 Y129.042 E19.9076
G1 X101.139 Y128.452 E19.94676
G1 X100.744 Y127.816 E19.98598
G1 X100.42 Y127.142 E20.02516
G1 X100.17 Y126.437 E20.06434
G1 X99.996 Y125.709 E20.10355
G1 X99.901 Y124.967 E20.14274
G1 X99.882 Y124.451 E20.16979
G1 X99.882 Y122.56 E20.26885
G1 X99.305 Y122.079 E20.3082
G1 X98.784 Y121.542 E20.34739
G1 X98.325 Y120.952 E20.38655
G1 X97.93 Y120.316 E20.42577
G1 X97.606 Y119.642 E20.46494
G1 X97.356 Y118.937 E20.50413
G1 X97.182 Y118.209 E20.54334
G1 X97.087 Y117.467 E20.58253
G1 X97.068 Y116.95 E20.60963
G1 X97.068 Y107.55 E21.10204
G1 X97.108 Y106.803 E21.14123
G1 X97.195 Y106.263 E21.16988
G1 X97.182 Y106.209 E21.17279
G1 X97.087 Y105.467 E21.21198
G1 X97.068 Y104.95 E21.23908
G1 X97.068 Y95.55 E21.7315
G1 X97.108 Y94.803 E21.77068
G1 X97.227 Y94.065 E21.80984
G1 X97.425 Y93.343 E21.84906
G1 X97.698 Y92.647 E21.88823
G1 X98.045 Y91.984 E21.92743
G1 X98.46 Y91.361 E21.96664
G1 X98.939 Y90.787 E22.0058
G0 F6000 X98.857 Y91.5
G1 F1200 X99.333 Y90.952 E22.04383
G1 X99.867 Y90.459 E22.0819
G1 X100.452 Y90.029 E22.11993
G1 X101.081 Y89.665 E22.158
G1 X101.746 Y89.372 E22.19607
G1 X102.439 Y89.154 E22.23413
G1 X103.151 Y89.014 E22.27214
G1 X104.068 Y88.95 E22.32029
G1 X112.468 Y88.95 E22.76032
G1 X113.193 Y88.99 E22.79836
G1 X113.91 Y89.109 E22.83643
G1 X114.264 Y89.209 E22.8557
G1 X114.439 Y89.154 E22.86531
G1 X115.151 Y89.014 E22.90332
G1 X116.068 Y88.95 E22.95148
G1 X124.468 Y88.95 E23.39151
G1 X125.193 Y88.99 E23.42955
G1 X125.91 Y89.109 E23.46762
G1 X126.609 Y89.307 E23.50568
G1 X127.282 Y89.58 E23.54372
G1 X127.921 Y89.925 E23.58176
G1 X128.518 Y90.339 E23.61982
G1 X129.066 Y90.815 E23.65785
G1 X129.559 Y91.349 E23.69592
G1 X129.989 Y91.934 E23.73395
G1 X130.353 Y92.563 E23.77202
G1 X130.646 Y93.228 E23.81009
G1 X130.864 Y93.921 E23.84814
G1 X131.004 Y94.633 E23.88616
G1 X131.068 Y95.55 E23.93431
G1 X131.068 Y104.95 E24.42673
G1 X131.028 Y105.675 E24.46476
G1 X130.931 Y106.261 E24.49588
G1 X131.004 Y106.633 E24.51574
G1 X131.068 Y107.55 E24.56389
G1 X131.068 Y116.95 E25.05631
G1 X131.028 Y117.675 E25.09434
G1 X130.909 Y118.392 E25.13242
G1 X130.711 Y119.091 E25.17047
G1 X130.438 Y119.764 E25.20852
G1 X130.093 Y120.403 E25.24656
G1 X129.679 Y121 E25.28462
G1 X129.203 Y121.548 E25.32264
G1 X128.669 Y122.041 E25.36071
G1 X128.084 Y122.471 E25.39875
G1 X127.455 Y122.835 E25.43682
G1 X126.79 Y123.128 E25.47488
G1 X126.097 Y123.346 E25.51294
G1 X125.385 Y123.486 E25.55095
G1 X124.468 Y123.55 E25.59911
G1 X123.568 Y123.55 E25.64625
G1 X123.568 Y124.45 E25.6934
G1 X123.528 Y125.175 E25.73144
G1 X123.409 Y125.892 E25.76951
G1 X123.211 Y126.591 E25.80757
G1 X122.938 Y127.264 E25.84561
G1 X122.593 Y127.903 E25.88365
G1 X122.179 Y128.5 E25.92171
G1 X121.703 Y129.048 E25.95974
G1 X121.169 Y129.541 E25.99781
G1 X120.584 Y129.971 E26.03584
G1 X119.955 Y130.335 E26.07391
G1 X119.29 Y130.628 E26.11198
G1 X118.597 Y130.846 E26.15003
G1 X117.885 Y130.986 E26.18805
G1 X116.968 Y131.05 E26.2362
G1 X106.882 Y131.05 E26.76455
G1 X106.157 Y131.01 E26.80259
G1 X105.44 Y130.891 E26.84066
G1 X104.741 Y130.693 E26.87872
G1 X104.068 Y130.42 E26.91676
G1 X103.429 Y130.075 E26.95481
G1 X102.832 Y129.661 E26.99286
G1 X102.284 Y129.185 E27.03089
G1 X101.791 Y128.651 E27.06896
G1 X101.361 Y128.066 E27.10699
G1 X100.997 Y127.437 E27.14506
G1 X100.704 Y126.772 E27.18313
G1 X100.486 Y126.079 E27.22119
G1 X100.346 Y125.367 E27.2592
G1 X100.282 Y124.451 E27.3073
G1 X100.282 Y122.344 E27.41767
G1 X100.018 Y122.161 E27.4345
G1 X99.47 Y121.685 E27.47253
G1 X98.977 Y121.151 E27.5106
G1 X98.547 Y120.566 E27.54863
G1 X98.183 Y119.937 E27.5867
G1 X97.89 Y119.272 E27.62477
G1 X97.672 Y118.579 E27.66282
G1 X97.532 Y117.867 E27.70084
G1 X97.468 Y116.95 E27.74899
G1 X97.468 Y107.55 E28.24141
G1 X97.508 Y106.825 E28.27944
G1 X97.605 Y106.239 E28.31056
G1 X97.532 Y105.867 E28.33042
G1 X97.468 Y104.95 E28.37857
G1 X97.468 Y95.55 E28.87099
G1 X97.508 Y94.825 E28.90902
G1 X97.627 Y94.108 E28.9471
G1 X97.825 Y93.409 E28.98515
G1 X98.098 Y92.736 E29.0232
G1 X98.443 Y92.097 E29.06124
G1 X98.857 Y91.5 E29.0993
G0 F6000 X99.253 Y91.644
G1 F1200 X99.727 Y91.123 E29.1362
G1 X100.257 Y90.659 E29.1731
G1 X100.836 Y90.259 E29.20996
G1 X101.457 Y89.927 E29.24685
G1 X102.111 Y89.667 E29.28372
G1 X102.791 Y89.483 E29.32062
G1 X103.487 Y89.377 E29.3575
G1 X104.068 Y89.35 E29.38797
G1 X112.468 Y89.35 E29.828
G1 X113.171 Y89.39 E29.86489
G1 X113.865 Y89.509 E29.90177
G1 X114.263 Y89.626 E29.9235
G1 X114.791 Y89.483 E29.95216
G1 X115.487 Y89.377 E29.98904
G1 X116.068 Y89.35 E30.01951
G1 X124.468 Y89.35 E30.45954
G1 X125.171 Y89.39 E30.49642
G1 X125.865 Y89.509 E30.53331
G1 X126.54 Y89.707 E30.57016
G1 X127.189 Y89.979 E30.60702
G1 X127.803 Y90.324 E30.64392
G1 X128.374 Y90.735 E30.68077
G1 X128.895 Y91.209 E30.71767
G1 X129.359 Y91.739 E30.75457
G1 X129.759 Y92.318 E30.79143
G1 X130.091 Y92.939 E30.82832
G1 X130.351 Y93.593 E30.86519
G1 X130.535 Y94.273 E30.90209
G1 X130.641 Y94.969 E30.93897
G1 X130.668 Y95.55 E30.96944
G1 X130.668 Y104.95 E31.46186
G1 X130.628 Y105.653 E31.49874
G1 X130.527 Y106.243 E31.5301
G1 X130.535 Y106.273 E31.53173
G1 X130.641 Y106.969 E31.56861
G1 X130.668 Y107.55 E31.59907
G1 X130.668 Y116.95 E32.09149
G1 X130.628 Y117.653 E32.12838
G1 X130.509 Y118.347 E32.16526
G1 X130.311 Y119.022 E32.20211
G1 X130.039 Y119.671 E32.23897
G1 X129.694 Y120.285 E32.27587
G1 X129.283 Y120.856 E32.31272
G1 X128.809 Y121.377 E32.34962
G1 X128.279 Y121.841 E32.38652
G1 X127.7 Y122.241 E32.42339
G1 X127.079 Y122.573 E32.46027
G1 X126.425 Y122.833 E32.49714
G1 X125.745 Y123.017 E32.53404
G1 X125.049 Y123.123 E32.57092
G1 X124.468 Y123.15 E32.60139
G1 X123.168 Y123.15 E32.66949
G1 X123.168 Y124.45 E32.73759
G1 X123.128 Y125.153 E32.77448
G1 X123.009 Y125.847 E32.81136
G1 X122.811 Y126.522 E32.84821
G1 X122.539 Y127.171 E32.88508
G1 X122.194 Y127.785 E32.92197
G1 X121.783 Y128.356 E32.95882
G1 X121.309 Y128.877 E32.99572
G1 X120.779 Y129.341 E33.03262
G1 X120.2 Y129.741 E33.06949
G1 X119.579 Y130.073 E33.10638
G1 X118.925 Y130.333 E33.14324
G1 X118.245 Y130.517 E33.18015
G1 X117.549 Y130.623 E33.21703
G1 X116.968 Y130.65 E33.24749
G1 X106.882 Y130.65 E33.77585
G1 X106.179 Y130.61 E33.81273
G1 X105.485 Y130.491 E33.84962
G1 X104.81 Y130.293 E33.88647
G1 X104.161 Y130.021 E33.92333
G1 X103.547 Y129.676 E33.96022
G1 X102.976 Y129.265 E33.99708
G1 X102.455 Y128.791 E34.03398
G1 X101.991 Y128.261 E34.07088
G1 X101.591 Y127.682 E34.10774
G1 X101.259 Y127.061 E34.14463
G1 X100.999 Y126.407 E34.1815
G1 X100.815 Y125.727 E34.2184
G1 X100.709 Y125.031 E34.25528
G1 X100.682 Y124.451 E34.2857
G1 X100.682 Y122.139 E34.40681
G1 X100.162 Y121.765 E34.44036
