;FLAVOR:Marlin
;TIME:1469
;Filament used: 1.30184m
;Layer height: 0.2
;MINX:11.8
;MINY:11.8
;MINZ:0.3
;MAXX:208.2
;MAXY:208.2
;MAXZ:0.3
;Generated with Cura_SteamEngine 4.10.0
M140 S60
M105
M190 S60
M104 S195
M105
M109 S195
M82 ;absolute extrusion mode
G28 ;Home
G1 Z15.0 F2000 ;Move the platform
G92 E0
G92 E0
G1 F1500 E-4
;LAYER_COUNT:1
;LAYER:0
M107
M204 S1000
G0 F6000 X14.223 Y13.949 Z0.3
M204 S500
;TYPE:SKIRT
G1 F1500 E0
G1 F1200 X14.822 Y13.434 E0.03941
G1 X15.47 Y12.983 E0.0788
G1 X16.161 Y12.599 E0.11824
G1 X16.886 Y12.287 E0.15762
G1 X17.639 Y12.05 E0.197
G1 X18.413 Y11.891 E0.23642
G1 X19.198 Y11.81 E0.27579
G1 X19.6 Y11.8 E0.29586
G1 X50.4 Y11.8 E1.83247
G1 X51.189 Y11.84 E1.87189
G1 X51.969 Y11.959 E1.91125
G1 X52.734 Y12.157 E1.95068
G1 X53.474 Y12.431 E1.99004
G1 X54.183 Y12.779 E2.02945
G1 X54.854 Y13.197 E2.06889
G1 X55.478 Y13.68 E2.10826
G1 X56.051 Y14.223 E2.14764
G1 X56.566 Y14.822 E2.18705
G1 X57.017 Y15.47 E2.22644
G1 X57.401 Y16.161 E2.26588
G1 X57.713 Y16.886 E2.30526
G1 X57.95 Y17.639 E2.34464
G1 X58.109 Y18.413 E2.38406
G1 X58.19 Y19.198 E2.42343
G1 X58.2 Y19.6 E2.4435
G1 X58.2 Y50.4 E3.98011
G1 X58.16 Y51.189 E4.01953
G1 X58.041 Y51.969 E4.05889
G1 X57.843 Y52.734 E4.09832
G1 X57.569 Y53.474 E4.13768
G1 X57.221 Y54.183 E4.17709
G1 X56.803 Y54.854 E4.21653
G1 X56.32 Y55.478 E4.2559
G1 X55.777 Y56.051 E4.29528
G1 X55.178 Y56.566 E4.33469
G1 X54.53 Y57.017 E4.37408
G1 X53.839 Y57.401 E4.41352
G1 X53.114 Y57.713 E4.4529
G1 X52.361 Y57.95 E4.49228
G1 X51.587 Y58.109 E4.5317
G1 X50.802 Y58.19 E4.57107
G1 X50.4 Y58.2 E4.59114
G1 X19.6 Y58.2 E6.12775
G1 X18.811 Y58.16 E6.16717
G1 X18.031 Y58.041 E6.20653
G1 X17.266 Y57.843 E6.24596
G1 X16.526 Y57.569 E6.28532
G1 X15.817 Y57.221 E6.32473
G1 X15.146 Y56.803 E6.36417
G1 X14.522 Y56.32 E6.40354
G1 X13.949 Y55.777 E6.44292
G1 X13.434 Y55.178 E6.48233
G1 X12.983 Y54.53 E6.52172
G1 X12.599 Y53.839 E6.56116
G1 X12.287 Y53.114 E6.60054
G1 X12.05 Y52.361 E6.63992
G1 X11.891 Y51.587 E6.67934
G1 X11.81 Y50.802 E6.71871
G1 X11.8 Y50.4 E6.73878
G1 X11.8 Y19.6 E8.27539
G1 X11.84 Y18.811 E8.31481
G1 X11.959 Y18.031 E8.35417
G1 X12.157 Y17.266 E8.3936
G1 X12.431 Y16.526 E8.43297
G1 X12.779 Y15.817 E8.47237
G1 X13.197 Y15.146 E8.51181
G1 X13.68 Y14.522 E8.55118
G1 X14.223 Y13.949 E8.59056
M204 S1000
G0 F6000 X14.616 Y14.13
M204 S500
G1 F1200 X15.211 Y13.642 E8.62895
G1 X15.853 Y13.219 E8.66731
G1 X16.536 Y12.864 E8.70571
G1 X17.251 Y12.583 E8.74404
G1 X17.993 Y12.377 E8.78246
G1 X18.751 Y12.249 E8.82081
G1 X19.6 Y12.2 E8.86324
G1 X50.4 Y12.2 E10.39986
G1 X51.168 Y12.24 E10.43822
G1 X51.928 Y12.359 E10.4766
G1 X52.671 Y12.557 E10.51496
G1 X53.39 Y12.831 E10.55335
G1 X54.076 Y13.178 E10.59171
G1 X54.723 Y13.594 E10.63008
G1 X55.323 Y14.075 E10.66845
G1 X55.87 Y14.616 E10.70683
G1 X56.358 Y15.211 E10.74522
G1 X56.781 Y15.853 E10.78358
G1 X57.136 Y16.536 E10.82198
G1 X57.417 Y17.251 E10.86031
G1 X57.623 Y17.993 E10.89873
G1 X57.751 Y18.751 E10.93708
G1 X57.8 Y19.6 E10.97951
G1 X57.8 Y50.4 E12.51613
G1 X57.76 Y51.168 E12.55449
G1 X57.641 Y51.928 E12.59287
G1 X57.443 Y52.671 E12.63123
G1 X57.169 Y53.39 E12.66962
G1 X56.822 Y54.076 E12.70797
G1 X56.406 Y54.723 E12.74635
G1 X55.925 Y55.323 E12.78472
G1 X55.384 Y55.87 E12.8231
G1 X54.789 Y56.358 E12.86149
G1 X54.147 Y56.781 E12.89985
G1 X53.464 Y57.136 E12.93825
G1 X52.749 Y57.417 E12.97658
G1 X52.007 Y57.623 E13.015
G1 X51.249 Y57.751 E13.05335
G1 X50.4 Y57.8 E13.09578
G1 X19.6 Y57.8 E14.63239
G1 X18.832 Y57.76 E14.67076
G1 X18.072 Y57.641 E14.70914
G1 X17.329 Y57.443 E14.7475
G1 X16.61 Y57.169 E14.78589
G1 X15.924 Y56.822 E14.82424
G1 X15.277 Y56.406 E14.86262
G1 X14.677 Y55.925 E14.90098
G1 X14.13 Y55.384 E14.93937
G1 X13.642 Y54.789 E14.97776
G1 X13.219 Y54.147 E15.01612
G1 X12.864 Y53.464 E15.05452
G1 X12.583 Y52.749 E15.09285
G1 X12.377 Y52.007 E15.13127
G1 X12.249 Y51.249 E15.16962
G1 X12.2 Y50.4 E15.21204
G1 X12.2 Y19.6 E16.74866
G1 X12.24 Y18.832 E16.78703
G1 X12.359 Y18.072 E16.82541
G1 X12.557 Y17.329 E16.86377
G1 X12.831 Y16.61 E16.90216
G1 X13.178 Y15.924 E16.94051
G1 X13.594 Y15.277 E16.97889
G1 X14.075 Y14.677 E17.01725
G1 X14.616 Y14.13 E17.05564
M204 S1000
G0 F6000 X15.008 Y14.316
M204 S500
G1 F1200 X15.598 Y13.857 E17.09293
G1 X16.234 Y13.462 E17.13028
G1 X16.908 Y13.138 E17.16759
G1 X17.613 Y12.888 E17.20491
G1 X18.341 Y12.714 E17.24225
G1 X19.083 Y12.619 E17.27957
G1 X19.6 Y12.6 E17.30538
G1 X50.4 Y12.6 E18.842
G1 X51.147 Y12.64 E18.87932
G1 X51.885 Y12.759 E18.91662
G1 X52.607 Y12.957 E18.95397
G1 X53.303 Y13.23 E18.99127
G1 X53.966 Y13.577 E19.0286
G1 X54.589 Y13.992 E19.06595
G1 X55.163 Y14.471 E19.10325
G1 X55.684 Y15.008 E19.14057
G1 X56.143 Y15.598 E19.17787
G1 X56.538 Y16.234 E19.21522
G1 X56.862 Y16.908 E19.25253
G1 X57.112 Y17.613 E19.28985
G1 X57.286 Y18.341 E19.32719
G1 X57.381 Y19.083 E19.36451
G1 X57.4 Y19.6 E19.39032
G1 X57.4 Y50.4 E20.92694
G1 X57.36 Y51.147 E20.96426
G1 X57.241 Y51.885 E21.00156
G1 X57.043 Y52.607 E21.03891
G1 X56.77 Y53.303 E21.07621
G1 X56.423 Y53.966 E21.11354
G1 X56.008 Y54.589 E21.15089
G1 X55.529 Y55.163 E21.18818
G1 X54.992 Y55.684 E21.22551
G1 X54.402 Y56.143 E21.26281
G1 X53.766 Y56.538 E21.30016
G1 X53.092 Y56.862 E21.33747
G1 X52.387 Y57.112 E21.37479
G1 X51.659 Y57.286 E21.41213
G1 X50.917 Y57.381 E21.44945
G1 X50.4 Y57.4 E21.47526
G1 X19.6 Y57.4 E23.01188
G1 X18.853 Y57.36 E23.0492
G1 X18.115 Y57.241 E23.0865
G1 X17.393 Y57.043 E23.12385
G1 X16.697 Y56.77 E23.16114
G1 X16.034 Y56.423 E23.19848
G1 X15.411 Y56.008 E23.23582
G1 X14.837 Y55.529 E23.27312
G1 X14.316 Y54.992 E23.31045
G1 X13.857 Y54.402 E23.34774
G1 X13.462 Y53.766 E23.3851
G1 X13.138 Y53.092 E23.42241
G1 X12.888 Y52.387 E23.45972
G1 X12.714 Y51.659 E23.49707
G1 X12.619 Y50.917 E23.53439
G1 X12.6 Y50.4 E23.5602
G1 X12.6 Y19.6 E25.09682
G1 X12.64 Y18.853 E25.13414
G1 X12.759 Y18.115 E25.17143
G1 X12.957 Y17.393 E25.20878
G1 X13.23 Y16.697 E25.24608
G1 X13.577 Y16.034 E25.28342
G1 X13.992 Y15.411 E25.32076
G1 X14.471 Y14.837 E25.35806
G1 X15.008 Y14.316 E25.39539
M204 S1000
G0 F6000 X14.865 Y15.002
M204 S500
G1 F1200 X15.399 Y14.509 E25.43165
G1 X15.984 Y14.079 E25.46787
G1 X16.613 Y13.715 E25.50413
G1 X17.278 Y13.422 E25.54038
G1 X17.971 Y13.204 E25.57663
G1 X18.683 Y13.064 E25.61283
G1 X19.6 Y13 E25.65869
G1 X50.4 Y13 E27.19531
G1 X51.125 Y13.04 E27.23153
G1 X51.842 Y13.159 E27.26779
G1 X52.541 Y13.357 E27.30404
G1 X53.214 Y13.63 E27.34027
G1 X53.853 Y13.975 E27.3765
G1 X54.45 Y14.389 E27.41275
G1 X54.998 Y14.865 E27.44896
G1 X55.491 Y15.399 E27.48522
G1 X55.921 Y15.984 E27.52144
G1 X56.285 Y16.613 E27.5577
G1 X56.578 Y17.278 E27.59395
G1 X56.796 Y17.971 E27.6302
G1 X56.936 Y18.683 E27.6664
G1 X57 Y19.6 E27.71226
G1 X57 Y50.4 E29.24888
G1 X56.96 Y51.125 E29.2851
G1 X56.841 Y51.842 E29.32136
G1 X56.643 Y52.541 E29.35761
G1 X56.37 Y53.214 E29.39384
G1 X56.025 Y53.853 E29.43007
G1 X55.611 Y54.45 E29.46632
G1 X55.135 Y54.998 E29.50253
G1 X54.601 Y55.491 E29.53879
G1 X54.016 Y55.921 E29.57501
G1 X53.387 Y56.285 E29.61127
G1 X52.722 Y56.578 E29.64752
G1 X52.029 Y56.796 E29.68377
G1 X51.317 Y56.936 E29.71997
G1 X50.4 Y57 E29.76583
G1 X19.6 Y57 E31.30245
G1 X18.875 Y56.96 E31.33867
G1 X18.158 Y56.841 E31.37493
G1 X17.459 Y56.643 E31.41118
G1 X16.786 Y56.37 E31.44741
G1 X16.147 Y56.025 E31.48364
G1 X15.55 Y55.611 E31.51989
G1 X15.002 Y55.135 E31.5561
G1 X14.509 Y54.601 E31.59236
G1 X14.079 Y54.016 E31.62858
G1 X13.715 Y53.387 E31.66484
G1 X13.422 Y52.722 E31.70109
G1 X13.204 Y52.029 E31.73734
G1 X13.064 Y51.317 E31.77354
G1 X13 Y50.4 E31.8194
G1 X13 Y19.6 E33.35602
G1 X13.04 Y18.875 E33.39224
G1 X13.159 Y18.158 E33.4285
G1 X13.357 Y17.459 E33.46475
G1 X13.63 Y16.786 E33.50098
G1 X13.975 Y16.147 E33.53721
G1 X14.389 Y15.55 E33.57346
G1 X14.865 Y15.002 E33.60967
M204 S1000
G0 F6000 X15.259 Y15.173
M204 S500
G1 F1200 X15.789 Y14.709 E33.64482
G1 X16.368 Y14.309 E33.67992
G1 X16.989 Y13.977 E33.71506
G1 X17.643 Y13.717 E33.75017
G1 X18.323 Y13.533 E33.78531
G1 X19.019 Y13.427 E33.82044
G1 X19.6 Y13.4 E33.84945
G1 X50.4 Y13.4 E35.38607
G1 X51.103 Y13.44 E35.4212
G1 X51.797 Y13.559 E35.45633
G1 X52.472 Y13.757 E35.49143
G1 X53.121 Y14.029 E35.52653
G1 X53.735 Y14.374 E35.56167
G1 X54.306 Y14.785 E35.59677
G1 X54.827 Y15.259 E35.63191
G1 X55.291 Y15.789 E35.66705
G1 X55.691 Y16.368 E35.70216
G1 X56.023 Y16.989 E35.7373
G1 X56.283 Y17.643 E35.77241
G1 X56.467 Y18.323 E35.80755
G1 X56.573 Y19.019 E35.84268
G1 X56.6 Y19.6 E35.87169
G1 X56.6 Y50.4 E37.40831
G1 X56.56 Y51.103 E37.44344
G1 X56.441 Y51.797 E37.47857
G1 X56.243 Y52.472 E37.51367
G1 X55.971 Y53.121 E37.54877
G1 X55.626 Y53.735 E37.58391
G1 X55.215 Y54.306 E37.61901
G1 X54.741 Y54.827 E37.65415
G1 X54.211 Y55.291 E37.68929
G1 X53.632 Y55.691 E37.7244
G1 X53.011 Y56.023 E37.75953
G1 X52.357 Y56.283 E37.79465
G1 X51.677 Y56.467 E37.82979
G1 X50.981 Y56.573 E37.86492
G1 X50.4 Y56.6 E37.89393
G1 X19.6 Y56.6 E39.43055
G1 X18.897 Y56.56 E39.46568
G1 X18.203 Y56.441 E39.50081
G1 X17.528 Y56.243 E39.53591
G1 X16.879 Y55.971 E39.57101
G1 X16.265 Y55.626 E39.60615
G1 X15.694 Y55.215 E39.64125
G1 X15.173 Y54.741 E39.67639
G1 X14.709 Y54.211 E39.71153
G1 X14.309 Y53.632 E39.74664
G1 X13.977 Y53.011 E39.78177
G1 X13.717 Y52.357 E39.81689
G1 X13.533 Y51.677 E39.85203
G1 X13.427 Y50.981 E39.88716
G1 X13.4 Y50.4 E39.91617
G1 X13.4 Y19.6 E41.45279
G1 X13.44 Y18.897 E41.48792
G1 X13.559 Y18.203 E41.52305
G1 X13.757 Y17.528 E41.55814
G1 X14.029 Y16.879 E41.59325
G1 X14.374 Y16.265 E41.62839
G1 X14.785 Y15.694 E41.66349
G1 X15.259 Y15.173 E41.69863
M204 S1000
G0 F6000 X15.653 Y15.351
M204 S500
G1 F1200 X16.178 Y14.917 E41.73261
G1 X16.75 Y14.548 E41.76657
G1 X17.362 Y14.249 E41.80055
G1 X18.004 Y14.024 E41.83449
G1 X18.669 Y13.875 E41.86849
G1 X19.6 Y13.8 E41.91509
G1 X50.4 Y13.8 E43.45171
G1 X51.08 Y13.84 E43.48569
G1 X51.75 Y13.959 E43.51964
G1 X52.402 Y14.156 E43.55362
G1 X53.026 Y14.428 E43.58758
G1 X53.614 Y14.772 E43.62157
G1 X54.158 Y15.182 E43.65556
G1 X54.649 Y15.653 E43.6895
G1 X55.083 Y16.178 E43.72348
G1 X55.452 Y16.75 E43.75744
G1 X55.751 Y17.362 E43.79143
G1 X55.976 Y18.004 E43.82537
G1 X56.125 Y18.669 E43.85937
G1 X56.2 Y19.6 E43.90596
G1 X56.2 Y50.4 E45.44258
G1 X56.16 Y51.08 E45.47657
G1 X56.041 Y51.75 E45.51052
G1 X55.844 Y52.402 E45.5445
G1 X55.572 Y53.026 E45.57846
G1 X55.228 Y53.614 E45.61244
G1 X54.818 Y54.158 E45.64643
G1 X54.347 Y54.649 E45.68037
G1 X53.822 Y55.083 E45.71436
G1 X53.25 Y55.452 E45.74832
G1 X52.638 Y55.751 E45.7823
G1 X51.996 Y55.976 E45.81624
G1 X51.331 Y56.125 E45.85024
G1 X50.4 Y56.2 E45.89684
G1 X19.6 Y56.2 E47.43345
G1 X18.92 Y56.16 E47.46744
G1 X18.25 Y56.041 E47.50139
G1 X17.598 Y55.844 E47.53537
G1 X16.974 Y55.572 E47.56933
G1 X16.386 Y55.228 E47.60332
G1 X15.842 Y54.818 E47.6373
G1 X15.351 Y54.347 E47.67125
G1 X14.917 Y53.822 E47.70523
G1 X14.548 Y53.25 E47.73919
G1 X14.249 Y52.638 E47.77317
G1 X14.024 Y51.996 E47.80711
G1 X13.875 Y51.331 E47.84111
G1 X13.8 Y50.4 E47.88771
G1 X13.8 Y19.6 E49.42433
G1 X13.84 Y18.92 E49.45831
G1 X13.959 Y18.25 E49.49226
G1 X14.156 Y17.598 E49.52624
G1 X14.428 Y16.974 E49.5602
G1 X14.772 Y16.386 E49.59419
G1 X15.182 Y15.842 E49.62817
G1 X15.653 Y15.351 E49.66212
M204 S1000
G0 F6000 X16.045 Y15.535
M204 S500
G1 F1200 X16.565 Y15.134 E49.69488
G1 X17.129 Y14.798 E49.72763
G1 X17.731 Y14.534 E49.76043
G1 X18.36 Y14.344 E49.79321
G1 X19.007 Y14.233 E49.82596
G1 X19.6 Y14.2 E49.85559
G1 X50.4 Y14.2 E51.39221
G1 X51.056 Y14.24 E51.425
G1 X51.702 Y14.359 E51.45777
G1 X52.329 Y14.556 E51.49056
G1 X52.927 Y14.828 E51.52333
G1 X53.488 Y15.17 E51.55611
G1 X54.003 Y15.578 E51.58889
G1 X54.465 Y16.045 E51.62166
G1 X54.866 Y16.565 E51.65443
G1 X55.202 Y17.129 E51.68718
G1 X55.466 Y17.731 E51.71997
G1 X55.656 Y18.36 E51.75275
G1 X55.767 Y19.007 E51.78551
G1 X55.8 Y19.6 E51.81514
G1 X55.8 Y50.4 E53.35175
G1 X55.76 Y51.056 E53.38454
G1 X55.641 Y51.702 E53.41731
G1 X55.444 Y52.329 E53.4501
G1 X55.172 Y52.927 E53.48288
G1 X54.83 Y53.488 E53.51566
G1 X54.422 Y54.003 E53.54844
G1 X53.955 Y54.465 E53.58121
G1 X53.435 Y54.866 E53.61397
G1 X52.871 Y55.202 E53.64672
G1 X52.269 Y55.466 E53.67952
G1 X51.64 Y55.656 E53.7123
G1 X50.993 Y55.767 E53.74505
G1 X50.4 Y55.8 E53.77468
G1 X19.6 Y55.8 E55.3113
G1 X18.944 Y55.76 E55.34409
G1 X18.298 Y55.641 E55.37686
G1 X17.671 Y55.444 E55.40965
G1 X17.073 Y55.172 E55.44242
G1 X16.512 Y54.83 E55.4752
G1 X15.997 Y54.422 E55.50798
G1 X15.535 Y53.955 E55.54076
G1 X15.134 Y53.435 E55.57352
G1 X14.798 Y52.871 E55.60627
G1 X14.534 Y52.269 E55.63907
G1 X14.344 Y51.64 E55.67185
G1 X14.233 Y50.993 E55.7046
G1 X14.2 Y50.4 E55.73423
G1 X14.2 Y19.6 E57.27085
G1 X14.24 Y18.944 E57.30364
G1 X14.359 Y18.298 E57.33641
G1 X14.556 Y17.671 E57.3692
G1 X14.828 Y17.073 E57.40197
G1 X15.17 Y16.512 E57.43475
G1 X15.578 Y15.997 E57.46753
G1 X16.045 Y15.535 E57.5003
M204 S1000
G0 F6000 X15.973 Y16.159
M204 S500
G1 F1200 X16.436 Y15.729 E57.53183
G1 X16.95 Y15.36 E57.5634
G1 X17.506 Y15.06 E57.59491
G1 X18.095 Y14.832 E57.62642
G1 X18.709 Y14.68 E57.65798
G1 X19.6 Y14.6 E57.70261
G1 X50.4 Y14.6 E59.23923
G1 X51.031 Y14.64 E59.27077
G1 X51.652 Y14.759 E59.30232
G1 X52.252 Y14.956 E59.33383
G1 X52.824 Y15.227 E59.3654
G1 X53.356 Y15.567 E59.3969
G1 X53.841 Y15.973 E59.42846
G1 X54.271 Y16.436 E59.45998
G1 X54.64 Y16.95 E59.49155
G1 X54.94 Y17.506 E59.52307
G1 X55.168 Y18.095 E59.55458
G1 X55.32 Y18.709 E59.58614
G1 X55.4 Y19.6 E59.63077
G1 X55.4 Y50.4 E61.16739
G1 X55.36 Y51.031 E61.19893
G1 X55.241 Y51.652 E61.23048
G1 X55.044 Y52.252 E61.26198
G1 X54.773 Y52.824 E61.29356
G1 X54.433 Y53.356 E61.32506
G1 X54.027 Y53.841 E61.35662
G1 X53.564 Y54.271 E61.38814
G1 X53.05 Y54.64 E61.41971
G1 X52.494 Y54.94 E61.45123
G1 X51.905 Y55.168 E61.48274
G1 X51.291 Y55.32 E61.51429
G1 X50.4 Y55.4 E61.55893
G1 X19.6 Y55.4 E63.09554
G1 X18.969 Y55.36 E63.12709
G1 X18.348 Y55.241 E63.15863
G1 X17.748 Y55.044 E63.19014
G1 X17.176 Y54.773 E63.22172
G1 X16.644 Y54.433 E63.25322
G1 X16.159 Y54.027 E63.28477
G1 X15.729 Y53.564 E63.3163
G1 X15.36 Y53.05 E63.34786
G1 X15.06 Y52.494 E63.37938
G1 X14.832 Y51.905 E63.41089
G1 X14.68 Y51.291 E63.44245
G1 X14.6 Y50.4 E63.48708
G1 X14.6 Y19.6 E65.0237
G1 X14.64 Y18.969 E65.05524
G1 X14.759 Y18.348 E65.08679
G1 X14.956 Y17.748 E65.1183
G1 X15.227 Y17.176 E65.14987
G1 X15.567 Y16.644 E65.18137
G1 X15.973 Y16.159 E65.21293
M204 S1000
G0 F6000 X16.367 Y16.328
M204 S500
G1 F1200 X16.825 Y15.931 E65.24317
G1 X17.332 Y15.598 E65.27343
G1 X17.878 Y15.334 E65.30369
G1 X18.454 Y15.145 E65.33393
G1 X19.05 Y15.033 E65.36419
G1 X19.6 Y15 E65.39167
G1 X50.4 Y15 E66.92829
G1 X51.005 Y15.04 E66.95854
G1 X51.599 Y15.159 E66.98877
G1 X52.173 Y15.355 E67.01903
G1 X52.716 Y15.626 E67.0493
G1 X53.219 Y15.965 E67.07957
G1 X53.672 Y16.367 E67.10978
G1 X54.069 Y16.825 E67.14002
G1 X54.402 Y17.332 E67.17028
G1 X54.666 Y17.878 E67.20054
G1 X54.855 Y18.454 E67.23078
G1 X54.967 Y19.05 E67.26104
G1 X55 Y19.6 E67.28853
G1 X55 Y50.4 E68.82515
G1 X54.96 Y51.005 E68.8554
G1 X54.841 Y51.599 E68.88562
G1 X54.645 Y52.173 E68.91588
G1 X54.374 Y52.716 E68.94616
G1 X54.035 Y53.219 E68.97642
G1 X53.633 Y53.672 E69.00664
G1 X53.175 Y54.069 E69.03687
G1 X52.668 Y54.402 E69.06714
G1 X52.122 Y54.666 E69.09739
G1 X51.546 Y54.855 E69.12764
G1 X50.95 Y54.967 E69.15789
G1 X50.4 Y55 E69.18538
G1 X19.6 Y55 E70.722
G1 X18.995 Y54.96 E70.75225
G1 X18.401 Y54.841 E70.78247
G1 X17.827 Y54.645 E70.81273
G1 X17.284 Y54.374 E70.84301
G1 X16.781 Y54.035 E70.87327
G1 X16.328 Y53.633 E70.90349
G1 X15.931 Y53.175 E70.93373
G1 X15.598 Y52.668 E70.96399
G1 X15.334 Y52.122 E70.99425
G1 X15.145 Y51.546 E71.02449
G1 X15.033 Y50.95 E71.05475
G1 X15 Y50.4 E71.08224
G1 X15 Y19.6 E72.61885
G1 X15.04 Y18.995 E72.6491
G1 X15.159 Y18.401 E72.67933
G1 X15.355 Y17.827 E72.70959
G1 X15.626 Y17.284 E72.73986
G1 X15.965 Y16.781 E72.77013
G1 X16.367 Y16.328 E72.80034
M204 S1000
G0 F6000 X16.76 Y16.506
M204 S500
G1 F1200 X17.213 Y16.144 E72.82927
G1 X17.711 Y15.849 E72.85815
G1 X18.245 Y15.624 E72.88706
G1 X18.805 Y15.476 E72.91596
G1 X19.6 Y15.4 E72.9558
G1 X50.4 Y15.4 E74.49242
G1 X50.978 Y15.44 E74.52132
G1 X51.545 Y15.559 E74.55023
