;FLAVOR:Marlin
;TIME:3014
;Filament used: 1.76315m
;Layer height: 0.2
;MINX:28.2
;MINY:28.2
;MINZ:0.3
;MAXX:191.8
;MAXY:191.8
;MAXZ:1.9
;ZOFFSETPROCESSED
;Generated with Cura_SteamEngine 4.10.0
M140 S60
M105
M190 S60
M104 S195
M105
M109 S195
M82 ;absolute extrusion mode
G28 ;Home
G1 Z15.0 F2000 ;Move the platform
G92 E0
G92 E0
G1 F1500 E-4
;LAYER_COUNT:10
;LAYER:0
M107
M204 S1000
G0 F6000 X30.141 Y30.261 Z0.7 ;adjusted by z offset
G92 Z0.3 ;consider this the original z before offset
M204 S500
;TYPE:SKIRT
G1 F1500 E0
G1 F1200 X30.684 Y29.762 E0.03863
G1 X31.277 Y29.325 E0.07722
G1 X31.914 Y28.954 E0.11584
G1 X32.588 Y28.655 E0.15446
G1 X33.29 Y28.43 E0.19308
G1 X34.013 Y28.282 E0.23174
G1 X34.818 Y28.212 E0.27407
G1 X35.139 Y28.203 E0.29089
G1 X35.33 Y28.2 E0.3009
G1 X184.293 Y28.2 E8.10428
G1 X185.088 Y28.211 E8.14593
G1 X185.824 Y28.261 E8.18457
G1 X186.55 Y28.391 E8.22321
G1 X187.257 Y28.599 E8.26181
G1 X187.938 Y28.882 E8.30045
G1 X188.584 Y29.237 E8.33906
G1 X189.188 Y29.66 E8.37769
G1 X189.743 Y30.146 E8.41633
G1 X190.241 Y30.689 E8.45493
G1 X190.678 Y31.283 E8.49356
G1 X191.048 Y31.92 E8.53215
G1 X191.347 Y32.594 E8.57077
G1 X191.572 Y33.297 E8.60944
G1 X191.718 Y34.019 E8.64803
G1 X191.788 Y34.819 E8.6901
G1 X191.797 Y35.139 E8.70687
G1 X191.8 Y35.33 E8.71687
G1 X191.799 Y184.348 E16.52314
G1 X191.79 Y185.075 E16.56122
G1 X191.741 Y185.811 E16.59987
G1 X191.613 Y186.537 E16.63848
G1 X191.407 Y187.245 E16.67711
G1 X191.125 Y187.926 E16.71572
G1 X190.771 Y188.573 E16.75436
G1 X190.349 Y189.178 E16.793
G1 X189.865 Y189.733 E16.83157
G1 X189.323 Y190.233 E16.8702
G1 X188.73 Y190.671 E16.90882
G1 X188.093 Y191.042 E16.94744
G1 X187.419 Y191.343 E16.9861
G1 X186.717 Y191.568 E17.02472
G1 X185.995 Y191.716 E17.06333
G1 X185.182 Y191.788 E17.10609
G1 X184.861 Y191.797 E17.12291
G1 X184.67 Y191.8 E17.13291
G1 X35.619 Y191.799 E24.94091
G1 X34.921 Y191.79 E24.97748
G1 X34.186 Y191.741 E25.01606
G1 X33.46 Y191.612 E25.05469
G1 X32.752 Y191.406 E25.09332
G1 X32.071 Y191.123 E25.13195
G1 X31.424 Y190.769 E25.17058
G1 X30.82 Y190.347 E25.20918
G1 X30.264 Y189.862 E25.24783
G1 X29.765 Y189.32 E25.28642
G1 X29.327 Y188.727 E25.32504
G1 X28.956 Y188.09 E25.36366
G1 X28.656 Y187.416 E25.40231
G1 X28.431 Y186.714 E25.44092
G1 X28.283 Y185.992 E25.47953
G1 X28.211 Y185.175 E25.5225
G1 X28.202 Y184.842 E25.53995
G1 X28.2 Y184.658 E25.54959
G1 X28.201 Y35.582 E33.35889
G1 X28.21 Y34.917 E33.39373
G1 X28.26 Y34.181 E33.43237
G1 X28.389 Y33.456 E33.47095
G1 X28.596 Y32.748 E33.50959
G1 X28.878 Y32.067 E33.5482
G1 X29.233 Y31.42 E33.58686
G1 X29.655 Y30.816 E33.62546
G1 X30.141 Y30.261 E33.6641
M204 S1000
G0 F6000 X30.533 Y30.435
M204 S500
G1 F1200 X31.071 Y29.964 E33.70156
G1 X31.659 Y29.556 E33.73905
G1 X32.288 Y29.216 E33.77651
G1 X32.952 Y28.949 E33.814
G1 X33.641 Y28.757 E33.85146
G1 X34.347 Y28.643 E33.88893
G1 X34.83 Y28.612 E33.91428
G1 X35.33 Y28.6 E33.94048
G1 X184.293 Y28.6 E41.74386
G1 X185.083 Y28.611 E41.78525
G1 X185.796 Y28.661 E41.82269
G1 X186.5 Y28.79 E41.86019
G1 X187.184 Y28.998 E41.89764
G1 X187.841 Y29.28 E41.93509
G1 X188.463 Y29.634 E41.97258
G1 X189.041 Y30.055 E42.01004
G1 X189.569 Y30.538 E42.04753
G1 X190.039 Y31.076 E42.08495
G1 X190.447 Y31.664 E42.12244
G1 X190.786 Y32.294 E42.15992
G1 X191.053 Y32.957 E42.19736
G1 X191.244 Y33.647 E42.23486
G1 X191.357 Y34.353 E42.27232
G1 X191.388 Y34.83 E42.29736
G1 X191.4 Y35.33 E42.32356
G1 X191.4 Y184.343 E50.12956
G1 X191.391 Y185.07 E50.16765
G1 X191.342 Y185.784 E50.20514
G1 X191.214 Y186.488 E50.24262
G1 X191.008 Y187.173 E50.28009
G1 X190.727 Y187.83 E50.31753
G1 X190.374 Y188.453 E50.35504
G1 X189.954 Y189.032 E50.39251
G1 X189.472 Y189.56 E50.42996
G1 X188.935 Y190.032 E50.46741
G1 X188.347 Y190.44 E50.5049
G1 X187.718 Y190.781 E50.54238
G1 X187.055 Y191.049 E50.57984
G1 X186.366 Y191.241 E50.61731
G1 X185.66 Y191.356 E50.65478
G1 X185.17 Y191.388 E50.68051
G1 X184.67 Y191.4 E50.70671
G1 X35.624 Y191.399 E58.51444
G1 X34.926 Y191.39 E58.55101
G1 X34.213 Y191.341 E58.58844
G1 X33.509 Y191.213 E58.62593
G1 X32.824 Y191.007 E58.6634
G1 X32.167 Y190.725 E58.70085
G1 X31.545 Y190.372 E58.73832
G1 X30.966 Y189.952 E58.77579
G1 X30.437 Y189.47 E58.81328
G1 X29.966 Y188.932 E58.85073
G1 X29.558 Y188.345 E58.88818
G1 X29.218 Y187.715 E58.92568
G1 X28.95 Y187.052 E58.96314
G1 X28.758 Y186.363 E59.00061
G1 X28.644 Y185.657 E59.03808
G1 X28.611 Y185.164 E59.06396
G1 X28.602 Y184.831 E59.08141
G1 X28.6 Y184.658 E59.09047
G1 X28.601 Y35.587 E66.89951
G1 X28.61 Y34.922 E66.93435
G1 X28.659 Y34.209 E66.97179
G1 X28.788 Y33.505 E67.00928
G1 X28.995 Y32.821 E67.04672
G1 X29.277 Y32.163 E67.08422
G1 X29.63 Y31.541 E67.12169
G1 X30.05 Y30.963 E67.15911
G1 X30.533 Y30.435 E67.1966
M204 S1000
G0 F6000 X30.924 Y30.614
M204 S500
G1 F1200 X31.458 Y30.173 E67.23288
G1 X32.039 Y29.796 E67.26916
G1 X32.659 Y29.488 E67.30543
G1 X33.311 Y29.254 E67.34171
G1 X33.985 Y29.097 E67.37797
G1 X34.841 Y29.011 E67.42303
G1 X35.162 Y29.002 E67.43986
G1 X35.33 Y29 E67.44866
G1 X184.293 Y29 E75.25204
G1 X185.077 Y29.011 E75.29312
G1 X185.768 Y29.06 E75.3294
G1 X186.448 Y29.19 E75.36567
G1 X187.109 Y29.396 E75.40194
G1 X187.742 Y29.678 E75.43824
G1 X188.338 Y30.03 E75.4745
G1 X188.889 Y30.449 E75.51076
G1 X189.389 Y30.929 E75.54707
G1 X189.83 Y31.463 E75.58335
G1 X190.207 Y32.044 E75.61963
G1 X190.514 Y32.665 E75.65592
G1 X190.747 Y33.317 E75.69219
G1 X190.904 Y33.991 E75.72844
G1 X190.989 Y34.841 E75.77319
G1 X190.998 Y35.161 E75.78996
G1 X191 Y35.33 E75.79882
G1 X191 Y184.338 E83.60456
G1 X190.991 Y185.065 E83.64264
G1 X190.942 Y185.756 E83.67893
G1 X190.814 Y186.437 E83.71523
G1 X190.609 Y187.098 E83.75148
G1 X190.329 Y187.731 E83.78774
G1 X189.977 Y188.328 E83.82405
G1 X189.56 Y188.881 E83.86033
G1 X189.081 Y189.381 E83.8966
G1 X188.548 Y189.823 E83.93287
G1 X187.967 Y190.201 E83.96918
G1 X187.347 Y190.509 E84.00545
G1 X186.696 Y190.744 E84.04171
G1 X186.021 Y190.902 E84.07802
G1 X185.159 Y190.989 E84.12341
G1 X184.838 Y190.998 E84.14023
G1 X184.67 Y191 E84.14903
G1 X35.63 Y191 E91.95645
G1 X34.932 Y190.991 E91.99302
G1 X34.241 Y190.942 E92.0293
G1 X33.56 Y190.813 E92.06561
G1 X32.899 Y190.608 E92.10187
G1 X32.266 Y190.327 E92.13815
G1 X31.669 Y189.976 E92.17442
G1 X31.117 Y189.558 E92.2107
G1 X30.617 Y189.079 E92.24697
G1 X30.175 Y188.545 E92.28328
G1 X29.798 Y187.965 E92.31952
G1 X29.49 Y187.344 E92.35583
G1 X29.255 Y186.693 E92.39209
G1 X29.098 Y186.018 E92.42839
G1 X29.011 Y185.153 E92.47393
G1 X29.002 Y184.82 E92.49138
G1 X29 Y184.658 E92.49987
G1 X29.001 Y35.593 E100.3086
G1 X29.01 Y34.928 E100.34344
G1 X29.059 Y34.237 E100.37972
G1 X29.187 Y33.557 E100.41597
G1 X29.394 Y32.895 E100.45231
G1 X29.675 Y32.262 E100.48859
G1 X30.027 Y31.666 E100.52485
G1 X30.445 Y31.114 E100.56112
G1 X30.924 Y30.614 E100.59739
M204 S1000
G0 F6000 X30.839 Y31.271
M204 S500
G1 F1200 X31.314 Y30.801 E100.63239
G1 X31.843 Y30.39 E100.66749
G1 X32.416 Y30.045 E100.70252
G1 X33.027 Y29.772 E100.73758
G1 X33.665 Y29.573 E100.77259
G1 X34.323 Y29.451 E100.80765
G1 X34.852 Y29.411 E100.83544
G1 X35.173 Y29.402 E100.85226
G1 X35.33 Y29.4 E100.86048
G1 X184.293 Y29.4 E108.66387
G1 X185.071 Y29.411 E108.70463
G1 X185.738 Y29.46 E108.73966
G1 X186.395 Y29.589 E108.77474
G1 X187.031 Y29.795 E108.80976
G1 X187.639 Y30.076 E108.84484
G1 X188.208 Y30.426 E108.87984
G1 X188.732 Y30.843 E108.91492
G1 X189.202 Y31.319 E108.94996
G1 X189.612 Y31.847 E108.98498
G1 X189.957 Y32.421 E109.02006
G1 X190.23 Y33.032 E109.05512
G1 X190.428 Y33.671 E109.09016
G1 X190.549 Y34.329 E109.12521
G1 X190.589 Y34.853 E109.15274
G1 X190.598 Y35.173 E109.16951
G1 X190.6 Y35.33 E109.17773
G1 X190.6 Y184.333 E116.98321
G1 X190.591 Y185.06 E117.0213
G1 X190.542 Y185.728 E117.05639
G1 X190.415 Y186.384 E117.09139
G1 X190.21 Y187.021 E117.12644
G1 X189.931 Y187.629 E117.16149
G1 X189.581 Y188.199 E117.19653
G1 X189.165 Y188.724 E117.23162
G1 X188.69 Y189.195 E117.26666
G1 X188.163 Y189.606 E117.30167
G1 X187.59 Y189.952 E117.33673
G1 X186.98 Y190.226 E117.37176
G1 X186.341 Y190.426 E117.40684
G1 X185.683 Y190.548 E117.44189
G1 X185.148 Y190.589 E117.47
G1 X184.827 Y190.598 E117.48682
G1 X184.67 Y190.6 E117.49505
G1 X35.635 Y190.6 E125.3022
G1 X34.937 Y190.591 E125.33877
G1 X34.27 Y190.542 E125.37381
G1 X33.613 Y190.414 E125.40887
G1 X32.976 Y190.209 E125.44392
G1 X32.368 Y189.929 E125.47899
G1 X31.798 Y189.579 E125.51403
G1 X31.274 Y189.163 E125.54908
G1 X30.803 Y188.688 E125.58412
G1 X30.392 Y188.16 E125.61917
G1 X30.047 Y187.587 E125.65421
G1 X29.773 Y186.977 E125.68924
G1 X29.573 Y186.338 E125.72431
G1 X29.452 Y185.68 E125.75936
G1 X29.411 Y185.142 E125.78762
G1 X29.402 Y184.809 E125.80507
G1 X29.4 Y184.658 E125.81299
G1 X29.401 Y35.598 E133.62145
G1 X29.41 Y34.933 E133.65629
G1 X29.459 Y34.266 E133.69132
G1 X29.587 Y33.609 E133.72639
G1 X29.792 Y32.973 E133.76139
G1 X30.072 Y32.365 E133.79646
G1 X30.423 Y31.795 E133.83152
G1 X30.839 Y31.271 E133.86657
M204 S1000
G0 F6000 X31.232 Y31.435
M204 S500
G1 F1200 X31.703 Y30.995 E133.90034
G1 X32.226 Y30.617 E133.93414
G1 X32.79 Y30.306 E133.96788
G1 X33.389 Y30.068 E134.00164
G1 X34.013 Y29.905 E134.03543
G1 X34.863 Y29.811 E134.08023
G1 X35.184 Y29.802 E134.09705
G1 X35.33 Y29.8 E134.1047
G1 X184.293 Y29.8 E141.90808
G1 X185.065 Y29.811 E141.94853
G1 X185.708 Y29.86 E141.98231
G1 X186.34 Y29.988 E142.01609
G1 X186.951 Y30.194 E142.04987
G1 X187.532 Y30.473 E142.08363
G1 X188.074 Y30.822 E142.1174
G1 X188.568 Y31.236 E142.15116
G1 X189.008 Y31.708 E142.18496
G1 X189.386 Y32.23 E142.21873
G1 X189.696 Y32.795 E142.25249
G1 X189.934 Y33.394 E142.28625
G1 X190.096 Y34.018 E142.32002
G1 X190.189 Y34.864 E142.36461
G1 X190.198 Y35.184 E142.38138
G1 X190.2 Y35.33 E142.38903
G1 X190.2 Y184.328 E150.19424
G1 X190.191 Y185.055 E150.23233
G1 X190.143 Y185.698 E150.26611
G1 X190.016 Y186.33 E150.29988
G1 X189.811 Y186.942 E150.33369
G1 X189.533 Y187.523 E150.36743
G1 X189.185 Y188.066 E150.40121
G1 X188.772 Y188.561 E150.43498
G1 X188.301 Y189.001 E150.46875
G1 X187.779 Y189.38 E150.50254
G1 X187.215 Y189.691 E150.53628
G1 X186.616 Y189.93 E150.57006
G1 X185.993 Y190.094 E150.60381
G1 X185.137 Y190.189 E150.64893
G1 X184.816 Y190.198 E150.66575
G1 X184.67 Y190.2 E150.6734
G1 X35.64 Y190.2 E158.48029
G1 X34.942 Y190.191 E158.51686
G1 X34.299 Y190.142 E158.55064
G1 X33.667 Y190.015 E158.58441
G1 X33.056 Y189.81 E158.61817
G1 X32.475 Y189.532 E158.65191
G1 X31.932 Y189.183 E158.68572
G1 X31.437 Y188.77 E158.71949
G1 X30.997 Y188.299 E158.75326
G1 X30.618 Y187.777 E158.78705
G1 X30.307 Y187.213 E158.82079
G1 X30.069 Y186.614 E158.85455
G1 X29.906 Y185.99 E158.88834
G1 X29.811 Y185.131 E158.93361
G1 X29.8 Y184.658 E158.95839
G1 X29.8 Y35.604 E166.76655
G1 X29.809 Y34.939 E166.80138
G1 X29.858 Y34.296 E166.83517
G1 X29.986 Y33.664 E166.86895
G1 X30.191 Y33.053 E166.90271
G1 X30.47 Y32.472 E166.93647
G1 X30.819 Y31.929 E166.97028
G1 X31.232 Y31.435 E167.00401
M204 S1000
G1 F1500 E163.00401
;MESH:CHEP_bed_level_print.stl
G0 F6000 X54.335 Y55.02
G0 X55.02 Y55.02
G0 X55.3 Y164.7
M204 S500
;TYPE:WALL-OUTER
G1 F1500 E167.00401
G1 F1020 X164.7 Y164.7 E172.7349
G1 X164.7 Y55.3 E178.46579
G1 X55.3 Y55.3 E184.19668
G1 X55.3 Y164.7 E189.92756
M204 S1000
G0 F6000 X55.5 Y164.7
G1 F1500 E185.92756
G0 F6000 X164.8 Y164.8
M204 S500
G1 F1500 E189.92756
G1 F1020 X55.2 Y164.8 E195.66893
G1 X55.2 Y55.2 E201.41029
G1 X164.8 Y55.2 E207.15166
G1 X164.8 Y164.8 E212.89302
M204 S1000
G0 F6000 X164.6 Y164.8
G0 X164.782 Y164.782
G1 F1500 E208.89302
G0 F6000 X65.3 Y164.5
G0 X65.3 Y163.835
G0 X65.3 Y155.665
G0 X65.3 Y154.98
G0 X65.3 Y154.7
M204 S500
G1 F1500 E212.89302
G1 F1020 X154.7 Y154.7 E217.57621
G1 X154.7 Y65.3 E222.25941
G1 X65.3 Y65.3 E226.9426
G1 X65.3 Y154.7 E231.62579
M204 S1000
G0 F6000 X65.5 Y154.7
G1 F1500 E227.62579
G0 F6000 X154.8 Y154.8
M204 S500
G1 F1500 E231.62579
G1 F1020 X65.2 Y154.8 E236.31946
G1 X65.2 Y65.2 E241.01313
G1 X154.8 Y65.2 E245.7068
G1 X154.8 Y154.8 E250.40048
M204 S1000
G0 F6000 X154.6 Y154.8
G0 X154.782 Y154.782
G1 F1500 E246.40048
G0 F6000 X75.3 Y154.5
G0 X75.3 Y153.835
G0 X75.3 Y145.665
G0 X75.3 Y144.98
G0 X75.3 Y144.7
M204 S500
G1 F1500 E250.40048
G1 F1020 X144.7 Y144.7 E254.03597
G1 X144.7 Y75.3 E257.67147
G1 X75.3 Y75.3 E261.30697
G1 X75.3 Y144.7 E264.94247
M204 S1000
G0 F6000 X75.5 Y144.7
G1 F1500 E260.94247
G0 F6000 X144.8 Y144.8
M204 S500
G1 F1500 E264.94247
G1 F1020 X75.2 Y144.8 E268.58845
G1 X75.2 Y75.2 E272.23442
G1 X144.8 Y75.2 E275.8804
G1 X144.8 Y144.8 E279.52638
M204 S1000
G0 F6000 X144.6 Y144.8
G0 X144.782 Y144.782
G1 F1500 E275.52638
G0 F6000 X85.3 Y144.5
G0 X85.3 Y143.835
G0 X85.3 Y135.665
G0 X85.3 Y134.98
G0 X85.3 Y134.7
M204 S500
G1 F1500 E279.52638
G1 F1020 X134.7 Y134.7 E282.11418
G1 X134.7 Y85.3 E284.70199
G1 X85.3 Y85.3 E287.28979
G1 X85.3 Y134.7 E289.87759
M204 S1000
G0 F6000 X85.5 Y134.7
G1 F1500 E285.87759
G0 F6000 X134.8 Y134.8
M204 S500
G1 F1500 E289.87759
G1 F1020 X85.2 Y134.8 E292.47588
G1 X85.2 Y85.2 E295.07416
G1 X134.8 Y85.2 E297.67244
G1 X134.8 Y134.8 E300.27072
M204 S1000
G0 F6000 X134.6 Y134.8
G0 X134.782 Y134.782
G1 F1500 E296.27072
G0 F6000 X95.3 Y134.5
G0 X95.3 Y133.835
G0 X95.3 Y125.665
G0 X95.3 Y124.98
G0 X95.3 Y124.7
M204 S500
G1 F1500 E300.27072
G1 F1020 X124.7 Y124.7 E301.81083
G1 X124.7 Y95.3 E303.35094
G1 X95.3 Y95.3 E304.89105
G1 X95.3 Y124.7 E306.43116
M204 S1000
G0 F6000 X95.5 Y124.7
G1 F1500 E302.43116
G0 F6000 X124.8 Y124.8
M204 S500
G1 F1500 E306.43116
G1 F1020 X95.2 Y124.8 E307.98175
G1 X95.2 Y95.2 E309.53234
G1 X124.8 Y95.2 E311.08293
G1 X124.8 Y124.8 E312.63351
M204 S1000
G0 F6000 X124.6 Y124.8
G0 X124.782 Y124.782
G1 F1500 E308.63351
G0 F6000 X95.014 Y124.986
G0 X95.014 Y125.665
G0 X95.014 Y173.835
G0 X95.014 Y174.5
G0 X45.3 Y174.7
M204 S500
G1 F1500 E312.63351
G1 F1020 X174.7 Y174.7 E319.4121
G1 X174.7 Y45.3 E326.19068
G1 X45.3 Y45.3 E332.96926
G1 X45.3 Y174.7 E339.74784
M204 S1000
G0 F6000 X45.5 Y174.7
G1 F1500 E335.74784
G0 F6000 X174.8 Y174.8
M204 S500
G1 F1500 E339.74784
G1 F1020 X45.2 Y174.8 E346.5369
G1 X45.2 Y45.2 E353.32596
G1 X174.8 Y45.2 E360.11502
G1 X174.8 Y174.8 E366.90408
M204 S1000
G0 F6000 X174.6 Y174.8
G0 X174.782 Y174.782
G1 F1500 E362.90408
G0 F6000 X45.02 Y174.98
G0 X45.02 Y175.665
G0 X45.02 Y183.835
G0 X45.02 Y184.5
G0 X35.3 Y184.7
M204 S500
G1 F1500 E366.90408
G1 F1020 X184.7 Y184.7 E374.73035
G1 X184.7 Y35.3 E382.55663
G1 X35.3 Y35.3 E390.3829
G1 X35.3 Y184.7 E398.20918
M204 S1000
G0 F6000 X35.5 Y184.7
G1 F1500 E394.20918
G0 F6000 X184.8 Y184.8
M204 S500
G1 F1500 E398.20918
G1 F1020 X35.2 Y184.8 E406.04593
G1 X35.2 Y35.2 E413.88269
G1 X184.8 Y35.2 E421.71944
G1 X184.8 Y184.8 E429.55619
M204 S1000
G0 F6000 X184.6 Y184.8
G0 X184.782 Y184.782
G1 F1500 E425.55619
;MESH:NONMESH
G0 F300 X184.782 Y184.782 Z0.5
G0 F6000 X55.3 Y184.5
G0 X55.3 Y183.835
G0 X55.3 Y165.665
G0 X55.3 Y164.98
G0 X55.3 Y164.7
;TIME_ELAPSED:485.081072
;LAYER:1
M140 S58
M106 S127.5
M204 S500
;TYPE:WALL-OUTER
;MESH:CHEP_bed_level_print.stl
G1 F1500 E429.55619
G1 F1020 X164.7 Y164.7 E433.19485
G1 X164.7 Y55.3 E436.83351
G1 X55.3 Y55.3 E440.47217
G1 X55.3 Y164.7 E444.11083
M204 S1000
G0 F7500 X55.5 Y164.7
G1 F1500 E440.11083
G0 F7500 X164.8 Y164.8
M204 S500
G1 F1500 E444.11083
G1 F1020 X55.2 Y164.8 E447.75614
G1 X55.2 Y55.2 E451.40145
G1 X164.8 Y55.2 E455.04676
G1 X164.8 Y164.8 E458.69207
M204 S1000
G0 F7500 X164.6 Y164.8
G0 X164.782 Y164.782
G1 F1500 E454.69207
G0 F7500 X65.3 Y164.5
G0 X65.3 Y163.835
G0 X65.3 Y155.665
G0 X65.3 Y154.98
G0 X65.3 Y154.7
M204 S500
G1 F1500 E458.69207
G1 F1020 X154.7 Y154.7 E461.66553
G1 X154.7 Y65.3 E464.63898
G1 X65.3 Y65.3 E467.61244
G1 X65.3 Y154.7 E470.5859
M204 S1000
G0 F7500 X65.5 Y154.7
G1 F1500 E466.5859
G0 F7500 X154.8 Y154.8
M204 S500
G1 F1500 E470.5859
G1 F1020 X65.2 Y154.8 E473.566
G1 X65.2 Y65.2 E476.54611
G1 X154.8 Y65.2 E479.52622
G1 X154.8 Y154.8 E482.50633
M204 S1000
G0 F7500 X154.6 Y154.8
G0 X154.782 Y154.782
G1 F1500 E478.50633
G0 F7500 X75.3 Y154.5
G0 X75.3 Y153.835
G0 X75.3 Y145.665
G0 X75.3 Y144.98
G0 X75.3 Y144.7
M204 S500
G1 F1500 E482.50633
G1 F1020 X144.7 Y144.7 E484.81458
