;FLAVOR:Marlin
;TIME:5888
;Filament used: 4.19432m
;Layer height: 0.2
;MINX:86.15
;MINY:99.7
;MINZ:0.3
;MAXX:133.85
;MAXY:130.5
;MAXZ:20.9
;Generated with Cura_SteamEngine 4.10.0
M140 S57
M105
M190 S57
M104 S195
M105
M109 S195
M82 ;absolute extrusion mode
G28 ;Home
G1 Z15.0 F2000 ;Move the platform
G92 E0
G92 E0
G1 F1500 E-9.5
;LAYER_COUNT:105
;LAYER:0
M107
M204 S1000
G0 F6000 X89.562 Y102.11 Z0.3
;TYPE:SKIRT
G1 F1500 E0
G1 F1200 X89.763 Y101.941 E0.01349
G1 X90.035 Y101.726 E0.03131
G1 X90.305 Y101.528 E0.04852
G1 X90.5 Y101.398 E0.06056
G1 X91.027 Y101.07 E0.09246
G1 X91.38 Y100.871 E0.11328
G1 X91.52 Y100.799 E0.12137
G1 X91.825 Y100.649 E0.13884
G1 X92.068 Y100.539 E0.15254
G1 X92.508 Y100.358 E0.17699
G1 X92.879 Y100.22 E0.19733
G1 X93.26 Y100.099 E0.21787
G1 X93.497 Y100.034 E0.2305
G1 X93.892 Y99.939 E0.25138
G1 X94.121 Y99.891 E0.2634
G1 X94.372 Y99.846 E0.27651
G1 X94.803 Y99.785 E0.29887
G1 X95.034 Y99.763 E0.3108
G1 X95.579 Y99.725 E0.33887
G1 X95.72 Y99.717 E0.34613
G1 X96.103 Y99.705 E0.36582
G1 X96.536 Y99.7 E0.38807
G1 X123.348 Y99.7 E1.76586
G1 X124.217 Y99.712 E1.81052
G1 X124.422 Y99.72 E1.82106
G1 X124.867 Y99.749 E1.84398
G1 X125.233 Y99.787 E1.86288
G1 X125.447 Y99.818 E1.874
G1 X125.872 Y99.891 E1.89616
G1 X126.229 Y99.965 E1.91489
G1 X126.427 Y100.015 E1.92538
G1 X126.715 Y100.095 E1.94074
G1 X126.931 Y100.162 E1.95237
G1 X127.402 Y100.322 E1.97793
G1 X127.642 Y100.412 E1.9911
G1 X127.964 Y100.545 E2.009
G1 X128.193 Y100.648 E2.0219
G1 X128.484 Y100.793 E2.03861
G1 X128.764 Y100.941 E2.05489
G1 X129.015 Y101.085 E2.06976
G1 X129.255 Y101.235 E2.0843
G1 X129.466 Y101.377 E2.09737
G1 X129.862 Y101.661 E2.12241
G1 X129.981 Y101.749 E2.13002
G1 X130.234 Y101.945 E2.14646
G1 X130.605 Y102.261 E2.1715
G1 X130.76 Y102.404 E2.18234
G1 X131.015 Y102.653 E2.20066
G1 X131.189 Y102.834 E2.21356
G1 X131.44 Y103.112 E2.2328
G1 X131.609 Y103.313 E2.2463
G1 X131.824 Y103.585 E2.26412
G1 X132.022 Y103.855 E2.28132
G1 X132.152 Y104.05 E2.29336
G1 X132.48 Y104.577 E2.32526
G1 X132.679 Y104.93 E2.34609
G1 X132.751 Y105.07 E2.35418
G1 X132.901 Y105.375 E2.37164
G1 X133.01 Y105.616 E2.38523
G1 X133.186 Y106.043 E2.40897
G1 X133.328 Y106.424 E2.42986
G1 X133.405 Y106.66 E2.44262
G1 X133.484 Y106.93 E2.45707
G1 X133.539 Y107.138 E2.46813
G1 X133.614 Y107.457 E2.48497
G1 X133.654 Y107.647 E2.49495
G1 X133.701 Y107.902 E2.50827
G1 X133.764 Y108.349 E2.53147
G1 X133.787 Y108.583 E2.54355
G1 X133.833 Y109.27 E2.57893
G1 X133.845 Y109.652 E2.59857
G1 X133.85 Y110.086 E2.62087
G1 X133.85 Y125.668 E3.42158
G1 X133.84 Y126.4 E3.4592
G1 X133.792 Y126.963 E3.48824
G1 X133.665 Y127.514 E3.5173
G1 X133.462 Y128.042 E3.54636
G1 X133.187 Y128.535 E3.57537
G1 X132.688 Y129.154 E3.61623
G1 X132.546 Y129.298 E3.62662
G1 X132.122 Y129.671 E3.65564
G1 X131.649 Y129.981 E3.6847
G1 X131.137 Y130.221 E3.71376
G1 X130.597 Y130.387 E3.74279
G1 X129.857 Y130.486 E3.78116
G1 X129.596 Y130.495 E3.79458
G1 X129.187 Y130.5 E3.81559
G1 X90.95 Y130.5 E5.78048
G1 X90.249 Y130.49 E5.8165
G1 X89.686 Y130.442 E5.84554
G1 X89.135 Y130.315 E5.87459
G1 X88.607 Y130.111 E5.90368
G1 X88.114 Y129.836 E5.93269
G1 X87.507 Y129.348 E5.97271
G1 X87.362 Y129.206 E5.98314
G1 X86.987 Y128.783 E6.01219
G1 X86.676 Y128.311 E6.04124
G1 X86.434 Y127.8 E6.07029
G1 X86.266 Y127.26 E6.09935
G1 X86.165 Y126.524 E6.13753
G1 X86.154 Y126.225 E6.1529
G1 X86.15 Y125.785 E6.17551
G1 X86.15 Y110.202 E6.97627
G1 X86.162 Y109.333 E7.02093
G1 X86.17 Y109.128 E7.03148
G1 X86.199 Y108.683 E7.05439
G1 X86.237 Y108.317 E7.0733
G1 X86.268 Y108.103 E7.08441
G1 X86.341 Y107.678 E7.10657
G1 X86.415 Y107.321 E7.12531
G1 X86.465 Y107.123 E7.1358
G1 X86.545 Y106.835 E7.15116
G1 X86.612 Y106.619 E7.16278
G1 X86.772 Y106.148 E7.18834
G1 X86.862 Y105.908 E7.20151
G1 X86.995 Y105.586 E7.21942
G1 X87.098 Y105.357 E7.23232
G1 X87.243 Y105.066 E7.24903
G1 X87.391 Y104.786 E7.2653
G1 X87.533 Y104.539 E7.27994
G1 X87.682 Y104.3 E7.29442
G1 X87.827 Y104.083 E7.30783
G1 X88.112 Y103.686 E7.33294
G1 X88.199 Y103.569 E7.34043
G1 X88.395 Y103.316 E7.35688
G1 X88.558 Y103.12 E7.36998
G1 X88.859 Y102.785 E7.39312
G1 X89.102 Y102.536 E7.411
G1 X89.284 Y102.361 E7.42397
G1 X89.562 Y102.11 E7.44322
G0 F6000 X89.83 Y102.407
G1 F1200 X90.011 Y102.255 E7.45537
G1 X90.283 Y102.04 E7.47318
G1 X90.536 Y101.855 E7.48929
G1 X90.712 Y101.738 E7.50015
G1 X91.239 Y101.41 E7.53205
G1 X91.57 Y101.223 E7.55158
G1 X91.696 Y101.158 E7.55887
G1 X92.001 Y101.008 E7.57633
G1 X92.22 Y100.909 E7.58868
G1 X92.66 Y100.728 E7.61313
G1 X93.015 Y100.596 E7.63259
G1 X93.377 Y100.481 E7.65211
G1 X93.59 Y100.423 E7.66346
G1 X93.985 Y100.328 E7.68433
G1 X94.192 Y100.284 E7.69521
G1 X94.443 Y100.239 E7.70831
G1 X94.854 Y100.182 E7.72963
G1 X95.062 Y100.162 E7.74037
G1 X95.607 Y100.124 E7.76845
G1 X95.734 Y100.117 E7.77498
G1 X96.107 Y100.105 E7.79416
G1 X96.54 Y100.1 E7.81641
G1 X123.343 Y100.1 E9.19373
G1 X124.212 Y100.112 E9.23839
G1 X124.396 Y100.12 E9.24786
G1 X124.841 Y100.149 E9.27077
G1 X125.187 Y100.184 E9.28864
G1 X125.379 Y100.212 E9.29861
G1 X125.804 Y100.285 E9.32077
G1 X126.142 Y100.356 E9.33852
G1 X126.32 Y100.4 E9.34794
G1 X126.608 Y100.48 E9.3633
G1 X126.802 Y100.54 E9.37374
G1 X127.273 Y100.7 E9.3993
G1 X127.489 Y100.782 E9.41117
G1 X127.811 Y100.915 E9.42908
G1 X128.196 Y101.095 E9.45091
G1 X128.297 Y101.146 E9.45673
G1 X128.577 Y101.294 E9.473
G1 X128.803 Y101.424 E9.4864
G1 X129.043 Y101.574 E9.50094
G1 X129.233 Y101.702 E9.51272
G1 X129.629 Y101.986 E9.53776
G1 X129.736 Y102.065 E9.54459
G1 X129.989 Y102.261 E9.56104
G1 X130.341 Y102.561 E9.58481
G1 X130.48 Y102.69 E9.59455
G1 X130.735 Y102.939 E9.61286
G1 X130.892 Y103.102 E9.62449
G1 X131.143 Y103.38 E9.64374
G1 X131.295 Y103.561 E9.65589
G1 X131.51 Y103.833 E9.6737
G1 X131.695 Y104.086 E9.68981
G1 X131.812 Y104.262 E9.70067
G1 X132.14 Y104.789 E9.73257
G1 X132.327 Y105.12 E9.7521
G1 X132.392 Y105.246 E9.75939
G1 X132.542 Y105.551 E9.77685
G1 X132.64 Y105.768 E9.78909
G1 X132.816 Y106.195 E9.81282
G1 X132.952 Y106.56 E9.83284
G1 X133.021 Y106.772 E9.84429
G1 X133.1 Y107.042 E9.85875
G1 X133.149 Y107.229 E9.86868
G1 X133.224 Y107.548 E9.88552
G1 X133.26 Y107.719 E9.8945
G1 X133.307 Y107.974 E9.90783
G1 X133.368 Y108.4 E9.92994
G1 X133.388 Y108.611 E9.94083
G1 X133.433 Y109.283 E9.97544
G1 X133.445 Y109.657 E9.99467
G1 X133.45 Y110.091 E10.01698
G1 X133.45 Y125.662 E10.81712
G1 X133.44 Y126.394 E10.85474
G1 X133.392 Y126.928 E10.88229
G1 X133.266 Y127.45 E10.90989
G1 X133.064 Y127.946 E10.93741
G1 X132.791 Y128.408 E10.96498
G1 X132.403 Y128.873 E10.9961
G1 X132.261 Y129.017 E11.00649
G1 X131.857 Y129.369 E11.03403
G1 X131.406 Y129.658 E11.06155
G1 X130.916 Y129.877 E11.08913
G1 X130.399 Y130.02 E11.1167
G1 X129.841 Y130.086 E11.14557
G1 X129.591 Y130.095 E11.15843
G1 X129.182 Y130.1 E11.17945
G1 X90.956 Y130.1 E13.14376
G1 X90.255 Y130.09 E13.17979
G1 X89.72 Y130.042 E13.20739
G1 X89.199 Y129.916 E13.23494
G1 X88.703 Y129.713 E13.26248
G1 X88.242 Y129.439 E13.29003
G1 X87.787 Y129.062 E13.3204
G1 X87.642 Y128.92 E13.33083
G1 X87.288 Y128.517 E13.35839
G1 X86.998 Y128.066 E13.38594
G1 X86.777 Y127.577 E13.41352
G1 X86.632 Y127.061 E13.44106
G1 X86.564 Y126.506 E13.46979
G1 X86.554 Y126.222 E13.4844
G1 X86.55 Y125.782 E13.50701
G1 X86.55 Y110.207 E14.30736
G1 X86.562 Y109.338 E14.35202
G1 X86.57 Y109.154 E14.36148
G1 X86.599 Y108.709 E14.3844
G1 X86.634 Y108.363 E14.40227
G1 X86.662 Y108.171 E14.41224
G1 X86.735 Y107.746 E14.4344
G1 X86.806 Y107.408 E14.45215
G1 X86.85 Y107.23 E14.46157
G1 X86.93 Y106.942 E14.47693
G1 X86.99 Y106.748 E14.48736
G1 X87.15 Y106.277 E14.51293
G1 X87.232 Y106.061 E14.5248
G1 X87.365 Y105.739 E14.5427
G1 X87.545 Y105.354 E14.56454
G1 X87.596 Y105.253 E14.57035
G1 X87.744 Y104.973 E14.58663
G1 X87.872 Y104.75 E14.59984
G1 X88.021 Y104.511 E14.61431
G1 X88.152 Y104.317 E14.62634
G1 X88.515 Y103.814 E14.65822
G1 X88.711 Y103.561 E14.67467
G1 X89.023 Y103.197 E14.6993
G1 X89.146 Y103.065 E14.70857
G1 X89.389 Y102.816 E14.72645
G1 X89.552 Y102.658 E14.73812
G1 X89.83 Y102.407 E14.75736
G0 F6000 X90.099 Y102.704
G1 F1200 X90.259 Y102.569 E14.76812
G1 X90.531 Y102.354 E14.78594
G1 X90.767 Y102.181 E14.80097
G1 X90.923 Y102.077 E14.81061
G1 X91.45 Y101.749 E14.84251
G1 X91.761 Y101.574 E14.86084
G1 X91.873 Y101.516 E14.86733
G1 X92.178 Y101.366 E14.88479
G1 X92.373 Y101.279 E14.89576
G1 X92.813 Y101.098 E14.92021
G1 X93.15 Y100.973 E14.93868
G1 X93.494 Y100.864 E14.95723
G1 X93.684 Y100.812 E14.96735
G1 X94.079 Y100.717 E14.98822
G1 X94.262 Y100.678 E14.99784
G1 X94.513 Y100.633 E15.01094
G1 X94.905 Y100.579 E15.03128
G1 X95.089 Y100.561 E15.04078
G1 X95.634 Y100.523 E15.06885
G1 X95.747 Y100.517 E15.07467
G1 X96.112 Y100.505 E15.09343
G1 X96.545 Y100.5 E15.11568
G1 X123.337 Y100.5 E16.49244
G1 X124.206 Y100.512 E16.5371
G1 X124.37 Y100.519 E16.54554
G1 X124.815 Y100.548 E16.56845
G1 X125.14 Y100.582 E16.58525
G1 X125.312 Y100.606 E16.59417
G1 X125.737 Y100.679 E16.61633
G1 X126.054 Y100.746 E16.63298
G1 X126.212 Y100.786 E16.64135
G1 X126.5 Y100.866 E16.65671
G1 X126.673 Y100.919 E16.66601
G1 X127.144 Y101.079 E16.69157
G1 X127.337 Y101.151 E16.70216
G1 X127.659 Y101.284 E16.72006
G1 X128.02 Y101.454 E16.74057
G1 X128.39 Y101.648 E16.76203
G1 X128.591 Y101.763 E16.77393
G1 X128.831 Y101.913 E16.78848
G1 X129 Y102.027 E16.79895
G1 X129.491 Y102.381 E16.83006
G1 X129.744 Y102.577 E16.8465
G1 X130.077 Y102.862 E16.86903
G1 X130.201 Y102.976 E16.87768
G1 X130.456 Y103.225 E16.896
G1 X130.595 Y103.371 E16.90636
G1 X130.846 Y103.649 E16.9256
G1 X130.981 Y103.809 E16.93636
G1 X131.196 Y104.081 E16.95418
G1 X131.369 Y104.317 E16.96921
G1 X131.473 Y104.473 E16.97885
G1 X131.801 Y105 E17.01074
G1 X131.976 Y105.311 E17.02908
G1 X132.034 Y105.423 E17.03556
G1 X132.184 Y105.728 E17.05303
G1 X132.271 Y105.921 E17.06391
G1 X132.447 Y106.348 E17.08764
G1 X132.576 Y106.696 E17.10671
G1 X132.637 Y106.884 E17.11687
G1 X132.716 Y107.154 E17.13133
G1 X132.76 Y107.321 E17.1402
G1 X132.835 Y107.64 E17.15704
G1 X132.867 Y107.792 E17.16502
G1 X132.914 Y108.047 E17.17835
G1 X132.971 Y108.451 E17.19931
G1 X132.989 Y108.638 E17.20897
G1 X133.027 Y109.185 E17.23714
G1 X133.033 Y109.297 E17.24291
G1 X133.045 Y109.661 E17.26162
G1 X133.05 Y110.095 E17.28392
G1 X133.05 Y125.657 E18.08361
G1 X133.04 Y126.389 E18.12123
G1 X132.993 Y126.892 E18.14719
G1 X132.867 Y127.382 E18.17318
G1 X132.666 Y127.846 E18.19917
G1 X132.395 Y128.272 E18.22511
G1 X132.119 Y128.592 E18.24683
G1 X131.977 Y128.736 E18.25722
G1 X131.594 Y129.067 E18.28323
G1 X131.165 Y129.333 E18.30917
G1 X130.698 Y129.529 E18.3352
G1 X130.207 Y129.648 E18.36116
G1 X129.825 Y129.686 E18.38089
G1 X129.586 Y129.695 E18.39318
G1 X129.177 Y129.7 E18.4142
G1 X90.961 Y129.7 E20.378
G1 X90.26 Y129.69 E20.41402
G1 X89.757 Y129.643 E20.43998
G1 X89.267 Y129.517 E20.46598
G1 X88.804 Y129.315 E20.49194
G1 X88.377 Y129.043 E20.51796
G1 X88.067 Y128.776 E20.53898
G1 X87.922 Y128.634 E20.54941
G1 X87.59 Y128.253 E20.57538
G1 X87.322 Y127.824 E20.60137
G1 X87.125 Y127.359 E20.62732
G1 X87.004 Y126.868 E20.65331
G1 X86.964 Y126.489 E20.67289
G1 X86.954 Y126.218 E20.68683
G1 X86.95 Y125.778 E20.70944
G1 X86.95 Y110.213 E21.50928
G1 X86.962 Y109.344 E21.55394
G1 X86.969 Y109.18 E21.56237
G1 X86.998 Y108.735 E21.58529
G1 X87.032 Y108.41 E21.60208
G1 X87.056 Y108.238 E21.611
G1 X87.129 Y107.813 E21.63316
G1 X87.196 Y107.496 E21.64981
G1 X87.236 Y107.338 E21.65819
G1 X87.316 Y107.05 E21.67355
G1 X87.369 Y106.877 E21.68284
G1 X87.529 Y106.406 E21.70841
G1 X87.601 Y106.213 E21.71899
G1 X87.734 Y105.891 E21.73689
G1 X87.904 Y105.53 E21.7574
G1 X88.098 Y105.16 E21.77887
G1 X88.211 Y104.962 E21.79058
G1 X88.36 Y104.723 E21.80505
G1 X88.476 Y104.55 E21.81576
G1 X88.761 Y104.153 E21.84087
G1 X88.831 Y104.059 E21.84689
G1 X89.027 Y103.806 E21.86334
G1 X89.323 Y103.462 E21.88666
G1 X89.432 Y103.344 E21.89491
G1 X89.675 Y103.095 E21.91279
G1 X89.821 Y102.955 E21.92319
G1 X90.099 Y102.704 E21.94243
G1 F1500 E12.44243
;MESH:Y-Belt-Holder_A6Ext_V2_PP.stl(1)
G0 F6000 X93.134 Y103.704
G0 X93.943 Y104.743
G0 X128.85 Y125.5
;TYPE:WALL-INNER
G1 F1500 E21.94243
G1 F1200 X91.15 Y125.5 E23.87972
G1 X91.15 Y109.598 E24.69687
G1 X91.176 Y109.047 E24.72522
G1 X91.249 Y108.578 E24.74961
G1 X91.377 Y108.086 E24.77573
G1 X91.539 Y107.65 E24.79964
G1 X91.651 Y107.413 E24.81311
G1 X91.885 Y106.99 E24.83795
G1 X92.156 Y106.599 E24.86239
G1 X92.331 Y106.382 E24.87672
G1 X92.655 Y106.04 E24.90093
G1 X92.847 Y105.868 E24.91417
G1 X93.046 Y105.706 E24.92736
G1 X93.427 Y105.443 E24.95115
G1 X93.669 Y105.299 E24.96562
G1 X93.85 Y105.205 E24.9761
G1 X94.088 Y105.094 E24.9896
G1 X94.326 Y105.002 E25.00271
G1 X94.547 Y104.924 E25.01475
G1 X94.794 Y104.857 E25.0279
G1 X95.018 Y104.801 E25.03977
G1 X95.272 Y104.76 E25.05299
G1 X95.512 Y104.726 E25.06544
G1 X96.012 Y104.7 E25.09117
G1 X123.952 Y104.7 E26.52692
G1 X124.505 Y104.726 E26.55537
G1 X124.968 Y104.797 E26.57944
G1 X125.462 Y104.927 E26.60569
G1 X125.673 Y105.003 E26.61722
G1 X125.913 Y105.094 E26.6304
G1 X126.357 Y105.311 E26.6558
G1 X126.755 Y105.56 E26.67992
G1 X126.951 Y105.706 E26.69248
G1 X127.172 Y105.884 E26.70707
G1 X127.507 Y106.202 E26.7308
G1 X127.82 Y106.566 E26.75547
G1 X127.983 Y106.786 E26.76954
G1 X128.234 Y107.187 E26.79385
G1 X128.351 Y107.414 E26.80697
G1 X128.54 Y107.854 E26.83158
G1 X128.626 Y108.097 E26.84483
G1 X128.689 Y108.326 E26.85703
G1 X128.75 Y108.573 E26.87011
G1 X128.788 Y108.809 E26.88239
G1 X128.824 Y109.061 E26.89547
G1 X128.85 Y109.56 E26.92115
G1 X128.85 Y125.5 E27.74025
G0 F6000 X129.25 Y125.9
G1 F1200 X90.75 Y125.9 E29.71865
G1 X90.75 Y109.579 E30.55734
G1 X90.777 Y109.012 E30.58651
G1 X90.857 Y108.498 E30.61324
G1 X90.994 Y107.97 E30.64127
G1 X91.079 Y107.735 E30.65411
G1 X91.172 Y107.49 E30.66758
G1 X91.293 Y107.234 E30.68213
G1 X91.406 Y107.008 E30.69511
G1 X91.548 Y106.774 E30.70918
G1 X91.682 Y106.565 E30.72193
G1 X91.844 Y106.348 E30.73585
G1 X92.022 Y106.127 E30.75043
G1 X92.205 Y105.926 E30.7644
G1 X92.373 Y105.756 E30.77668
G1 X92.583 Y105.567 E30.7912
G1 X92.793 Y105.396 E30.80512
G1 X92.998 Y105.244 E30.81823
G1 X93.222 Y105.099 E30.83194
G1 X93.464 Y104.955 E30.84641
G1 X93.666 Y104.851 E30.85809
G1 X93.681 Y104.843 E30.85896
G1 X93.936 Y104.724 E30.87342
G1 X94.182 Y104.629 E30.88697
G1 X94.431 Y104.541 E30.90054
G1 X94.689 Y104.471 E30.91428
G1 X94.921 Y104.414 E30.92656
G1 X94.943 Y104.408 E30.92773
G1 X95.208 Y104.365 E30.94152
G1 X95.469 Y104.328 E30.95507
G1 X96.01 Y104.3 E30.98291
G1 X123.971 Y104.3 E32.41974
G1 X124.538 Y104.327 E32.44891
G1 X125.052 Y104.406 E32.47563
G1 X125.579 Y104.544 E32.50362
G1 X125.815 Y104.629 E32.51651
G1 X126.063 Y104.723 E32.53014
G1 X126.316 Y104.843 E32.54453
G1 X126.55 Y104.961 E32.558
G1 X126.776 Y105.098 E32.57158
G1 X126.982 Y105.23 E32.58415
G1 X127.202 Y105.394 E32.59825
G1 X127.423 Y105.572 E32.61283
G1 X127.624 Y105.755 E32.6268
G1 X127.794 Y105.923 E32.63908
G1 X127.978 Y106.127 E32.6532
G1 X128.142 Y106.328 E32.66653
G1 X128.31 Y106.555 E32.68104
G1 X128.452 Y106.772 E32.69437
G1 X128.59 Y107.004 E32.70824
G1 X128.707 Y107.231 E32.72136
G1 X128.826 Y107.486 E32.73582
G1 X128.917 Y107.721 E32.74877
G1 X129.009 Y107.981 E32.76295
G1 X129.077 Y108.23 E32.77621
G1 X129.143 Y108.497 E32.79034
G1 X129.184 Y108.752 E32.80362
G1 X129.222 Y109.016 E32.81732
G1 X129.248 Y109.539 E32.84423
G1 X129.25 Y109.56 E32.84531
G1 X129.25 Y125.9 E33.68498
G0 F6000 X129.618 Y126.3
;TYPE:WALL-OUTER
G1 F1200 X90.382 Y126.3 E35.70119
G1 X90.35 Y126.268 E35.70352
G1 X90.35 Y109.56 E36.56209
G1 X90.378 Y108.979 E36.59198
G1 X90.465 Y108.414 E36.62136
G1 X90.612 Y107.849 E36.65136
G1 X90.705 Y107.593 E36.66535
G1 X90.805 Y107.33 E36.67981
G1 X90.931 Y107.063 E36.69498
G1 X91.056 Y106.815 E36.70925
G1 X91.206 Y106.567 E36.72415
G1 X91.361 Y106.326 E36.73887
G1 X91.532 Y106.097 E36.75356
G1 X91.71 Y105.876 E36.76814
G1 X91.909 Y105.657 E36.78335
G1 X92.105 Y105.459 E36.79766
G1 X92.324 Y105.262 E36.8128
G1 X92.54 Y105.086 E36.82712
G1 X92.771 Y104.915 E36.84189
G1 X93.017 Y104.755 E36.85697
G1 X93.259 Y104.611 E36.87144
