;FLAVOR:Marlin
;TIME:9006
;Filament used: 10.6343m
;Layer height: 0.3
;MINX:66.7
;MINY:29.079
;MINZ:0.3
;MAXX:153.3
;MAXY:190.921
;MAXZ:20.1
;Generated with Cura_SteamEngine 4.10.0
M140 S65
M105
M190 S65
M104 S205
M105
M109 S205
M82 ;absolute extrusion mode
G28 ;Home
G1 Z15.0 F2000 ;Move the platform
G92 E0
G92 E0
G1 F1500 E-6.5
;LAYER_COUNT:67
;LAYER:0
M107
M204 S1000
G0 F7500 X85.831 Y38.487 Z0.3
;TYPE:SKIRT
G1 F1500 E0
G1 X86.179 Y37.778 E0.0394
G1 X86.597 Y37.107 E0.07884
G1 X87.08 Y36.483 E0.11821
G1 X87.623 Y35.91 E0.1576
G1 X88.222 Y35.395 E0.19701
G1 X88.87 Y34.944 E0.2364
G1 X89.242 Y34.726 E0.25791
G1 X90.537 Y34.014 E0.33164
G1 X90.828 Y33.862 E0.34801
G1 X92.142 Y33.21 E0.4212
G1 X92.44 Y33.07 E0.43762
G1 X93.778 Y32.475 E0.51068
G1 X94.079 Y32.349 E0.52696
G1 X95.442 Y31.81 E0.60008
G1 X95.745 Y31.697 E0.61622
G1 X97.129 Y31.215 E0.68933
G1 X97.445 Y31.112 E0.70591
G1 X98.85 Y30.689 E0.77912
G1 X99.162 Y30.602 E0.79528
G1 X100.582 Y30.238 E0.86841
G1 X100.895 Y30.165 E0.88445
G1 X102.328 Y29.86 E0.95754
G1 X102.659 Y29.797 E0.97435
G1 X104.105 Y29.554 E1.0475
G1 X104.42 Y29.508 E1.06339
G1 X105.876 Y29.324 E1.1366
G1 X106.204 Y29.289 E1.15306
G1 X107.663 Y29.167 E1.2261
G1 X107.989 Y29.147 E1.2424
G1 X109.455 Y29.086 E1.3156
G1 X109.779 Y29.079 E1.33177
G1 X111.244 Y29.079 E1.40486
G1 X111.574 Y29.086 E1.42133
G1 X113.039 Y29.148 E1.49448
G1 X113.364 Y29.169 E1.51073
G1 X114.823 Y29.292 E1.58378
G1 X115.151 Y29.326 E1.60023
G1 X116.607 Y29.511 E1.67345
G1 X116.924 Y29.558 E1.68944
G1 X118.368 Y29.802 E1.7625
G1 X118.691 Y29.864 E1.77891
G1 X120.125 Y30.169 E1.85205
G1 X120.448 Y30.245 E1.86861
G1 X121.869 Y30.611 E1.94182
G1 X122.175 Y30.696 E1.95766
G1 X123.578 Y31.119 E2.03077
G1 X123.896 Y31.223 E2.04746
G1 X125.28 Y31.706 E2.12059
G1 X125.583 Y31.818 E2.13671
G1 X126.946 Y32.358 E2.20985
G1 X127.251 Y32.487 E2.22637
G1 X128.589 Y33.084 E2.29947
G1 X128.88 Y33.221 E2.31552
G1 X130.193 Y33.873 E2.38865
G1 X130.478 Y34.022 E2.4047
G1 X131.764 Y34.728 E2.47789
G1 X132.059 Y34.898 E2.49488
G1 X133.312 Y35.659 E2.56802
G1 X133.577 Y35.828 E2.5837
G1 X134.797 Y36.638 E2.65676
G1 X135.076 Y36.832 E2.67371
G1 X136.262 Y37.696 E2.74692
G1 X136.511 Y37.885 E2.76251
G1 X137.659 Y38.794 E2.83557
G1 X137.914 Y39.004 E2.85205
G1 X139.025 Y39.963 E2.92527
G1 X139.269 Y40.184 E2.94169
G1 X140.329 Y41.18 E3.01426
G1 X140.562 Y41.407 E3.03049
G1 X141.588 Y42.455 E3.10366
G1 X141.809 Y42.691 E3.11979
G1 X142.79 Y43.78 E3.19291
G1 X143.007 Y44.032 E3.2095
G1 X143.941 Y45.162 E3.28264
G1 X144.14 Y45.413 E3.29863
G1 X145.028 Y46.582 E3.37187
G1 X145.223 Y46.85 E3.3884
G1 X146.058 Y48.052 E3.46142
G1 X146.235 Y48.319 E3.4774
G1 X147.021 Y49.556 E3.55052
G1 X147.195 Y49.842 E3.56722
G1 X147.928 Y51.113 E3.64042
G1 X148.084 Y51.397 E3.65659
G1 X148.763 Y52.696 E3.72971
G1 X148.908 Y52.988 E3.74598
G1 X149.532 Y54.314 E3.81909
G1 X149.666 Y54.616 E3.83558
G1 X150.233 Y55.967 E3.90867
G1 X150.351 Y56.264 E3.92462
G1 X150.863 Y57.639 E3.99782
G1 X150.97 Y57.947 E4.01408
G1 X151.424 Y59.342 E4.08727
G1 X151.521 Y59.663 E4.104
G1 X151.914 Y61.074 E4.17708
G1 X151.994 Y61.388 E4.19324
G1 X152.328 Y62.814 E4.26631
G1 X152.395 Y63.126 E4.28223
G1 X152.671 Y64.567 E4.35543
G1 X152.726 Y64.894 E4.37198
G1 X152.94 Y66.343 E4.44505
G1 X152.981 Y66.67 E4.46149
G1 X153.134 Y68.129 E4.53468
G1 X153.162 Y68.452 E4.55086
G1 X153.254 Y69.915 E4.62399
G1 X153.267 Y70.24 E4.64022
G1 X153.3 Y71.871 E4.7216
G1 X153.3 Y90.131 E5.6326
G1 X153.26 Y90.92 E5.67201
G1 X153.141 Y91.7 E5.71138
G1 X152.943 Y92.465 E5.7508
G1 X152.669 Y93.205 E5.79017
G1 X152.321 Y93.914 E5.82957
G1 X151.903 Y94.585 E5.86901
G1 X151.42 Y95.209 E5.90838
G1 X150.877 Y95.782 E5.94777
G1 X150.278 Y96.297 E5.98718
G1 X149.63 Y96.748 E6.02657
G1 X148.939 Y97.132 E6.06601
G1 X148.214 Y97.444 E6.10538
G1 X147.461 Y97.681 E6.14477
G1 X146.687 Y97.84 E6.18419
G1 X145.902 Y97.921 E6.22356
G1 X145.499 Y97.931 E6.24367
G1 X136.749 Y97.93 E6.68021
G1 X135.96 Y97.89 E6.71963
G1 X135.18 Y97.77 E6.759
G1 X134.415 Y97.572 E6.79842
G1 X133.675 Y97.298 E6.83779
G1 X132.966 Y96.951 E6.87717
G1 X132.296 Y96.533 E6.91657
G1 X131.671 Y96.05 E6.95598
G1 X131.098 Y95.506 E6.99539
G1 X130.584 Y94.907 E7.03477
G1 X130.132 Y94.259 E7.07419
G1 X129.749 Y93.569 E7.11356
G1 X129.437 Y92.843 E7.15298
G1 X129.2 Y92.09 E7.19237
G1 X129.041 Y91.316 E7.23179
G1 X128.96 Y90.531 E7.27116
G1 X128.95 Y90.13 E7.29117
G1 X128.95 Y89.432 E7.326
G1 X128.941 Y88.982 E7.34845
G1 X128.914 Y88.551 E7.37
G1 X128.871 Y88.151 E7.39007
G1 X128.815 Y87.766 E7.40948
G1 X128.74 Y87.373 E7.42944
G1 X128.64 Y86.948 E7.45122
G1 X128.536 Y86.575 E7.47054
G1 X128.403 Y86.165 E7.49204
G1 X128.275 Y85.819 E7.51045
G1 X128.109 Y85.424 E7.53183
G1 X127.937 Y85.059 E7.55196
G1 X127.744 Y84.691 E7.57269
G1 X127.551 Y84.358 E7.59189
G1 X127.326 Y84.003 E7.61286
G1 X127.085 Y83.656 E7.63394
G1 X126.859 Y83.357 E7.65264
G1 X126.592 Y83.035 E7.6735
G1 X126.313 Y82.725 E7.69431
G1 X126.024 Y82.429 E7.71495
G1 X125.745 Y82.169 E7.73398
G1 X125.44 Y81.906 E7.75407
G1 X125.108 Y81.643 E7.7752
G1 X124.78 Y81.404 E7.79545
G1 X124.459 Y81.19 E7.8147
G1 X124.076 Y80.961 E7.83696
G1 X123.739 Y80.775 E7.85616
G1 X123.389 Y80.6 E7.87568
G1 X122.989 Y80.423 E7.89751
G1 X122.617 Y80.274 E7.9175
G1 X122.263 Y80.153 E7.93616
G1 X121.846 Y80.028 E7.95788
G1 X121.452 Y79.927 E7.97818
G1 X121.056 Y79.841 E7.99839
G1 X120.669 Y79.778 E8.01795
G1 X120.252 Y79.725 E8.03893
G1 X120.205 Y79.721 E8.04128
G1 X118.294 Y79.721 E8.13662
G1 X118.233 Y79.726 E8.13967
G1 X117.825 Y79.778 E8.16019
G1 X117.442 Y79.843 E8.17957
G1 X117.02 Y79.933 E8.2011
G1 X116.644 Y80.029 E8.22046
G1 X116.247 Y80.149 E8.24115
G1 X115.854 Y80.287 E8.26193
G1 X115.495 Y80.429 E8.28119
G1 X115.11 Y80.601 E8.30223
G1 X114.748 Y80.78 E8.32238
G1 X114.426 Y80.958 E8.34073
G1 X114.032 Y81.197 E8.36373
G1 X113.719 Y81.405 E8.38247
G1 X113.387 Y81.647 E8.40297
G1 X113.063 Y81.903 E8.42357
G1 X112.755 Y82.17 E8.44391
G1 X112.467 Y82.44 E8.4636
G1 X112.189 Y82.724 E8.48343
G1 X111.903 Y83.042 E8.50477
G1 X111.64 Y83.359 E8.52532
G1 X111.409 Y83.664 E8.54441
G1 X111.18 Y83.994 E8.56445
G1 X110.951 Y84.353 E8.58569
G1 X110.749 Y84.704 E8.60589
G1 X110.566 Y85.054 E8.6256
G1 X110.386 Y85.436 E8.64667
G1 X110.232 Y85.801 E8.66643
G1 X110.091 Y86.181 E8.68665
G1 X109.97 Y86.555 E8.70626
G1 X109.854 Y86.971 E8.72781
G1 X109.759 Y87.374 E8.74847
G1 X109.687 Y87.749 E8.76752
G1 X109.628 Y88.156 E8.78803
G1 X109.586 Y88.552 E8.8079
G1 X109.559 Y88.983 E8.82945
G1 X109.55 Y89.433 E8.8519
G1 X109.55 Y115.901 E10.1724
G1 X127.459 Y132.046 E11.37535
G1 X127.682 Y132.202 E11.38893
G1 X128.306 Y132.686 E11.42833
G1 X128.878 Y133.231 E11.46775
G1 X129.391 Y133.831 E11.50713
G1 X129.842 Y134.479 E11.54652
G1 X130.224 Y135.17 E11.58591
G1 X130.535 Y135.896 E11.62531
G1 X130.77 Y136.65 E11.66471
G1 X130.928 Y137.424 E11.70413
G1 X131.007 Y138.21 E11.74354
G1 X131.007 Y138.999 E11.7829
G1 X130.926 Y139.785 E11.82232
G1 X130.766 Y140.558 E11.8617
G1 X130.529 Y141.311 E11.90109
G1 X130.217 Y142.037 E11.94051
G1 X129.834 Y142.727 E11.97988
G1 X129.607 Y143.07 E12.0004
G1 X124.588 Y150.239 E12.43701
G1 X124.103 Y150.863 E12.47644
G1 X123.557 Y151.433 E12.51582
G1 X122.957 Y151.946 E12.5552
G1 X122.307 Y152.396 E12.59464
G1 X121.616 Y152.777 E12.63401
G1 X120.889 Y153.087 E12.67344
G1 X120.135 Y153.322 E12.71284
G1 X119.362 Y153.479 E12.75219
G1 X118.576 Y153.557 E12.7916
G1 X117.786 Y153.555 E12.83101
G1 X117.001 Y153.474 E12.87038
G1 X116.227 Y153.313 E12.90983
G1 X115.474 Y153.075 E12.94923
G1 X114.749 Y152.762 E12.98862
G1 X114.06 Y152.378 E13.02797
G1 X113.724 Y152.155 E13.04809
G1 X109.55 Y149.232 E13.30232
G1 X109.55 Y183.121 E14.99305
G1 X109.51 Y183.91 E15.03246
G1 X109.391 Y184.69 E15.07183
G1 X109.193 Y185.455 E15.11125
G1 X108.919 Y186.195 E15.15062
G1 X108.571 Y186.904 E15.19002
G1 X108.153 Y187.575 E15.22946
G1 X107.67 Y188.199 E15.26883
G1 X107.127 Y188.772 E15.30822
G1 X106.528 Y189.287 E15.34763
G1 X105.88 Y189.738 E15.38701
G1 X105.189 Y190.122 E15.42645
G1 X104.464 Y190.434 E15.46583
G1 X103.711 Y190.671 E15.50522
G1 X102.937 Y190.83 E15.54464
G1 X102.152 Y190.911 E15.58401
G1 X101.75 Y190.921 E15.60407
G1 X76.947 Y190.921 E16.8415
G1 X76.426 Y190.904 E16.8675
G1 X76.217 Y190.89 E16.87795
G1 X75.619 Y190.826 E16.90796
G1 X75.412 Y190.796 E16.91839
G1 X74.744 Y190.67 E16.95231
G1 X74.54 Y190.622 E16.96276
G1 X74.065 Y190.494 E16.98731
G1 X73.966 Y190.464 E16.99247
G1 X73.53 Y190.317 E17.01542
G1 X73.332 Y190.244 E17.02595
G1 X72.707 Y189.983 E17.05974
G1 X72.518 Y189.894 E17.07017
G1 X71.911 Y189.574 E17.1044
G1 X71.731 Y189.469 E17.1148
G1 X71.198 Y189.129 E17.14634
G1 X71.026 Y189.009 E17.1568
G1 X70.54 Y188.641 E17.18721
G1 X70.378 Y188.508 E17.19767
G1 X69.868 Y188.05 E17.23187
G1 X69.719 Y187.904 E17.24228
G1 X69.269 Y187.424 E17.2751
G1 X69.132 Y187.265 E17.28557
G1 X68.717 Y186.739 E17.319
G1 X68.595 Y186.57 E17.3294
G1 X68.29 Y186.116 E17.35668
G1 X68.179 Y185.937 E17.36719
G1 X67.795 Y185.24 E17.40689
G1 X67.703 Y185.051 E17.41738
G1 X67.474 Y184.534 E17.44559
G1 X67.396 Y184.339 E17.45607
G1 X67.157 Y183.649 E17.4925
G1 X67.098 Y183.449 E17.5029
G1 X66.964 Y182.93 E17.52965
G1 X66.919 Y182.727 E17.54002
G1 X66.789 Y181.961 E17.57878
G1 X66.764 Y181.751 E17.58933
G1 X66.716 Y181.168 E17.61852
G1 X66.707 Y180.961 E17.62885
G1 X66.7 Y180.621 E17.64582
G1 X66.701 Y168.018 E18.27459
G1 X66.73 Y167.347 E18.30809
G1 X66.748 Y167.139 E18.31851
G1 X66.83 Y166.499 E18.3507
G1 X66.866 Y166.288 E18.36138
G1 X67.006 Y165.637 E18.3946
G1 X67.058 Y165.437 E18.40491
G1 X67.237 Y164.845 E18.43577
G1 X67.306 Y164.646 E18.44627
G1 X67.55 Y164.03 E18.47933
G1 X67.635 Y163.839 E18.48976
G1 X67.923 Y163.257 E18.52216
G1 X68.024 Y163.073 E18.53263
G1 X68.355 Y162.525 E18.56457
G1 X68.47 Y162.351 E18.57497
G1 X68.883 Y161.784 E18.60997
G1 X69.014 Y161.62 E18.62044
G1 X69.409 Y161.162 E18.65062
G1 X69.552 Y161.009 E18.66106
G1 X70.023 Y160.547 E18.69398
G1 X70.178 Y160.407 E18.7044
G1 X70.684 Y159.986 E18.73724
G1 X70.851 Y159.859 E18.74771
G1 X71.402 Y159.477 E18.78116
G1 X71.579 Y159.365 E18.79161
G1 X72.143 Y159.04 E18.82408
G1 X72.329 Y158.943 E18.83455
G1 X72.917 Y158.667 E18.86695
G1 X73.11 Y158.586 E18.8774
G1 X73.718 Y158.36 E18.90976
G1 X73.918 Y158.295 E18.92025
G1 X74.499 Y158.131 E18.95037
G1 X74.702 Y158.082 E18.96079
G1 X75.46 Y157.938 E18.99928
G1 X75.669 Y157.909 E19.00981
G1 X76.35 Y157.845 E19.04393
G1 X76.609 Y157.832 E19.05687
G1 X77.399 Y157.832 E19.09628
G1 X78.184 Y157.912 E19.13565
G1 X78.958 Y158.072 E19.17508
G1 X79.711 Y158.308 E19.21445
G1 X80.437 Y158.62 E19.25387
G1 X81.127 Y159.003 E19.29324
G1 X81.775 Y159.455 E19.33266
G1 X82.374 Y159.969 E19.37204
G1 X82.918 Y160.541 E19.41142
G1 X83.402 Y161.166 E19.45086
G1 X83.82 Y161.836 E19.49026
G1 X84.167 Y162.545 E19.52964
G1 X84.442 Y163.285 E19.56903
G1 X84.64 Y164.05 E19.60845
G1 X84.76 Y164.83 E19.64782
G1 X84.8 Y165.622 E19.68738
G1 X84.8 Y172.821 E20.04654
G1 X85.2 Y172.821 E20.0665
G1 X85.2 Y41.561 E26.61509
G1 X85.24 Y40.772 E26.6545
G1 X85.359 Y39.992 E26.69387
G1 X85.557 Y39.227 E26.73329
G1 X85.831 Y38.487 E26.77266
G0 F7500 X86.231 Y38.571
G1 F1500 X86.578 Y37.885 E26.81101
G1 X86.994 Y37.238 E26.84939
G1 X87.475 Y36.638 E26.88775
G1 X88.016 Y36.091 E26.92614
G1 X88.611 Y35.603 E26.96453
G1 X89.435 Y35.076 E27.01333
G1 X90.73 Y34.364 E27.08706
G1 X91.006 Y34.22 E27.10259
G1 X92.32 Y33.568 E27.17577
G1 X92.602 Y33.435 E27.19132
G1 X93.94 Y32.84 E27.26438
G1 X94.226 Y32.721 E27.27983
G1 X95.589 Y32.182 E27.35296
G1 X95.876 Y32.075 E27.36824
G1 X97.26 Y31.593 E27.44136
G1 X97.561 Y31.495 E27.45715
G1 X98.966 Y31.072 E27.53035
G1 X99.262 Y30.99 E27.54568
G1 X100.682 Y30.626 E27.61881
G1 X100.978 Y30.556 E27.63399
G1 X102.411 Y30.251 E27.70708
G1 X102.726 Y30.191 E27.72308
G1 X104.172 Y29.948 E27.79623
G1 X104.47 Y29.904 E27.81126
G1 X105.926 Y29.72 E27.88448
G1 X106.237 Y29.688 E27.90007
G1 X107.696 Y29.566 E27.97312
G1 X108.005 Y29.546 E27.98857
G1 X109.471 Y29.485 E28.06177
G1 X109.779 Y29.479 E28.07714
G1 X111.244 Y29.479 E28.15023
G1 X111.557 Y29.486 E28.16585
G1 X113.022 Y29.548 E28.239
G1 X113.331 Y29.567 E28.25445
G1 X114.79 Y29.69 E28.32749
G1 X115.101 Y29.723 E28.3431
G1 X116.557 Y29.908 E28.41632
G1 X116.857 Y29.952 E28.43145
G1 X118.301 Y30.196 E28.50451
G1 X118.607 Y30.255 E28.52006
G1 X120.041 Y30.56 E28.5932
G1 X120.348 Y30.632 E28.60893
G1 X121.769 Y30.998 E28.68214
G1 X122.059 Y31.079 E28.69716
G1 X123.462 Y31.502 E28.77027
G1 X123.764 Y31.6 E28.78611
G1 X125.148 Y32.083 E28.85924
G1 X125.436 Y32.19 E28.87457
G1 X126.799 Y32.73 E28.94771
G1 X127.088 Y32.852 E28.96336
G1 X128.426 Y33.449 E29.03646
G1 X128.702 Y33.579 E29.05168
G1 X130.015 Y34.231 E29.12482
G1 X130.285 Y34.372 E29.14002
G1 X131.571 Y35.078 E29.21321
G1 X131.851 Y35.24 E29.22935
G1 X133.104 Y36.001 E29.30248
G1 X133.356 Y36.161 E29.31738
G1 X134.576 Y36.971 E29.39044
G1 X134.84 Y37.155 E29.40649
G1 X136.026 Y38.019 E29.4797
G1 X136.263 Y38.198 E29.49451
G1 X137.411 Y39.107 E29.56757
G1 X137.652 Y39.307 E29.58319
G1 X138.763 Y40.266 E29.65642
G1 X138.995 Y40.475 E29.67199
G1 X140.055 Y41.471 E29.74456
G1 X140.276 Y41.687 E29.75998
G1 X141.302 Y42.735 E29.83315
G1 X141.512 Y42.959 E29.84847
G1 X142.493 Y44.048 E29.92159
G1 X142.699 Y44.287 E29.93733
G1 X143.633 Y45.417 E30.01047
G1 X143.822 Y45.655 E30.02563
G1 X144.71 Y46.824 E30.09888
G1 X144.894 Y47.078 E30.11452
G1 X145.729 Y48.28 E30.18754
G1 X145.898 Y48.533 E30.20272
G1 X146.684 Y49.77 E30.27584
G1 X146.848 Y50.042 E30.29168
G1 X147.581 Y51.313 E30.36488
G1 X147.729 Y51.582 E30.3802
G1 X148.408 Y52.881 E30.45333
G1 X148.546 Y53.158 E30.46877
G1 X149.17 Y54.484 E30.54188
G1 X149.297 Y54.771 E30.55754
G1 X149.864 Y56.122 E30.63064
G1 X149.976 Y56.404 E30.64577
G1 X150.488 Y57.779 E30.71898
G1 X150.59 Y58.071 E30.73441
G1 X151.044 Y59.466 E30.8076
G1 X151.136 Y59.77 E30.82344
G1 X151.529 Y61.181 E30.89652
G1 X151.605 Y61.479 E30.91186
G1 X151.939 Y62.905 E30.98493
G1 X152.002 Y63.201 E31.00003
G1 X152.278 Y64.642 E31.07323
G1 X152.331 Y64.953 E31.08896
G1 X152.545 Y66.402 E31.16204
G1 X152.584 Y66.711 E31.17758
G1 X152.737 Y68.17 E31.25077
G1 X152.762 Y68.478 E31.26618
G1 X152.854 Y69.941 E31.33932
G1 X152.867 Y70.249 E31.3547
G1 X152.9 Y71.871 E31.43564
G1 X152.9 Y90.131 E32.34663
G1 X152.86 Y90.899 E32.385
G1 X152.741 Y91.659 E32.42338
G1 X152.543 Y92.402 E32.46174
G1 X152.269 Y93.121 E32.50013
G1 X151.922 Y93.807 E32.53848
G1 X151.506 Y94.454 E32.57686
G1 X151.025 Y95.054 E32.61522
G1 X150.484 Y95.601 E32.6536
G1 X149.889 Y96.089 E32.692
G1 X149.247 Y96.512 E32.73035
G1 X148.564 Y96.867 E32.76876
G1 X147.849 Y97.148 E32.80708
G1 X147.107 Y97.354 E32.8455
G1 X146.349 Y97.482 E32.88385
G1 X145.499 Y97.531 E32.92633
G1 X136.749 Y97.53 E33.36287
G1 X135.981 Y97.49 E33.40124
G1 X135.221 Y97.37 E33.43962
G1 X134.478 Y97.173 E33.47797
G1 X133.759 Y96.899 E33.51636
G1 X133.073 Y96.552 E33.55472
G1 X132.426 Y96.135 E33.59312
G1 X131.826 Y95.654 E33.63148
G1 X131.279 Y95.113 E33.66987
G1 X130.792 Y94.518 E33.70823
G1 X130.368 Y93.876 E33.74661
G1 X130.014 Y93.193 E33.78499
G1 X129.732 Y92.478 E33.82334
G1 X129.527 Y91.737 E33.86169
G1 X129.399 Y90.978 E33.9001
G1 X129.35 Y90.13 E33.94247
G1 X129.35 Y89.424 E33.97769
G1 X129.34 Y88.947 E34.0015
G1 X129.314 Y88.532 E34.02224
G1 X129.269 Y88.1 E34.04391
G1 X129.21 Y87.702 E34.06399
G1 X129.129 Y87.28 E34.08542
G1 X129.033 Y86.869 E34.10648
G1 X128.912 Y86.435 E34.12896
G1 X128.787 Y86.05 E34.14915
G1 X128.644 Y85.665 E34.16964
G1 X128.477 Y85.268 E34.19113
G1 X128.291 Y84.873 E34.21291
G1 X128.102 Y84.512 E34.23324
G1 X127.888 Y84.142 E34.25457
G1 X127.66 Y83.781 E34.27587
G1 X127.423 Y83.442 E34.2965
G1 X127.16 Y83.094 E34.31827
G1 X126.892 Y82.77 E34.33924
G1 X126.601 Y82.447 E34.36093
G1 X126.311 Y82.15 E34.38164
G1 X126.01 Y81.869 E34.40219
G1 X125.686 Y81.59 E34.42352
G1 X125.348 Y81.322 E34.44504
G1 X125.009 Y81.076 E34.46594
G1 X124.675 Y80.853 E34.48597
G1 X124.286 Y80.62 E34.50859
G1 X123.922 Y80.419 E34.52934
