;FLAVOR:Marlin
;TIME:9349
;Filament used: 5.38332m
;Layer height: 0.2
;MINX:70.932
;MINY:88.95
;MINZ:0.3
;MAXX:156.068
;MAXY:131.05
;MAXZ:34.5
;Generated with Cura_SteamEngine 4.10.0
M140 S60
M105
M190 S60
M104 S195
M105
M109 S195
M82 ;absolute extrusion mode
G28 ;Home
G1 Z15.0 F2000 ;Move the platform
G92 E0
G92 E0
G1 F1500 E-4
;LAYER_COUNT:175
;LAYER:0
M107
M204 S1000
G0 F6000 X74.952 Y90.512 Z0.3
M204 S500
;TYPE:SKIRT
G1 F1500 E0
G1 F1200 X75.545 Y90.075 E0.03859
G1 X76.182 Y89.704 E0.0772
G1 X76.856 Y89.405 E0.11583
G1 X77.558 Y89.18 E0.15445
G1 X78.281 Y89.032 E0.19311
G1 X79.086 Y88.962 E0.23543
G1 X79.407 Y88.953 E0.25226
G1 X79.598 Y88.95 E0.26226
G1 X86.584 Y88.95 E0.62822
G1 X87.823 Y88.967 E0.69313
G1 X90.569 Y88.967 E0.83698
G1 X91.26 Y88.952 E0.87319
G1 X91.531 Y88.95 E0.88739
G1 X98.665 Y88.951 E1.2611
G1 X99.382 Y88.962 E1.29866
G1 X100.146 Y89.017 E1.33879
G1 X100.702 Y89.089 E1.36816
G1 X102.421 Y89.334 E1.45912
G1 X105.037 Y89.631 E1.59703
G1 X107.646 Y89.854 E1.7342
G1 X110.296 Y90.004 E1.87325
G1 X112.919 Y90.079 E2.01071
G1 X115.574 Y90.079 E2.14979
G1 X118.188 Y90.006 E2.28678
G1 X120.815 Y89.857 E2.42461
G1 X123.452 Y89.634 E2.56324
G1 X126.128 Y89.33 E2.70433
G1 X127.52 Y89.141 E2.77792
G1 X128.323 Y89.027 E2.8204
G1 X129.087 Y88.962 E2.86057
G1 X129.406 Y88.953 E2.87729
G1 X129.598 Y88.95 E2.88735
G1 X136.679 Y88.951 E3.25828
G1 X137.823 Y88.967 E3.31822
G1 X140.569 Y88.967 E3.46206
G1 X141.26 Y88.952 E3.49827
G1 X141.531 Y88.95 E3.51247
G1 X148.649 Y88.951 E3.88534
G1 X149.347 Y88.96 E3.92191
G1 X150.082 Y89.009 E3.9605
G1 X150.808 Y89.138 E3.99912
G1 X151.516 Y89.344 E4.03775
G1 X152.197 Y89.627 E4.07638
G1 X152.844 Y89.981 E4.11502
G1 X153.448 Y90.403 E4.15361
G1 X154.004 Y90.888 E4.19226
G1 X154.503 Y91.43 E4.23086
G1 X154.941 Y92.023 E4.26948
G1 X155.312 Y92.66 E4.30809
G1 X155.612 Y93.334 E4.34674
G1 X155.837 Y94.036 E4.38536
G1 X155.985 Y94.758 E4.42396
G1 X156.056 Y95.567 E4.46651
G1 X156.065 Y95.886 E4.48322
G1 X156.068 Y96.078 E4.49328
G1 X156.067 Y104.11 E4.91404
G1 X156.06 Y104.571 E4.93819
G1 X156.06 Y107.33 E5.08272
G1 X156.065 Y107.571 E5.09535
G1 X156.068 Y108.017 E5.11871
G1 X156.067 Y116.118 E5.54308
G1 X156.057 Y116.84 E5.5809
G1 X156.007 Y117.576 E5.61955
G1 X155.878 Y118.302 E5.65818
G1 X155.67 Y119.009 E5.69678
G1 X155.388 Y119.69 E5.73539
G1 X155.033 Y120.336 E5.77401
G1 X154.61 Y120.941 E5.81268
G1 X154.125 Y121.495 E5.85125
G1 X153.824 Y121.785 E5.87314
G1 X153.601 Y121.987 E5.88891
G1 X151.621 Y123.834 E6.03075
G1 X149.774 Y125.657 E6.16669
G1 X147.921 Y127.593 E6.30708
G1 X147.5 Y128.056 E6.33986
G1 X146.741 Y128.872 E6.39824
G1 X146.21 Y129.384 E6.43688
G1 X145.627 Y129.835 E6.47549
G1 X144.999 Y130.221 E6.51411
G1 X144.333 Y130.536 E6.5527
G1 X143.636 Y130.778 E6.59135
G1 X142.917 Y130.942 E6.62998
G1 X141.951 Y131.038 E6.68084
G1 X141.627 Y131.047 E6.69781
G1 X141.438 Y131.05 E6.70772
G1 X132.692 Y131.049 E7.16587
G1 X131.993 Y131.039 E7.20249
G1 X131.257 Y130.989 E7.24114
G1 X130.849 Y130.926 E7.26276
G1 X129.877 Y130.745 E7.31456
G1 X129 Y130.569 E7.36141
G1 X126.427 Y130.126 E7.49818
G1 X123.826 Y129.753 E7.63583
G1 X121.197 Y129.453 E7.77444
G1 X118.58 Y129.228 E7.91204
G1 X115.929 Y129.076 E8.05114
G1 X113.31 Y129 E8.18839
G1 X110.655 Y128.998 E8.32747
G1 X108.036 Y129.07 E8.46472
G1 X105.413 Y129.217 E8.60234
G1 X102.771 Y129.439 E8.74123
G1 X100.176 Y129.732 E8.87803
G1 X97.531 Y130.107 E9.01798
G1 X94.951 Y130.547 E9.15508
G1 X93.463 Y130.835 E9.23448
G1 X93.111 Y130.906 E9.25329
G1 X92.381 Y131.013 E9.29194
G1 X91.95 Y131.038 E9.31455
G1 X91.628 Y131.047 E9.33143
G1 X91.438 Y131.05 E9.34138
G1 X82.692 Y131.049 E9.79954
G1 X81.993 Y131.039 E9.83616
G1 X81.257 Y130.989 E9.8748
G1 X80.531 Y130.859 E9.91344
G1 X79.824 Y130.651 E9.95204
G1 X79.143 Y130.368 E9.99068
G1 X78.497 Y130.013 E10.02929
G1 X77.893 Y129.59 E10.06792
G1 X77.338 Y129.104 E10.10656
G1 X76.84 Y128.561 E10.14516
G1 X76.403 Y127.968 E10.18375
G1 X76.033 Y127.33 E10.22238
G1 X75.683 Y126.519 E10.26865
G1 X75.437 Y125.825 E10.30722
G1 X74.964 Y124.428 E10.38449
G1 X74.055 Y121.972 E10.52167
G1 X73.072 Y119.533 E10.65943
G1 X72.993 Y119.342 E10.67025
G1 X72.749 Y118.646 E10.70889
G1 X72.581 Y117.928 E10.74752
G1 X72.48 Y116.932 E10.79996
G1 X72.471 Y116.609 E10.81689
G1 X72.468 Y116.42 E10.82679
G1 X72.469 Y108.377 E11.24812
G1 X72.476 Y107.929 E11.27159
G1 X72.476 Y105.17 E11.41612
G1 X72.471 Y104.929 E11.42875
G1 X72.468 Y104.483 E11.45211
G1 X72.469 Y96.332 E11.8791
G1 X72.478 Y95.667 E11.91394
G1 X72.528 Y94.931 E11.95258
G1 X72.657 Y94.206 E11.99116
G1 X72.864 Y93.498 E12.0298
G1 X73.146 Y92.817 E12.06841
G1 X73.501 Y92.17 E12.10707
G1 X73.923 Y91.566 E12.14567
G1 X74.409 Y91.011 E12.18431
G1 X74.952 Y90.512 E12.22294
M204 S1000
G0 F6000 X75.339 Y90.714
M204 S500
G1 F1200 X75.927 Y90.306 E12.26043
G1 X76.556 Y89.966 E12.29789
G1 X77.22 Y89.699 E12.33538
G1 X77.909 Y89.507 E12.37285
G1 X78.615 Y89.393 E12.41031
G1 X79.098 Y89.362 E12.43567
G1 X79.598 Y89.35 E12.46186
G1 X86.674 Y89.351 E12.83254
G1 X87.818 Y89.367 E12.89247
G1 X90.578 Y89.367 E13.03705
G1 X91.263 Y89.352 E13.07295
G1 X91.534 Y89.35 E13.08714
G1 X98.659 Y89.351 E13.46038
G1 X99.376 Y89.362 E13.49795
G1 X100.095 Y89.413 E13.53571
G1 X100.646 Y89.485 E13.56482
G1 X102.356 Y89.728 E13.6553
G1 X104.994 Y90.029 E13.79438
G1 X107.626 Y90.253 E13.93276
G1 X110.297 Y90.404 E14.0729
G1 X112.907 Y90.479 E14.20968
G1 X115.55 Y90.479 E14.34813
G1 X118.223 Y90.404 E14.48821
G1 X120.869 Y90.254 E14.62705
G1 X123.497 Y90.032 E14.7652
G1 X126.137 Y89.732 E14.90439
G1 X127.574 Y89.537 E14.98036
G1 X128.379 Y89.423 E15.02295
G1 X129.099 Y89.362 E15.0608
G1 X129.598 Y89.35 E15.08695
G1 X136.674 Y89.351 E15.45762
G1 X137.818 Y89.367 E15.51755
G1 X140.578 Y89.367 E15.66214
G1 X141.263 Y89.352 E15.69803
G1 X141.534 Y89.35 E15.71222
G1 X148.644 Y89.351 E16.08468
G1 X149.342 Y89.36 E16.12125
G1 X150.055 Y89.409 E16.15869
G1 X150.759 Y89.537 E16.19617
G1 X151.444 Y89.743 E16.23364
G1 X152.101 Y90.025 E16.27109
G1 X152.723 Y90.378 E16.30856
G1 X153.302 Y90.798 E16.34603
G1 X153.831 Y91.28 E16.38352
G1 X154.302 Y91.818 E16.42098
G1 X154.71 Y92.405 E16.45842
G1 X155.05 Y93.035 E16.49593
G1 X155.318 Y93.698 E16.53339
G1 X155.51 Y94.387 E16.57086
G1 X155.624 Y95.093 E16.60832
G1 X155.656 Y95.579 E16.63383
G1 X155.668 Y96.078 E16.65998
G1 X155.667 Y104.105 E17.08047
G1 X155.66 Y104.571 E17.10489
G1 X155.66 Y107.339 E17.24989
G1 X155.665 Y107.574 E17.2622
G1 X155.668 Y108.02 E17.28556
G1 X155.667 Y116.113 E17.70951
G1 X155.657 Y116.835 E17.74734
G1 X155.608 Y117.548 E17.78478
G1 X155.478 Y118.252 E17.82228
G1 X155.272 Y118.936 E17.8597
G1 X154.99 Y119.594 E17.8972
G1 X154.636 Y120.215 E17.93465
G1 X154.215 Y120.794 E17.97215
G1 X153.555 Y121.489 E18.02236
G1 X153.289 Y121.73 E18.04116
G1 X151.368 Y123.522 E18.17878
G1 X149.47 Y125.396 E18.3185
G1 X147.636 Y127.311 E18.4574
G1 X147.207 Y127.784 E18.49085
G1 X146.448 Y128.6 E18.54923
G1 X145.933 Y129.096 E18.58669
G1 X145.365 Y129.531 E18.62417
G1 X144.752 Y129.9 E18.66165
G1 X144.102 Y130.198 E18.6991
G1 X143.423 Y130.422 E18.73656
G1 X142.723 Y130.568 E18.77402
G1 X141.94 Y130.639 E18.8152
G1 X141.616 Y130.648 E18.83218
G1 X141.438 Y130.65 E18.84151
G1 X132.697 Y130.649 E19.2994
G1 X131.998 Y130.639 E19.33602
G1 X131.285 Y130.589 E19.37346
G1 X130.922 Y130.533 E19.39271
G1 X129.955 Y130.352 E19.44424
G1 X129.103 Y130.181 E19.48976
G1 X126.481 Y129.729 E19.62914
G1 X123.896 Y129.359 E19.76594
G1 X121.241 Y129.056 E19.90592
G1 X118.566 Y128.826 E20.04657
G1 X115.963 Y128.677 E20.18315
G1 X113.323 Y128.6 E20.3215
G1 X110.68 Y128.598 E20.45995
G1 X108.003 Y128.672 E20.60024
G1 X105.39 Y128.818 E20.73734
G1 X102.728 Y129.042 E20.87728
G1 X100.107 Y129.338 E21.01545
G1 X97.484 Y129.709 E21.15422
G1 X94.851 Y130.159 E21.29415
G1 X93.349 Y130.449 E21.37429
G1 X93.031 Y130.513 E21.39128
G1 X92.323 Y130.616 E21.42876
G1 X91.939 Y130.639 E21.44891
G1 X91.617 Y130.648 E21.46578
G1 X91.438 Y130.65 E21.47516
G1 X82.697 Y130.649 E21.93306
G1 X81.998 Y130.639 E21.96968
G1 X81.285 Y130.589 E22.00712
G1 X80.582 Y130.46 E22.04456
G1 X79.897 Y130.253 E22.08205
G1 X79.24 Y129.97 E22.11952
G1 X78.618 Y129.616 E22.15701
G1 X78.04 Y129.195 E22.19447
G1 X77.512 Y128.713 E22.23192
G1 X77.042 Y128.174 E22.26938
G1 X76.634 Y127.586 E22.30687
G1 X76.295 Y126.956 E22.34435
G1 X76.06 Y126.385 E22.3767
G1 X75.816 Y125.696 E22.41499
G1 X75.35 Y124.321 E22.49104
G1 X74.425 Y121.821 E22.63068
G1 X73.42 Y119.326 E22.77158
G1 X73.363 Y119.189 E22.77936
G1 X73.127 Y118.514 E22.81682
G1 X72.968 Y117.817 E22.85427
G1 X72.879 Y116.921 E22.90143
G1 X72.87 Y116.598 E22.91836
G1 X72.868 Y116.42 E22.92768
G1 X72.869 Y108.382 E23.34875
G1 X72.876 Y107.929 E23.37249
G1 X72.876 Y105.161 E23.51749
G1 X72.871 Y104.926 E23.5298
G1 X72.868 Y104.48 E23.55316
G1 X72.869 Y96.337 E23.97973
G1 X72.878 Y95.672 E24.01457
G1 X72.927 Y94.959 E24.05201
G1 X73.056 Y94.255 E24.0895
G1 X73.263 Y93.571 E24.12694
G1 X73.545 Y92.913 E24.16444
G1 X73.898 Y92.291 E24.20191
G1 X74.318 Y91.713 E24.23933
G1 X74.801 Y91.185 E24.27682
G1 X75.339 Y90.714 E24.31428
M204 S1000
G0 F6000 X75.726 Y90.923
M204 S500
G1 F1200 X76.307 Y90.546 E24.35056
G1 X76.927 Y90.238 E24.38682
G1 X77.579 Y90.004 E24.42311
G1 X78.253 Y89.847 E24.45936
G1 X79.109 Y89.761 E24.50443
G1 X79.43 Y89.752 E24.52125
G1 X79.598 Y89.75 E24.53005
G1 X86.584 Y89.75 E24.89601
G1 X87.812 Y89.767 E24.96035
G1 X90.541 Y89.767 E25.10331
G1 X91.266 Y89.752 E25.14129
G1 X91.537 Y89.75 E25.15549
G1 X98.653 Y89.751 E25.52826
G1 X99.37 Y89.762 E25.56582
G1 X100.044 Y89.81 E25.60122
G1 X100.589 Y89.881 E25.63001
G1 X102.321 Y90.128 E25.72166
G1 X104.951 Y90.427 E25.86032
G1 X107.603 Y90.653 E25.99975
G1 X110.228 Y90.802 E26.13748
G1 X112.931 Y90.879 E26.27913
G1 X115.561 Y90.879 E26.4169
G1 X118.257 Y90.804 E26.55819
G1 X120.854 Y90.657 E26.69445
G1 X123.54 Y90.429 E26.83566
G1 X126.192 Y90.128 E26.97548
G1 X127.628 Y89.934 E27.05138
G1 X128.435 Y89.819 E27.09409
G1 X129.11 Y89.761 E27.12958
G1 X129.429 Y89.752 E27.14629
G1 X129.598 Y89.75 E27.15515
G1 X136.668 Y89.751 E27.52551
G1 X137.812 Y89.767 E27.58544
G1 X140.541 Y89.767 E27.7284
G1 X141.266 Y89.752 E27.76638
G1 X141.537 Y89.75 E27.78058
G1 X148.638 Y89.75 E28.15257
G1 X149.336 Y89.759 E28.18913
G1 X150.027 Y89.808 E28.22542
G1 X150.708 Y89.937 E28.26173
G1 X151.369 Y90.142 E28.29798
G1 X152.002 Y90.423 E28.33426
G1 X152.599 Y90.774 E28.37054
G1 X153.151 Y91.192 E28.40681
G1 X153.651 Y91.671 E28.44309
G1 X154.093 Y92.205 E28.4794
G1 X154.47 Y92.785 E28.51564
G1 X154.778 Y93.406 E28.55195
G1 X155.013 Y94.057 E28.5882
G1 X155.17 Y94.732 E28.62451
G1 X155.257 Y95.59 E28.66968
G1 X155.266 Y95.909 E28.6864
G1 X155.268 Y96.078 E28.69526
G1 X155.267 Y104.099 E29.11543
G1 X155.26 Y104.571 E29.14016
G1 X155.26 Y107.348 E29.28563
G1 X155.265 Y107.577 E29.29763
G1 X155.268 Y108.023 E29.321
G1 X155.267 Y116.107 E29.74448
G1 X155.257 Y116.829 E29.7823
G1 X155.208 Y117.52 E29.81859
G1 X155.079 Y118.2 E29.85485
G1 X154.873 Y118.861 E29.89112
G1 X154.592 Y119.494 E29.9274
G1 X154.239 Y120.091 E29.96373
G1 X153.821 Y120.642 E29.99996
G1 X153.287 Y121.192 E30.04011
G1 X153.085 Y121.375 E30.05439
G1 X151.062 Y123.262 E30.19931
G1 X149.182 Y125.117 E30.33767
G1 X147.35 Y127.031 E30.47646
G1 X146.914 Y127.511 E30.51043
G1 X146.155 Y128.327 E30.5688
G1 X145.655 Y128.806 E30.60508
G1 X145.103 Y129.225 E30.64138
G1 X144.507 Y129.576 E30.67761
G1 X143.874 Y129.857 E30.71389
G1 X143.212 Y130.063 E30.75021
G1 X142.532 Y130.191 E30.78646
G1 X141.929 Y130.239 E30.81815
G1 X141.605 Y130.248 E30.83513
G1 X141.438 Y130.25 E30.84388
G1 X132.703 Y130.249 E31.30146
G1 X132.004 Y130.239 E31.33808
G1 X130.995 Y130.139 E31.39119
G1 X130.034 Y129.96 E31.4424
G1 X129.179 Y129.788 E31.48809
G1 X126.534 Y129.333 E31.62868
G1 X123.927 Y128.959 E31.76664
G1 X121.285 Y128.657 E31.90594
G1 X118.625 Y128.429 E32.0458
G1 X115.963 Y128.276 E32.18548
G1 X113.334 Y128.2 E32.32325
G1 X110.668 Y128.198 E32.46291
G1 X108.005 Y128.272 E32.60247
G1 X105.338 Y128.421 E32.74239
G1 X102.687 Y128.644 E32.88176
G1 X100.073 Y128.938 E33.01955
G1 X97.392 Y129.319 E33.16141
G1 X94.803 Y129.76 E33.29899
G1 X93.273 Y130.056 E33.38062
G1 X92.952 Y130.121 E33.39778
G1 X91.928 Y130.239 E33.45177
G1 X91.606 Y130.248 E33.46865
G1 X91.438 Y130.25 E33.47745
G1 X82.703 Y130.249 E33.93503
G1 X82.004 Y130.239 E33.97165
G1 X81.313 Y130.19 E34.00794
G1 X80.633 Y130.06 E34.04421
G1 X79.972 Y129.854 E34.08048
G1 X79.339 Y129.572 E34.11678
G1 X78.743 Y129.22 E34.15304
G1 X78.192 Y128.801 E34.1893
G1 X77.692 Y128.321 E34.22561
G1 X77.251 Y127.787 E34.26189
G1 X76.875 Y127.206 E34.29814
G1 X76.567 Y126.586 E34.3344
G1 X76.437 Y126.251 E34.35323
G1 X76.195 Y125.568 E34.39119
G1 X75.729 Y124.19 E34.46739
G1 X74.795 Y121.669 E34.60822
G1 X73.791 Y119.176 E34.74901
G1 X73.733 Y119.036 E34.75695
G1 X73.505 Y118.382 E34.79323
G1 X73.355 Y117.706 E34.8295
G1 X73.279 Y116.91 E34.87139
G1 X73.27 Y116.587 E34.88832
G1 X73.268 Y116.42 E34.89707
G1 X73.269 Y108.388 E35.31782
G1 X73.276 Y107.929 E35.34187
G1 X73.276 Y105.152 E35.48734
G1 X73.271 Y104.923 E35.49934
G1 X73.268 Y104.477 E35.5227
G1 X73.269 Y96.343 E35.9488
G1 X73.278 Y95.678 E35.98364
G1 X73.327 Y94.987 E36.01993
G1 X73.455 Y94.307 E36.05618
G1 X73.662 Y93.645 E36.09251
G1 X73.943 Y93.012 E36.12879
G1 X74.295 Y92.416 E36.16505
G1 X74.713 Y91.864 E36.20132
G1 X75.192 Y91.364 E36.23759
G1 X75.726 Y90.923 E36.27387
M204 S1000
G0 F6000 X75.582 Y91.551
M204 S500
G1 F1200 X76.111 Y91.14 E36.30897
G1 X76.684 Y90.795 E36.344
G1 X77.295 Y90.522 E36.37906
G1 X77.933 Y90.323 E36.41407
G1 X78.591 Y90.201 E36.44913
G1 X79.12 Y90.161 E36.47692
G1 X79.441 Y90.152 E36.49374
G1 X79.598 Y90.15 E36.50196
G1 X86.584 Y90.15 E36.86792
G1 X87.806 Y90.167 E36.93194
G1 X90.55 Y90.167 E37.07569
G1 X91.269 Y90.152 E37.11336
G1 X91.54 Y90.15 E37.12756
G1 X98.647 Y90.151 E37.49986
G1 X99.364 Y90.162 E37.53742
G1 X99.993 Y90.207 E37.57045
G1 X100.533 Y90.277 E37.59898
G1 X102.256 Y90.522 E37.69014
G1 X104.908 Y90.824 E37.82997
G1 X107.582 Y91.052 E37.97055
G1 X110.23 Y91.202 E38.10949
G1 X112.919 Y91.279 E38.25041
G1 X115.573 Y91.279 E38.38944
G1 X118.254 Y91.204 E38.52994
G1 X120.912 Y91.053 E38.6694
G1 X123.583 Y90.827 E38.80982
G1 X126.247 Y90.525 E38.95027
G1 X127.682 Y90.33 E39.02613
G1 X128.492 Y90.215 E39.06899
G1 X129.121 Y90.161 E39.10206
G1 X129.44 Y90.152 E39.11877
G1 X129.598 Y90.15 E39.12705
G1 X136.662 Y90.151 E39.4971
G1 X137.806 Y90.167 E39.55703
G1 X140.55 Y90.167 E39.70078
G1 X141.269 Y90.152 E39.73845
G1 X141.54 Y90.15 E39.75264
G1 X148.633 Y90.15 E40.12421
G1 X149.331 Y90.159 E40.16078
G1 X149.998 Y90.208 E40.19581
G1 X150.655 Y90.336 E40.23088
G1 X151.292 Y90.541 E40.26593
G1 X151.9 Y90.821 E40.301
G1 X152.47 Y91.171 E40.33603
G1 X152.994 Y91.587 E40.37108
G1 X153.465 Y92.062 E40.40612
G1 X153.876 Y92.59 E40.44118
G1 X154.221 Y93.163 E40.47621
G1 X154.495 Y93.773 E40.51124
G1 X154.695 Y94.412 E40.54632
G1 X154.816 Y95.07 E40.58136
G1 X154.857 Y95.601 E40.60926
G1 X154.866 Y95.92 E40.62598
G1 X154.868 Y96.078 E40.63426
G1 X154.867 Y104.093 E41.05412
G1 X154.86 Y104.571 E41.07916
G1 X154.86 Y107.315 E41.22291
G1 X154.865 Y107.579 E41.23674
G1 X154.868 Y108.025 E41.2601
G1 X154.867 Y116.102 E41.68322
G1 X154.857 Y116.824 E41.72104
G1 X154.808 Y117.491 E41.75608
G1 X154.68 Y118.147 E41.79109
G1 X154.474 Y118.784 E41.82616
G1 X154.194 Y119.391 E41.86118
G1 X153.843 Y119.961 E41.89624
G1 X153.427 Y120.485 E41.93129
G1 X153.018 Y120.896 E41.96167
G1 X152.788 Y121.104 E41.97791
G1 X150.791 Y122.968 E42.12101
G1 X148.913 Y124.821 E42.25922
G1 X147.049 Y126.768 E42.40042
G1 X146.621 Y127.239 E42.43376
G1 X145.862 Y128.055 E42.49213
G1 X145.378 Y128.517 E42.52718
G1 X144.843 Y128.918 E42.56221
G1 X144.263 Y129.252 E42.59727
G1 X143.648 Y129.514 E42.63229
G1 X143.005 Y129.701 E42.66737
G1 X142.345 Y129.811 E42.70242
G1 X141.917 Y129.839 E42.72489
G1 X141.593 Y129.848 E42.74187
G1 X141.438 Y129.85 E42.74999
G1 X132.709 Y129.849 E43.20725
G1 X132.01 Y129.839 E43.24387
