;FLAVOR:Marlin
;TIME:4538
;Filament used: 2.52502m
;Layer height: 0.25
;MINX:86
;MINY:101
;MINZ:0.3
;MAXX:134
;MAXY:119
;MAXZ:62.3
;POSTPROCESSED
;Generated with Cura_SteamEngine 4.10.0
M140 S60
M105
M190 S60
M104 S220
M105
M109 S220
M82 ;absolute extrusion mode
G28 ;Home
G1 Z15.0 F2000 ;Move the platform
G92 E0
G92 E0
G1 F1500 E-7
;LAYER_COUNT:249
;LAYER:0
M107
M204 S1000
G0 F6000 X87.406 Y101.972 Z0.3
;TYPE:SKIRT
G1 F1500 E0
G1 F1200 X87.86 Y101.635 E0.02962
G1 X88.357 Y101.366 E0.05922
G1 X88.887 Y101.169 E0.08884
G1 X89.44 Y101.05 E0.11847
G1 X89.897 Y101.011 E0.1425
G1 X90.33 Y101 E0.16519
G1 X129.35 Y101 E2.20924
G1 X130.048 Y101.01 E2.24581
G1 X130.612 Y101.058 E2.27546
G1 X131.162 Y101.185 E2.30503
G1 X131.69 Y101.389 E2.33468
G1 X132.184 Y101.664 E2.3643
G1 X132.633 Y102.007 E2.3939
G1 X133.03 Y102.409 E2.4235
G1 X133.367 Y102.864 E2.45316
G1 X133.635 Y103.361 E2.48274
G1 X133.831 Y103.891 E2.51234
G1 X133.951 Y104.444 E2.54198
G1 X133.989 Y104.898 E2.56585
G1 X134 Y105.33 E2.58848
G1 X134 Y114.314 E3.05911
G1 X133.991 Y115.041 E3.0972
G1 X133.944 Y115.604 E3.12679
G1 X133.818 Y116.155 E3.1564
G1 X133.616 Y116.683 E3.18601
G1 X133.341 Y117.177 E3.21563
G1 X132.999 Y117.627 E3.24524
G1 X132.597 Y118.025 E3.27487
G1 X132.144 Y118.362 E3.30445
G1 X131.647 Y118.632 E3.33408
G1 X131.117 Y118.829 E3.3637
G1 X130.565 Y118.95 E3.3933
G1 X130.103 Y118.989 E3.41759
G1 X129.67 Y119 E3.44028
G1 X90.655 Y119 E5.48407
G1 X89.957 Y118.991 E5.52064
G1 X89.394 Y118.943 E5.55024
G1 X88.843 Y118.817 E5.57985
G1 X88.315 Y118.615 E5.60946
G1 X87.821 Y118.34 E5.63908
G1 X87.371 Y117.998 E5.66869
G1 X86.973 Y117.596 E5.69832
G1 X86.637 Y117.142 E5.72791
G1 X86.367 Y116.645 E5.75754
G1 X86.17 Y116.115 E5.78716
G1 X86.05 Y115.563 E5.81675
G1 X86.01 Y115.099 E5.84114
G1 X86.001 Y114.766 E5.85859
G1 X86 Y105.62 E6.33771
G1 X86.009 Y104.955 E6.37254
G1 X86.057 Y104.392 E6.40214
G1 X86.183 Y103.841 E6.43175
G1 X86.386 Y103.313 E6.46139
G1 X86.662 Y102.819 E6.49103
G1 X87.004 Y102.369 E6.52064
G1 X87.406 Y101.972 E6.55023
G0 F6000 X87.794 Y102.171
G1 F1200 X88.241 Y101.873 E6.57838
G1 X88.726 Y101.645 E6.60645
G1 X89.24 Y101.492 E6.63454
G1 X89.908 Y101.41 E6.6698
G1 X90.33 Y101.4 E6.69191
G1 X129.345 Y101.4 E8.7357
G1 X130.043 Y101.41 E8.77227
G1 X130.577 Y101.458 E8.80036
G1 X131.098 Y101.584 E8.82844
G1 X131.595 Y101.787 E8.85656
G1 X132.056 Y102.061 E8.88465
G1 X132.471 Y102.4 E8.91272
G1 X132.831 Y102.798 E8.94084
G1 X133.128 Y103.244 E8.96891
G1 X133.356 Y103.73 E8.99703
G1 X133.508 Y104.244 E9.0251
G1 X133.59 Y104.909 E9.0602
G1 X133.6 Y105.33 E9.08226
G1 X133.6 Y114.309 E9.55263
G1 X133.591 Y115.036 E9.59071
G1 X133.544 Y115.57 E9.6188
G1 X133.419 Y116.091 E9.64686
G1 X133.217 Y116.588 E9.67497
G1 X132.944 Y117.05 E9.70308
G1 X132.606 Y117.466 E9.73116
G1 X132.209 Y117.827 E9.75926
G1 X131.763 Y118.125 E9.78736
G1 X131.278 Y118.353 E9.81544
G1 X130.764 Y118.507 E9.84355
G1 X130.092 Y118.59 E9.87902
G1 X129.67 Y118.6 E9.90113
G1 X90.661 Y118.6 E11.9446
G1 X89.963 Y118.591 E11.98117
G1 X89.428 Y118.544 E12.0093
G1 X88.907 Y118.418 E12.03738
G1 X88.41 Y118.216 E12.06549
G1 X87.949 Y117.943 E12.09355
G1 X87.533 Y117.604 E12.12167
G1 X87.172 Y117.208 E12.14974
G1 X86.874 Y116.762 E12.17783
G1 X86.646 Y116.276 E12.20596
G1 X86.493 Y115.762 E12.23405
G1 X86.41 Y115.088 E12.26962
G1 X86.4 Y114.658 E12.29215
G1 X86.4 Y105.625 E12.76535
G1 X86.409 Y104.96 E12.80018
G1 X86.457 Y104.426 E12.82827
G1 X86.583 Y103.905 E12.85635
G1 X86.785 Y103.408 E12.88445
G1 X87.058 Y102.947 E12.91252
G1 X87.397 Y102.531 E12.94063
G1 X87.794 Y102.171 E12.96871
G0 F6000 X87.789 Y102.704
G1 F1200 X88.18 Y102.383 E12.99521
G1 X88.617 Y102.128 E13.02171
G1 X89.088 Y101.944 E13.0482
G1 X89.582 Y101.838 E13.07467
G1 X89.919 Y101.81 E13.09238
G1 X90.33 Y101.8 E13.11392
G1 X129.339 Y101.8 E15.15739
G1 X130.037 Y101.81 E15.19396
G1 X130.54 Y101.857 E15.22043
G1 X131.03 Y101.983 E15.24693
G1 X131.494 Y102.185 E15.27344
G1 X131.92 Y102.457 E15.29992
G1 X132.298 Y102.792 E15.32637
G1 X132.618 Y103.183 E15.35284
G1 X132.873 Y103.62 E15.37935
G1 X133.056 Y104.091 E15.40582
G1 X133.163 Y104.585 E15.43229
G1 X133.19 Y104.92 E15.4499
G1 X133.2 Y105.33 E15.47138
G1 X133.2 Y114.304 E15.94149
G1 X133.191 Y115.031 E15.97957
G1 X133.145 Y115.534 E16.00603
G1 X133.02 Y116.024 E16.03252
G1 X132.819 Y116.488 E16.05901
G1 X132.548 Y116.915 E16.0855
G1 X132.213 Y117.294 E16.112
G1 X131.823 Y117.615 E16.13846
G1 X131.387 Y117.871 E16.16495
G1 X130.916 Y118.054 E16.19142
G1 X130.422 Y118.162 E16.21791
G1 X130.081 Y118.19 E16.23583
G1 X129.67 Y118.2 E16.25737
G1 X90.666 Y118.2 E18.30058
G1 X89.968 Y118.191 E18.33715
G1 X89.464 Y118.144 E18.36366
G1 X88.974 Y118.019 E18.39015
G1 X88.51 Y117.818 E18.41664
G1 X88.084 Y117.547 E18.44309
G1 X87.705 Y117.212 E18.46959
G1 X87.384 Y116.821 E18.49609
G1 X87.129 Y116.385 E18.52255
G1 X86.945 Y115.914 E18.54904
G1 X86.838 Y115.42 E18.57552
G1 X86.81 Y115.077 E18.59355
G1 X86.8 Y114.658 E18.6155
G1 X86.8 Y105.631 E19.08838
G1 X86.809 Y104.966 E19.12322
G1 X86.856 Y104.462 E19.14973
G1 X86.982 Y103.973 E19.17619
G1 X87.183 Y103.509 E19.20268
G1 X87.454 Y103.082 E19.22917
G1 X87.789 Y102.704 E19.25563
G1 F1500 E12.25563
;MESH:180-220_PLA_Temp_calibration.stl
G0 F6000 X90.414 Y104.335
G0 X90.414 Y105.414
G0 X128.818 Y106.182
G0 X129 Y114
;TYPE:WALL-INNER
G1 F1500 E19.25563
G1 F1020 X91 Y114 E21.24625
G1 X91 Y106 E21.66532
G1 X129 Y106 E23.65594
G1 X129 Y114 E24.07502
G0 F6000 X129.4 Y114.4
G1 F1020 X90.6 Y114.4 E26.10755
G1 X90.6 Y105.6 E26.56853
G1 X129.4 Y105.6 E28.60106
G1 X129.4 Y114.4 E29.06204
G0 F6000 X129.8 Y114.8
;TYPE:WALL-OUTER
G1 F1020 X90.2 Y114.8 E31.09499
G1 X90.2 Y105.2 E31.58783
G1 X129.8 Y105.2 E33.62077
G1 X129.8 Y114.8 E34.11361
G0 F6000 X129.6 Y114.8
G0 X129.36 Y114.36
G0 X128.89 Y113.61
G0 X128.61 Y113.61
;TYPE:SKIN
G1 F1020 X91.39 Y113.61 E36.06337
G1 X91.39 Y106.39 E36.44158
G1 X128.61 Y106.39 E38.39134
G1 X128.61 Y113.61 E38.76956
G0 F6000 X128.89 Y113.61
G0 X128.89 Y106.953
G0 X128.449 Y106.953
G1 F1020 X128.046 Y106.55 E38.79942
G0 F6000 X127.48 Y106.55
G1 F1020 X128.449 Y107.519 E38.8712
G0 F6000 X128.449 Y108.084
G1 F1020 X126.915 Y106.55 E38.98485
G0 F6000 X126.349 Y106.55
G1 F1020 X128.449 Y108.65 E39.14042
G0 F6000 X128.449 Y109.216
G1 F1020 X125.783 Y106.55 E39.33793
G0 F6000 X125.218 Y106.55
G1 F1020 X128.449 Y109.781 E39.57729
G0 F6000 X128.449 Y110.347
G1 F1020 X124.652 Y106.55 E39.85858
G0 F6000 X124.086 Y106.55
G1 F1020 X128.449 Y110.913 E40.18181
G0 F6000 X128.449 Y111.478
G1 F1020 X123.52 Y106.55 E40.54693
G0 F6000 X122.955 Y106.55
G1 F1020 X128.449 Y112.044 E40.95394
G0 F6000 X128.449 Y112.61
G1 F1020 X122.389 Y106.55 E41.40288
G0 F6000 X121.823 Y106.55
G1 F1020 X128.449 Y113.175 E41.89372
G0 F6000 X128.157 Y113.449
G1 F1020 X121.258 Y106.55 E42.40482
G0 F6000 X120.692 Y106.55
G1 F1020 X127.591 Y113.449 E42.91592
G0 F6000 X127.026 Y113.449
G1 F1020 X120.126 Y106.55 E43.42706
G0 F6000 X119.561 Y106.55
G1 F1020 X126.46 Y113.449 E43.93816
G0 F6000 X125.894 Y113.449
G1 F1020 X118.995 Y106.55 E44.44926
G0 F6000 X118.429 Y106.55
G1 F1020 X125.329 Y113.449 E44.9604
G0 F6000 X124.763 Y113.449
G1 F1020 X117.864 Y106.55 E45.47149
G0 F6000 X117.298 Y106.55
G1 F1020 X124.197 Y113.449 E45.98259
G0 F6000 X123.631 Y113.449
G1 F1020 X116.732 Y106.55 E46.49369
G0 F6000 X116.167 Y106.55
G1 F1020 X123.066 Y113.449 E47.00479
G0 F6000 X122.5 Y113.449
G1 F1020 X115.601 Y106.55 E47.51589
G0 F6000 X115.035 Y106.55
G1 F1020 X121.934 Y113.449 E48.02699
G0 F6000 X121.369 Y113.449
G1 F1020 X114.469 Y106.55 E48.53813
G0 F6000 X113.904 Y106.55
G1 F1020 X120.803 Y113.449 E49.04923
G0 F6000 X120.237 Y113.449
G1 F1020 X113.338 Y106.55 E49.56033
G0 F6000 X112.772 Y106.55
G1 F1020 X119.672 Y113.449 E50.07147
G0 F6000 X119.106 Y113.449
G1 F1020 X112.207 Y106.55 E50.58257
G0 F6000 X111.641 Y106.55
G1 F1020 X118.54 Y113.449 E51.09367
G0 F6000 X117.975 Y113.449
G1 F1020 X111.075 Y106.55 E51.6048
G0 F6000 X110.51 Y106.55
G1 F1020 X117.409 Y113.449 E52.1159
G0 F6000 X116.843 Y113.449
G1 F1020 X109.943 Y106.549 E52.62708
G0 F6000 X109.378 Y106.549
G1 F1020 X116.278 Y113.449 E53.13825
G0 F6000 X115.712 Y113.449
G1 F1020 X108.812 Y106.549 E53.64943
G0 F6000 X108.246 Y106.549
G1 F1020 X115.146 Y113.449 E54.1606
G0 F6000 X114.58 Y113.449
G1 F1020 X107.681 Y106.549 E54.67174
G0 F6000 X107.115 Y106.549
G1 F1020 X114.015 Y113.449 E55.18291
G0 F6000 X113.449 Y113.449
G1 F1020 X106.549 Y106.549 E55.69408
G0 F6000 X105.983 Y106.549
G1 F1020 X112.883 Y113.449 E56.20526
G0 F6000 X112.318 Y113.449
G1 F1020 X105.418 Y106.549 E56.71643
G0 F6000 X104.852 Y106.549
G1 F1020 X111.752 Y113.449 E57.22761
G0 F6000 X111.186 Y113.449
G1 F1020 X104.286 Y106.549 E57.73878
G0 F6000 X103.721 Y106.549
G1 F1020 X110.621 Y113.449 E58.24995
G0 F6000 X110.055 Y113.449
G1 F1020 X103.155 Y106.549 E58.76113
G0 F6000 X102.589 Y106.549
G1 F1020 X109.489 Y113.448 E59.27226
G0 F6000 X108.923 Y113.448
G1 F1020 X102.024 Y106.549 E59.78336
G0 F6000 X101.458 Y106.549
G1 F1020 X108.357 Y113.448 E60.29446
G0 F6000 X107.792 Y113.448
G1 F1020 X100.892 Y106.549 E60.8056
G0 F6000 X100.327 Y106.549
G1 F1020 X107.226 Y113.448 E61.3167
G0 F6000 X106.66 Y113.448
G1 F1020 X99.761 Y106.549 E61.8278
G0 F6000 X99.195 Y106.549
G1 F1020 X106.095 Y113.448 E62.33894
G0 F6000 X105.529 Y113.448
G1 F1020 X98.63 Y106.549 E62.85004
G0 F6000 X98.064 Y106.549
G1 F1020 X104.963 Y113.448 E63.36114
G0 F6000 X104.397 Y113.448
G1 F1020 X97.498 Y106.549 E63.87224
G0 F6000 X96.933 Y106.549
G1 F1020 X103.832 Y113.448 E64.38334
G0 F6000 X103.266 Y113.448
G1 F1020 X96.367 Y106.549 E64.89444
G0 F6000 X95.801 Y106.549
G1 F1020 X102.7 Y113.448 E65.40554
G0 F6000 X102.135 Y113.448
G1 F1020 X95.235 Y106.549 E65.91667
G0 F6000 X94.67 Y106.549
G1 F1020 X101.569 Y113.448 E66.42777
G0 F6000 X101.003 Y113.448
G1 F1020 X94.104 Y106.549 E66.93887
G0 F6000 X93.538 Y106.549
G1 F1020 X100.438 Y113.448 E67.45001
G0 F6000 X99.872 Y113.448
G1 F1020 X92.973 Y106.549 E67.96111
G0 F6000 X92.407 Y106.549
G1 F1020 X99.306 Y113.448 E68.47221
G0 F6000 X98.741 Y113.448
G1 F1020 X91.841 Y106.549 E68.98335
G0 F6000 X91.549 Y106.823
G1 F1020 X98.175 Y113.448 E69.47418
G0 F6000 X97.609 Y113.448
G1 F1020 X91.549 Y107.389 E69.92309
G0 F6000 X91.549 Y107.954
G1 F1020 X97.044 Y113.448 E70.33014
G0 F6000 X96.478 Y113.448
G1 F1020 X91.549 Y108.52 E70.69526
G0 F6000 X91.549 Y109.086
G1 F1020 X95.912 Y113.448 E71.01845
G0 F6000 X95.346 Y113.448
G1 F1020 X91.549 Y109.651 E71.29974
G0 F6000 X91.549 Y110.217
G1 F1020 X94.781 Y113.448 E71.53914
G0 F6000 X94.215 Y113.448
G1 F1020 X91.549 Y110.783 E71.73661
G0 F6000 X91.549 Y111.348
G1 F1020 X93.649 Y113.448 E71.89218
G0 F6000 X93.084 Y113.448
G1 F1020 X91.549 Y111.914 E72.00586
G0 F6000 X91.549 Y112.48
G1 F1020 X92.518 Y113.448 E72.07761
G0 F6000 X91.952 Y113.448
G1 F1020 X91.549 Y113.045 E72.10747
G0 F6000 X90.81 Y113.045
G1 F1500 E65.10747
;MESH:NONMESH
G0 F300 X90.81 Y113.045 Z0.55
G0 F6000 X91.182 Y113.818
G0 X129 Y114
;TIME_ELAPSED:90.839247
;LAYER:1
M106 S68
;TYPE:WALL-INNER
;MESH:180-220_PLA_Temp_calibration.stl
G1 F1500 E72.10747
G1 F1110 X91 Y114 E73.68733
G1 X91 Y106 E74.01993
G1 X129 Y106 E75.59978
G1 X129 Y114 E75.93238
G0 F7500 X129.4 Y114.4
G1 F1110 X90.6 Y114.4 E77.5455
G1 X90.6 Y105.6 E77.91136
G1 X129.4 Y105.6 E79.52448
G1 X129.4 Y114.4 E79.89034
G0 F7500 X129.8 Y114.8
;TYPE:WALL-OUTER
G1 F1110 X90.2 Y114.8 E81.50379
G1 X90.2 Y105.2 E81.89493
G1 X129.8 Y105.2 E83.50838
G1 X129.8 Y114.8 E83.89952
G0 F7500 X129.6 Y114.8
G0 X129.36 Y114.36
G0 X128.89 Y113.61
G0 X128.61 Y113.61
;TYPE:SKIN
G1 F1260 X91.39 Y113.61 E85.44695
G1 X91.39 Y106.39 E85.74712
G1 X128.61 Y106.39 E87.29455
G1 X128.61 Y113.61 E87.59472
G0 F7500 X128.449 Y113.098
G1 F1260 X128.097 Y113.45 E87.61541
G0 F7500 X127.531 Y113.45
G1 F1260 X128.449 Y112.532 E87.66939
G0 F7500 X128.449 Y111.966
G1 F1260 X126.965 Y113.45 E87.75664
G0 F7500 X126.4 Y113.45
G1 F1260 X128.449 Y111.401 E87.87712
G0 F7500 X128.449 Y110.835
G1 F1260 X125.834 Y113.45 E88.03087
G0 F7500 X125.268 Y113.45
G1 F1260 X128.449 Y110.269 E88.2179
G0 F7500 X128.449 Y109.704
G1 F1260 X124.703 Y113.45 E88.43815
G0 F7500 X124.137 Y113.45
G1 F1260 X128.449 Y109.138 E88.69168
G0 F7500 X128.449 Y108.572
G1 F1260 X123.571 Y113.45 E88.97849
G0 F7500 X123.006 Y113.45
G1 F1260 X128.449 Y108.007 E89.29851
G0 F7500 X128.449 Y107.441
G1 F1260 X122.44 Y113.45 E89.65182
G0 F7500 X121.874 Y113.45
G1 F1260 X128.449 Y106.875 E90.03841
G0 F7500 X128.209 Y106.549
G1 F1260 X121.309 Y113.45 E90.44413
G0 F7500 X120.743 Y113.45
G1 F1260 X127.644 Y106.549 E90.84988
G0 F7500 X127.078 Y106.549
G1 F1260 X120.177 Y113.45 E91.25563
G0 F7500 X119.612 Y113.45
G1 F1260 X126.512 Y106.549 E91.66136
G0 F7500 X125.947 Y106.549
G1 F1260 X119.046 Y113.45 E92.06711
G0 F7500 X118.48 Y113.45
G1 F1260 X125.381 Y106.549 E92.47286
G0 F7500 X124.815 Y106.549
G1 F1260 X117.915 Y113.45 E92.87858
G0 F7500 X117.349 Y113.45
G1 F1260 X124.249 Y106.549 E93.28431
G0 F7500 X123.684 Y106.549
G1 F1260 X116.783 Y113.45 E93.69006
G0 F7500 X116.217 Y113.45
G1 F1260 X123.118 Y106.549 E94.09581
G0 F7500 X122.552 Y106.549
G1 F1260 X115.652 Y113.45 E94.50153
G0 F7500 X115.086 Y113.45
G1 F1260 X121.987 Y106.549 E94.90729
G0 F7500 X121.421 Y106.549
G1 F1260 X114.52 Y113.45 E95.31304
G0 F7500 X113.955 Y113.45
G1 F1260 X120.855 Y106.549 E95.71876
G0 F7500 X120.29 Y106.549
G1 F1260 X113.389 Y113.45 E96.12451
G0 F7500 X112.823 Y113.45
G1 F1260 X119.724 Y106.549 E96.53027
G0 F7500 X119.158 Y106.549
G1 F1260 X112.258 Y113.45 E96.93599
G0 F7500 X111.692 Y113.45
G1 F1260 X118.593 Y106.549 E97.34174
G0 F7500 X118.027 Y106.549
G1 F1260 X111.126 Y113.45 E97.74749
G0 F7500 X110.561 Y113.45
G1 F1260 X117.461 Y106.549 E98.15322
G0 F7500 X116.896 Y106.549
G1 F1260 X109.996 Y113.449 E98.55891
G0 F7500 X109.43 Y113.449
G1 F1260 X116.33 Y106.549 E98.9646
G0 F7500 X115.764 Y106.549
G1 F1260 X108.864 Y113.449 E99.3703
G0 F7500 X108.299 Y113.449
G1 F1260 X115.199 Y106.549 E99.77599
G0 F7500 X114.633 Y106.549
G1 F1260 X107.733 Y113.449 E100.18168
G0 F7500 X107.167 Y113.449
G1 F1260 X114.067 Y106.549 E100.58738
G0 F7500 X113.501 Y106.549
G1 F1260 X106.602 Y113.449 E100.99304
G0 F7500 X106.036 Y113.449
G1 F1260 X112.936 Y106.549 E101.39874
G0 F7500 X112.37 Y106.549
G1 F1260 X105.47 Y113.449 E101.80443
G0 F7500 X104.904 Y113.449
G1 F1260 X111.804 Y106.549 E102.21012
G0 F7500 X111.239 Y106.549
G1 F1260 X104.339 Y113.449 E102.61582
G0 F7500 X103.773 Y113.449
G1 F1260 X110.673 Y106.549 E103.02151
G0 F7500 X110.107 Y106.549
G1 F1260 X103.207 Y113.449 E103.4272
G0 F7500 X102.642 Y113.449
G1 F1260 X109.542 Y106.548 E103.83293
G0 F7500 X108.977 Y106.548
G1 F1260 X102.076 Y113.449 E104.23868
G0 F7500 X101.51 Y113.449
G1 F1260 X108.411 Y106.548 E104.64443
G0 F7500 X107.845 Y106.548
G1 F1260 X100.945 Y113.449 E105.05015
G0 F7500 X100.379 Y113.449
G1 F1260 X107.28 Y106.548 E105.45591
G0 F7500 X106.714 Y106.548
G1 F1260 X99.813 Y113.449 E105.86166
G0 F7500 X99.248 Y113.449
G1 F1260 X106.148 Y106.548 E106.26738
G0 F7500 X105.583 Y106.548
G1 F1260 X98.682 Y113.449 E106.67313
G0 F7500 X98.116 Y113.449
G1 F1260 X105.017 Y106.548 E107.07889
G0 F7500 X104.451 Y106.548
G1 F1260 X97.551 Y113.449 E107.48461
G0 F7500 X96.985 Y113.449
G1 F1260 X103.886 Y106.548 E107.89036
G0 F7500 X103.32 Y106.548
G1 F1260 X96.419 Y113.449 E108.29611
G0 F7500 X95.853 Y113.449
G1 F1260 X102.754 Y106.548 E108.70187
G0 F7500 X102.188 Y106.548
G1 F1260 X95.288 Y113.449 E109.10759
G0 F7500 X94.722 Y113.449
G1 F1260 X101.623 Y106.548 E109.51334
G0 F7500 X101.057 Y106.548
G1 F1260 X94.156 Y113.449 E109.91909
G0 F7500 X93.591 Y113.449
G1 F1260 X100.491 Y106.548 E110.32482
G0 F7500 X99.926 Y106.548
G1 F1260 X93.025 Y113.449 E110.73057
G0 F7500 X92.459 Y113.449
G1 F1260 X99.36 Y106.548 E111.13632
G0 F7500 X98.794 Y106.548
G1 F1260 X91.894 Y113.449 E111.54205
G0 F7500 X91.549 Y113.228
G1 F1260 X98.229 Y106.548 E111.9348
G0 F7500 X97.663 Y106.548
G1 F1260 X91.549 Y112.662 E112.29428
G0 F7500 X91.549 Y112.096
G1 F1260 X97.097 Y106.548 E112.62048
G0 F7500 X96.532 Y106.548
