;FLAVOR:Marlin
;TIME:28577
;Filament used: 16.8265m
;Layer height: 0.2
;MINX:30.979
;MINY:74.7
;MINZ:0.3
;MAXX:150.858
;MAXY:145.3
;MAXZ:69.5
;Generated with Cura_SteamEngine 4.10.0
M140 S60
M105
M190 S60
M104 S195
M105
M109 S195
M82 ;absolute extrusion mode
G28 ;Home
G1 Z15.0 F2000 ;Move the platform
G92 E0
G92 E0
G1 F1500 E-4
;LAYER_COUNT:350
;LAYER:0
M107
M204 S1000
G0 F6000 X44.137 Y75.819 Z0.3
M204 S500
;TYPE:SKIRT
G1 F1500 E0
G1 F1200 X44.774 Y75.449 E0.03859
G1 X45.449 Y75.151 E0.07724
G1 X46.151 Y74.927 E0.11584
G1 X46.874 Y74.781 E0.15448
G1 X47.669 Y74.712 E0.19628
G1 X47.989 Y74.703 E0.21305
G1 X48.18 Y74.7 E0.22306
G1 X63.143 Y74.7 E1.00689
G1 X64.387 Y74.718 E1.07207
G1 X66.466 Y74.776 E1.18102
G1 X69.15 Y74.776 E1.32162
G1 X70.492 Y74.746 E1.39193
G1 X71.963 Y74.703 E1.46903
G1 X72.162 Y74.7 E1.47945
G1 X87.241 Y74.701 E2.26936
G1 X87.932 Y74.711 E2.30556
G1 X88.314 Y74.727 E2.32559
G1 X89.329 Y74.799 E2.37889
G1 X92.011 Y74.951 E2.51962
G1 X94.635 Y75.026 E2.65713
G1 X97.29 Y75.026 E2.79621
G1 X99.911 Y74.953 E2.93356
G1 X102.558 Y74.804 E3.07245
G1 X103.472 Y74.733 E3.12047
G1 X103.877 Y74.712 E3.14171
G1 X104.197 Y74.703 E3.15848
G1 X104.388 Y74.7 E3.16849
G1 X119.448 Y74.701 E3.9574
G1 X120.595 Y74.718 E4.0175
G1 X122.674 Y74.776 E4.12645
G1 X125.358 Y74.776 E4.26705
G1 X126.7 Y74.746 E4.33737
G1 X128.171 Y74.703 E4.41446
G1 X128.37 Y74.7 E4.42488
G1 X143.448 Y74.701 E5.21474
G1 X144.146 Y74.711 E5.25131
G1 X144.882 Y74.761 E5.28995
G1 X145.608 Y74.891 E5.32859
G1 X146.315 Y75.099 E5.36719
G1 X146.996 Y75.382 E5.40582
G1 X147.642 Y75.737 E5.44444
G1 X148.246 Y76.16 E5.48307
G1 X148.801 Y76.646 E5.52171
G1 X149.299 Y77.189 E5.56031
G1 X149.736 Y77.783 E5.59894
G1 X150.106 Y78.42 E5.63753
G1 X150.405 Y79.094 E5.67615
G1 X150.63 Y79.797 E5.71482
G1 X150.776 Y80.519 E5.75341
G1 X150.846 Y81.316 E5.79532
G1 X150.855 Y81.632 E5.81188
G1 X150.858 Y81.826 E5.82204
G1 X150.857 Y98.87 E6.71489
G1 X150.83 Y100.736 E6.81265
G1 X150.818 Y101.153 E6.8345
G1 X150.814 Y103.834 E6.97494
G1 X150.847 Y105.364 E7.05511
G1 X150.855 Y105.634 E7.06926
G1 X150.858 Y105.835 E7.07979
G1 X150.857 Y122.868 E7.97206
G1 X150.847 Y123.589 E8.00983
G1 X150.797 Y124.325 E8.04848
G1 X150.668 Y125.051 E8.0871
G1 X150.46 Y125.758 E8.12571
G1 X150.178 Y126.439 E8.16432
G1 X149.823 Y127.086 E8.20298
G1 X149.4 Y127.69 E8.24161
G1 X148.915 Y128.244 E8.28018
G1 X148.398 Y128.721 E8.31703
G1 X146.282 Y130.482 E8.46124
G1 X144.27 Y132.257 E8.60179
G1 X142.368 Y134.031 E8.73804
G1 X140.513 Y135.864 E8.87465
G1 X138.661 Y137.796 E9.01485
G1 X136.892 Y139.752 E9.153
G1 X135.245 Y141.678 E9.28575
G1 X134.282 Y142.837 E9.36469
G1 X133.781 Y143.377 E9.40328
G1 X133.224 Y143.86 E9.4419
G1 X132.618 Y144.28 E9.48052
G1 X131.97 Y144.632 E9.51915
G1 X131.288 Y144.912 E9.55777
G1 X130.58 Y145.116 E9.59637
G1 X129.853 Y145.243 E9.63503
G1 X129.262 Y145.287 E9.66608
G1 X128.937 Y145.297 E9.68311
G1 X128.728 Y145.3 E9.69406
G1 X110.447 Y145.299 E10.6517
G1 X109.743 Y145.289 E10.68859
G1 X109.008 Y145.239 E10.72718
G1 X108.596 Y145.175 E10.74902
G1 X108.478 Y145.153 E10.75531
G1 X105.759 Y144.688 E10.89981
G1 X103.199 Y144.324 E11.03526
G1 X100.552 Y144.023 E11.17482
G1 X97.911 Y143.8 E11.31366
G1 X95.296 Y143.652 E11.45086
G1 X92.674 Y143.579 E11.58827
G1 X90.019 Y143.579 E11.72735
G1 X87.396 Y143.654 E11.86481
G1 X84.753 Y143.804 E12.00349
G1 X82.132 Y144.028 E12.14129
G1 X79.532 Y144.324 E12.27837
G1 X76.927 Y144.696 E12.41622
G1 X75.417 Y144.964 E12.49655
G1 X75.086 Y145.005 E12.51402
G1 X73.991 Y145.193 E12.57223
G1 X73.031 Y145.288 E12.62276
G1 X72.712 Y145.297 E12.63948
G1 X72.52 Y145.3 E12.64954
G1 X54.239 Y145.299 E13.60718
G1 X53.54 Y145.289 E13.6438
G1 X52.804 Y145.239 E13.68245
G1 X52.078 Y145.109 E13.72108
G1 X51.371 Y144.901 E13.75969
G1 X50.69 Y144.618 E13.79832
G1 X50.044 Y144.263 E13.83693
G1 X49.44 Y143.84 E13.87556
G1 X48.885 Y143.354 E13.91421
G1 X48.387 Y142.811 E13.9528
G1 X47.95 Y142.218 E13.99139
G1 X47.58 Y141.58 E14.03003
G1 X47.166 Y140.58 E14.08672
G1 X47.022 Y140.13 E14.11147
G1 X46.441 Y138.239 E14.2151
G1 X45.582 Y135.701 E14.35546
G1 X44.679 Y133.261 E14.49175
G1 X43.686 Y130.795 E14.63102
G1 X42.628 Y128.371 E14.76956
G1 X41.905 Y126.831 E14.85868
G1 X41.668 Y126.309 E14.88872
G1 X41.4 Y125.622 E14.92735
G1 X41.208 Y124.91 E14.96598
G1 X41.094 Y124.182 E15.00458
G1 X41.063 Y123.705 E15.02962
G1 X41.053 Y123.377 E15.04681
G1 X41.05 Y123.17 E15.05765
G1 X41.051 Y106.11 E15.95133
G1 X41.078 Y104.264 E16.04805
G1 X41.09 Y103.847 E16.0699
G1 X41.094 Y101.166 E16.21034
G1 X41.061 Y99.636 E16.29051
G1 X41.053 Y99.366 E16.30466
G1 X41.05 Y99.165 E16.31519
G1 X41.051 Y82.072 E17.2106
G1 X41.061 Y81.407 E17.24544
G1 X41.112 Y80.671 E17.28409
G1 X41.242 Y79.946 E17.32268
G1 X41.45 Y79.238 E17.36133
G1 X41.734 Y78.558 E17.39994
G1 X42.089 Y77.912 E17.43855
G1 X42.513 Y77.308 E17.47721
G1 X42.999 Y76.754 E17.51581
G1 X43.542 Y76.256 E17.55441
G1 X44.137 Y75.819 E17.59308
M204 S1000
G0 F6000 X44.518 Y76.051
M204 S500
G1 F1200 X45.148 Y75.712 E17.63056
G1 X45.812 Y75.446 E17.66803
G1 X46.501 Y75.255 E17.70548
G1 X47.208 Y75.142 E17.74299
G1 X47.68 Y75.112 E17.76776
G1 X48.18 Y75.1 E17.79396
G1 X63.143 Y75.1 E18.5778
G1 X64.375 Y75.117 E18.64234
G1 X66.49 Y75.176 E18.75318
G1 X69.159 Y75.176 E18.89299
G1 X70.507 Y75.146 E18.96362
G1 X71.975 Y75.103 E19.04056
G1 X72.162 Y75.1 E19.05036
G1 X87.236 Y75.101 E19.84
G1 X87.927 Y75.111 E19.8762
G1 X88.286 Y75.126 E19.89503
G1 X89.281 Y75.196 E19.94728
G1 X92.012 Y75.351 E20.09057
G1 X94.623 Y75.426 E20.2274
G1 X97.266 Y75.426 E20.36586
G1 X99.944 Y75.351 E20.5062
G1 X102.612 Y75.201 E20.64618
G1 X103.496 Y75.132 E20.69263
G1 X103.888 Y75.112 E20.71319
G1 X104.388 Y75.1 E20.73939
G1 X119.442 Y75.101 E21.52799
G1 X120.583 Y75.117 E21.58777
G1 X122.698 Y75.176 E21.69861
G1 X125.367 Y75.176 E21.83842
G1 X126.715 Y75.146 E21.90905
G1 X128.183 Y75.103 E21.98599
G1 X128.37 Y75.1 E21.99578
G1 X143.443 Y75.101 E22.78538
G1 X144.141 Y75.111 E22.82195
G1 X144.854 Y75.161 E22.85939
G1 X145.558 Y75.29 E22.89688
G1 X146.242 Y75.498 E22.93433
G1 X146.899 Y75.78 E22.97179
G1 X147.521 Y76.134 E23.00928
G1 X148.099 Y76.555 E23.04673
G1 X148.627 Y77.038 E23.08422
G1 X149.097 Y77.576 E23.12164
G1 X149.505 Y78.164 E23.15913
G1 X149.844 Y78.794 E23.19661
G1 X150.111 Y79.457 E23.23405
G1 X150.302 Y80.147 E23.27156
G1 X150.415 Y80.853 E23.30901
G1 X150.446 Y81.328 E23.33395
G1 X150.458 Y81.826 E23.36004
G1 X150.457 Y98.865 E24.25263
G1 X150.43 Y100.724 E24.35002
G1 X150.418 Y101.141 E24.37187
G1 X150.414 Y103.799 E24.51111
G1 X150.458 Y105.835 E24.61779
G1 X150.457 Y122.863 E25.5098
G1 X150.447 Y123.584 E25.54757
G1 X150.398 Y124.297 E25.58501
G1 X150.268 Y125.001 E25.62251
G1 X150.061 Y125.685 E25.65995
G1 X149.779 Y126.343 E25.69745
G1 X149.426 Y126.965 E25.73491
G1 X149.005 Y127.543 E25.77237
G1 X148.523 Y128.071 E25.80982
G1 X148.142 Y128.414 E25.83668
G1 X146.025 Y130.176 E25.98096
G1 X144.017 Y131.948 E26.12125
G1 X142.08 Y133.754 E26.25999
G1 X140.207 Y135.604 E26.39789
G1 X138.358 Y137.534 E26.53791
G1 X136.608 Y139.469 E26.67458
G1 X134.964 Y141.391 E26.80707
G1 X133.975 Y142.581 E26.88812
G1 X133.488 Y143.105 E26.9256
G1 X132.945 Y143.571 E26.96308
G1 X132.354 Y143.973 E27.00052
G1 X131.721 Y144.307 E27.03802
G1 X131.056 Y144.569 E27.07546
G1 X130.365 Y144.754 E27.11293
G1 X129.658 Y144.861 E27.15039
G1 X129.25 Y144.887 E27.17181
G1 X128.925 Y144.897 E27.18884
G1 X128.728 Y144.9 E27.19916
G1 X110.453 Y144.899 E28.15649
G1 X109.749 Y144.889 E28.19337
G1 X109.036 Y144.839 E28.23081
G1 X108.669 Y144.782 E28.25027
G1 X108.471 Y144.745 E28.26082
G1 X105.846 Y144.296 E28.40033
G1 X103.234 Y143.925 E28.53853
G1 X100.597 Y143.625 E28.67756
G1 X97.966 Y143.402 E28.81588
G1 X95.329 Y143.254 E28.95424
G1 X92.65 Y143.179 E29.09463
G1 X90.007 Y143.179 E29.23308
G1 X87.397 Y143.254 E29.36986
G1 X84.732 Y143.405 E29.50969
G1 X82.089 Y143.631 E29.64865
G1 X79.462 Y143.93 E29.78715
G1 X76.861 Y144.301 E29.92478
G1 X75.347 Y144.57 E30.00534
G1 X75.018 Y144.61 E30.0227
G1 X73.924 Y144.798 E30.08085
G1 X73.019 Y144.888 E30.12849
G1 X72.52 Y144.9 E30.15464
G1 X54.244 Y144.899 E31.11202
G1 X53.545 Y144.889 E31.14864
G1 X52.832 Y144.839 E31.18608
G1 X52.129 Y144.71 E31.22352
G1 X51.444 Y144.503 E31.26101
G1 X50.787 Y144.22 E31.29848
G1 X50.165 Y143.866 E31.33597
G1 X49.587 Y143.445 E31.37343
G1 X49.059 Y142.963 E31.41088
G1 X48.589 Y142.424 E31.44835
G1 X48.181 Y141.836 E31.48584
G1 X47.842 Y141.206 E31.52331
G1 X47.547 Y140.457 E31.56548
G1 X47.404 Y140.013 E31.58992
G1 X46.813 Y138.089 E31.69536
G1 X45.964 Y135.581 E31.83406
G1 X45.049 Y133.109 E31.97214
G1 X44.055 Y130.64 E32.11157
G1 X42.999 Y128.221 E32.24983
G1 X42.27 Y126.666 E32.3398
G1 X42.033 Y126.144 E32.36983
G1 X41.774 Y125.477 E32.40731
G1 X41.591 Y124.786 E32.44476
G1 X41.486 Y124.078 E32.48225
G1 X41.463 Y123.693 E32.50246
G1 X41.453 Y123.365 E32.51965
G1 X41.45 Y123.17 E32.52986
G1 X41.451 Y106.115 E33.42328
G1 X41.478 Y104.276 E33.51963
G1 X41.49 Y103.859 E33.54148
G1 X41.494 Y101.201 E33.68072
G1 X41.45 Y99.165 E33.7874
G1 X41.451 Y82.078 E34.6825
G1 X41.461 Y81.413 E34.71734
G1 X41.511 Y80.699 E34.75483
G1 X41.641 Y79.996 E34.79229
G1 X41.849 Y79.312 E34.82974
G1 X42.132 Y78.655 E34.86721
G1 X42.486 Y78.033 E34.9047
G1 X42.908 Y77.455 E34.94219
G1 X43.391 Y76.928 E34.97964
G1 X43.93 Y76.458 E35.0171
G1 X44.518 Y76.051 E35.05456
M204 S1000
G0 F6000 X44.316 Y76.667
M204 S500
G1 F1200 X44.898 Y76.291 E35.09086
G1 X45.519 Y75.985 E35.12712
G1 X46.171 Y75.752 E35.16339
G1 X46.845 Y75.595 E35.19965
G1 X47.691 Y75.511 E35.24418
G1 X48.011 Y75.502 E35.26095
G1 X48.18 Y75.5 E35.26981
G1 X63.143 Y75.5 E36.05364
G1 X64.364 Y75.517 E36.11761
G1 X66.479 Y75.576 E36.22844
G1 X69.123 Y75.576 E36.36695
G1 X70.557 Y75.545 E36.44209
G1 X71.987 Y75.503 E36.51703
G1 X72.162 Y75.5 E36.5262
G1 X87.23 Y75.501 E37.31553
G1 X87.921 Y75.511 E37.35173
G1 X88.258 Y75.525 E37.3694
G1 X89.304 Y75.599 E37.42433
G1 X91.941 Y75.748 E37.56269
G1 X94.647 Y75.826 E37.7045
G1 X97.277 Y75.826 E37.84227
G1 X99.943 Y75.751 E37.98199
G1 X102.622 Y75.601 E38.12255
G1 X103.521 Y75.531 E38.16978
G1 X103.899 Y75.511 E38.18961
G1 X104.219 Y75.502 E38.20638
G1 X104.388 Y75.5 E38.21523
G1 X119.436 Y75.501 E39.00352
G1 X120.572 Y75.517 E39.06303
G1 X122.687 Y75.576 E39.17387
G1 X125.331 Y75.576 E39.31238
G1 X126.765 Y75.545 E39.38751
G1 X128.195 Y75.503 E39.46246
G1 X128.37 Y75.5 E39.47162
G1 X143.437 Y75.501 E40.2609
G1 X144.135 Y75.511 E40.29747
G1 X144.826 Y75.56 E40.33376
G1 X145.506 Y75.69 E40.37003
G1 X146.167 Y75.896 E40.4063
G1 X146.8 Y76.178 E40.4426
G1 X147.396 Y76.53 E40.47886
G1 X147.947 Y76.949 E40.51512
G1 X148.447 Y77.429 E40.55143
G1 X148.888 Y77.963 E40.58771
G1 X149.265 Y78.544 E40.62399
G1 X149.572 Y79.165 E40.66028
G1 X149.805 Y79.817 E40.69655
G1 X149.962 Y80.491 E40.7328
G1 X150.047 Y81.339 E40.77745
G1 X150.056 Y81.655 E40.79401
G1 X150.058 Y81.826 E40.80296
G1 X150.057 Y98.859 E41.69523
G1 X150.03 Y100.712 E41.79231
G1 X150.018 Y101.109 E41.81312
G1 X150.014 Y103.807 E41.95445
G1 X150.048 Y105.437 E42.03986
G1 X150.058 Y105.835 E42.06071
G1 X150.057 Y122.857 E42.95241
G1 X150.047 Y123.578 E42.99018
G1 X149.998 Y124.269 E43.02647
G1 X149.869 Y124.949 E43.06273
G1 X149.663 Y125.61 E43.09899
G1 X149.382 Y126.243 E43.13527
G1 X149.029 Y126.84 E43.17161
G1 X148.611 Y127.391 E43.20784
G1 X147.886 Y128.107 E43.26121
G1 X145.75 Y129.885 E43.4068
G1 X143.743 Y131.656 E43.54702
G1 X141.809 Y133.46 E43.68556
G1 X139.92 Y135.326 E43.82465
G1 X138.071 Y137.254 E43.96459
G1 X136.308 Y139.204 E44.1023
G1 X134.637 Y141.158 E44.23699
G1 X133.667 Y142.325 E44.31648
G1 X133.195 Y142.831 E44.35273
G1 X132.667 Y143.28 E44.38904
G1 X132.091 Y143.664 E44.4253
G1 X131.474 Y143.98 E44.46161
G1 X130.826 Y144.222 E44.49785
G1 X130.153 Y144.388 E44.53416
G1 X129.238 Y144.487 E44.58237
G1 X128.913 Y144.497 E44.5994
G1 X128.728 Y144.5 E44.6091
G1 X110.459 Y144.499 E45.56611
G1 X109.755 Y144.489 E45.603
G1 X108.743 Y144.389 E45.65627
G1 X108.559 Y144.355 E45.66607
G1 X105.898 Y143.9 E45.80749
G1 X103.298 Y143.53 E45.94506
G1 X100.64 Y143.228 E46.0852
G1 X97.986 Y143.003 E46.22472
G1 X95.328 Y142.854 E46.36418
G1 X92.661 Y142.779 E46.50395
G1 X90.031 Y142.779 E46.64172
G1 X87.326 Y142.857 E46.78348
G1 X84.711 Y143.005 E46.92068
G1 X82.046 Y143.233 E47.0608
G1 X79.432 Y143.53 E47.19861
G1 X76.791 Y143.907 E47.33836
G1 X75.277 Y144.176 E47.41891
G1 X74.967 Y144.213 E47.43527
G1 X73.856 Y144.404 E47.49432
G1 X73.008 Y144.489 E47.53897
G1 X72.689 Y144.498 E47.55568
G1 X72.52 Y144.5 E47.56454
G1 X54.25 Y144.499 E48.52161
G1 X53.551 Y144.489 E48.55823
G1 X52.86 Y144.44 E48.59452
G1 X52.18 Y144.31 E48.63078
G1 X51.519 Y144.104 E48.66705
G1 X50.886 Y143.822 E48.70335
G1 X50.29 Y143.47 E48.73961
G1 X49.739 Y143.051 E48.77587
G1 X49.239 Y142.571 E48.81218
G1 X48.798 Y142.037 E48.84846
G1 X48.422 Y141.456 E48.88472
G1 X48.114 Y140.836 E48.92098
G1 X47.928 Y140.334 E48.94903
G1 X47.786 Y139.895 E48.9732
G1 X47.191 Y137.958 E49.07934
G1 X46.342 Y135.451 E49.218
G1 X45.424 Y132.969 E49.35663
G1 X44.429 Y130.497 E49.49622
G1 X43.356 Y128.039 E49.63671
G1 X42.634 Y126.5 E49.72576
G1 X42.397 Y125.978 E49.75579
G1 X42.147 Y125.332 E49.79208
G1 X41.974 Y124.662 E49.82833
G1 X41.863 Y123.681 E49.88005
G1 X41.853 Y123.353 E49.89724
G1 X41.85 Y123.17 E49.90683
G1 X41.851 Y106.121 E50.79993
G1 X41.878 Y104.288 E50.89596
G1 X41.89 Y103.872 E50.91776
G1 X41.894 Y101.193 E51.0581
G1 X41.86 Y99.563 E51.14351
G1 X41.85 Y99.165 E51.16436
G1 X41.851 Y82.084 E52.05915
G1 X41.861 Y81.419 E52.09399
G1 X41.911 Y80.728 E52.13028
G1 X42.041 Y80.048 E52.16655
G1 X42.248 Y79.387 E52.20283
G1 X42.53 Y78.754 E52.23913
G1 X42.883 Y78.159 E52.27537
G1 X43.302 Y77.607 E52.31168
G1 X43.782 Y77.108 E52.34795
G1 X44.316 Y76.667 E52.38423
M204 S1000
G0 F6000 X44.701 Y76.885
M204 S500
G1 F1200 X45.275 Y76.542 E52.41926
G1 X45.885 Y76.269 E52.45426
G1 X46.524 Y76.071 E52.48931
G1 X47.183 Y75.95 E52.52441
G1 X47.703 Y75.911 E52.55172
G1 X48.023 Y75.902 E52.56849
G1 X48.18 Y75.9 E52.57672
G1 X63.143 Y75.9 E53.36055
G1 X64.353 Y75.917 E53.42394
G1 X66.468 Y75.976 E53.53478
G1 X69.132 Y75.976 E53.67433
G1 X70.546 Y75.944 E53.74842
G1 X71.998 Y75.902 E53.82452
G1 X72.162 Y75.9 E53.83311
G1 X87.224 Y75.901 E54.62213
G1 X87.915 Y75.911 E54.65833
G1 X88.23 Y75.924 E54.67485
G1 X89.252 Y75.996 E54.72851
G1 X91.945 Y76.149 E54.86981
G1 X94.635 Y76.226 E55.01079
G1 X97.289 Y76.226 E55.14982
G1 X99.975 Y76.151 E55.29058
G1 X102.631 Y76.001 E55.42993
G1 X103.546 Y75.931 E55.478
G1 X103.911 Y75.911 E55.49715
G1 X104.231 Y75.902 E55.51392
G1 X104.388 Y75.9 E55.52215
G1 X119.431 Y75.901 E56.31017
G1 X120.561 Y75.917 E56.36937
G1 X122.676 Y75.976 E56.48021
G1 X125.34 Y75.976 E56.61976
G1 X126.754 Y75.944 E56.69385
G1 X128.206 Y75.902 E56.76995
G1 X128.37 Y75.9 E56.77854
G1 X143.431 Y75.901 E57.5675
G1 X144.129 Y75.911 E57.60407
G1 X144.796 Y75.96 E57.63911
G1 X145.453 Y76.089 E57.67418
G1 X146.089 Y76.295 E57.7092
G1 X146.697 Y76.576 E57.74429
G1 X147.266 Y76.926 E57.77928
G1 X147.79 Y77.343 E57.81436
G1 X148.26 Y77.819 E57.84941
G1 X148.67 Y78.347 E57.88443
G1 X149.015 Y78.921 E57.91951
G1 X149.288 Y79.532 E57.95456
G1 X149.486 Y80.171 E57.98961
G1 X149.607 Y80.829 E58.02466
G1 X149.647 Y81.351 E58.05208
G1 X149.656 Y81.667 E58.06864
G1 X149.658 Y81.826 E58.07697
G1 X149.657 Y98.853 E58.96892
G1 X149.631 Y100.701 E59.06574
G1 X149.618 Y101.153 E59.08943
G1 X149.614 Y103.815 E59.22888
G1 X149.648 Y105.399 E59.31187
G1 X149.656 Y105.669 E59.32602
G1 X149.658 Y105.835 E59.33472
G1 X149.657 Y122.852 E60.22615
G1 X149.647 Y123.573 E60.26392
G1 X149.598 Y124.24 E60.29896
G1 X149.47 Y124.896 E60.33397
G1 X149.264 Y125.533 E60.36904
G1 X148.984 Y126.141 E60.40411
G1 X148.633 Y126.71 E60.43913
G1 X148.217 Y127.234 E60.47418
G1 X147.631 Y127.799 E60.51682
G1 X145.479 Y129.59 E60.66348
G1 X143.488 Y131.346 E60.80255
G1 X141.537 Y133.166 E60.94232
G1 X139.634 Y135.047 E61.08249
G1 X137.786 Y136.975 E61.22239
G1 X135.99 Y138.96 E61.36262
G1 X134.384 Y140.838 E61.49206
