;FLAVOR:Marlin
;TIME:1751
;Filament used: 1.46099m
;Layer height: 0.3
;MINX:97.614
;MINY:90.8
;MINZ:0.3
;MAXX:129.214
;MAXY:129.2
;MAXZ:27.6
;Generated with Cura_SteamEngine 4.10.0
M140 S65
M105
M190 S65
M104 S205
M105
M109 S205
M82 ;absolute extrusion mode
G28 ;Home
G1 Z15.0 F2000 ;Move the platform
G92 E0
G92 E0
G1 F1500 E-6.5
;LAYER_COUNT:93
;LAYER:0
M107
M204 S1000
G0 F7500 X99.494 Y93.522 Z0.3
;TYPE:SKIRT
G1 F1500 E0
G1 X100.037 Y92.949 E0.03938
G1 X100.636 Y92.434 E0.0788
G1 X101.284 Y91.983 E0.11818
G1 X101.975 Y91.599 E0.15762
G1 X102.7 Y91.287 E0.197
G1 X103.453 Y91.05 E0.23638
G1 X104.227 Y90.891 E0.27581
G1 X105.012 Y90.81 E0.31518
G1 X105.414 Y90.8 E0.33524
G1 X111.814 Y90.8 E0.65454
G1 X112.603 Y90.84 E0.69395
G1 X113.383 Y90.959 E0.73332
G1 X113.433 Y90.972 E0.73589
G1 X113.827 Y90.891 E0.75596
G1 X114.612 Y90.81 E0.79533
G1 X115.014 Y90.8 E0.81539
G1 X121.414 Y90.8 E1.13469
G1 X122.203 Y90.84 E1.17411
G1 X122.983 Y90.959 E1.21347
G1 X123.748 Y91.157 E1.25289
G1 X124.488 Y91.431 E1.29226
G1 X125.197 Y91.779 E1.33167
G1 X125.868 Y92.197 E1.37111
G1 X126.492 Y92.68 E1.41047
G1 X127.065 Y93.223 E1.44986
G1 X127.58 Y93.822 E1.48927
G1 X128.031 Y94.47 E1.52866
G1 X128.415 Y95.161 E1.5681
G1 X128.727 Y95.886 E1.60747
G1 X128.964 Y96.639 E1.64686
G1 X129.123 Y97.413 E1.68628
G1 X129.204 Y98.198 E1.72565
G1 X129.214 Y98.6 E1.74571
G1 X129.214 Y105.8 E2.10492
G1 X129.174 Y106.589 E2.14434
G1 X129.115 Y106.975 E2.16382
G1 X129.123 Y107.013 E2.16576
G1 X129.204 Y107.798 E2.20513
G1 X129.214 Y108.2 E2.22519
G1 X129.214 Y115.4 E2.5844
G1 X129.174 Y116.189 E2.62381
G1 X129.055 Y116.969 E2.66318
G1 X128.857 Y117.734 E2.7026
G1 X128.583 Y118.474 E2.74197
G1 X128.235 Y119.183 E2.78137
G1 X127.817 Y119.854 E2.82081
G1 X127.334 Y120.478 E2.86018
G1 X126.791 Y121.051 E2.89957
G1 X126.192 Y121.566 E2.93898
G1 X125.544 Y122.017 E2.97836
G1 X124.853 Y122.401 E3.0178
G1 X124.128 Y122.713 E3.05718
G1 X123.375 Y122.95 E3.09657
G1 X123.042 Y123.018 E3.11352
G1 X122.857 Y123.734 E3.15042
G1 X122.583 Y124.474 E3.18979
G1 X122.235 Y125.183 E3.22919
G1 X121.817 Y125.854 E3.26863
G1 X121.334 Y126.478 E3.308
G1 X120.791 Y127.051 E3.34738
G1 X120.192 Y127.566 E3.38679
G1 X119.544 Y128.017 E3.42618
G1 X118.853 Y128.401 E3.46562
G1 X118.128 Y128.713 E3.505
G1 X117.375 Y128.95 E3.54438
G1 X116.601 Y129.109 E3.5838
G1 X115.816 Y129.19 E3.62317
G1 X115.414 Y129.2 E3.64324
G1 X107.636 Y129.2 E4.03128
G1 X106.847 Y129.16 E4.0707
G1 X106.067 Y129.041 E4.11006
G1 X105.302 Y128.843 E4.14948
G1 X104.562 Y128.569 E4.18885
G1 X103.853 Y128.221 E4.22826
G1 X103.182 Y127.803 E4.2677
G1 X102.558 Y127.32 E4.30707
G1 X101.985 Y126.777 E4.34645
G1 X101.47 Y126.178 E4.38586
G1 X101.019 Y125.53 E4.42525
G1 X100.635 Y124.839 E4.46469
G1 X100.323 Y124.114 E4.50407
G1 X100.086 Y123.361 E4.54345
G1 X99.927 Y122.587 E4.58287
G1 X99.846 Y121.802 E4.62224
G1 X99.836 Y121.402 E4.64221
G1 X99.836 Y120.846 E4.66994
G1 X99.763 Y120.777 E4.67496
G1 X99.248 Y120.178 E4.71437
G1 X98.797 Y119.53 E4.75375
G1 X98.413 Y118.839 E4.79319
G1 X98.101 Y118.114 E4.83257
G1 X97.864 Y117.361 E4.87196
G1 X97.705 Y116.587 E4.91138
G1 X97.624 Y115.802 E4.95075
G1 X97.614 Y115.4 E4.97081
G1 X97.614 Y108.2 E5.33002
G1 X97.654 Y107.411 E5.36943
G1 X97.713 Y107.025 E5.38892
G1 X97.705 Y106.987 E5.39085
G1 X97.624 Y106.202 E5.43022
G1 X97.614 Y105.8 E5.45029
G1 X97.614 Y98.6 E5.8095
G1 X97.654 Y97.811 E5.84891
G1 X97.773 Y97.031 E5.88827
G1 X97.971 Y96.266 E5.9277
G1 X98.245 Y95.526 E5.96707
G1 X98.593 Y94.817 E6.00647
G1 X99.011 Y94.146 E6.04591
G1 X99.494 Y93.522 E6.08528
G0 F7500 X99.889 Y93.677
G1 F1500 X100.43 Y93.13 E6.12366
G1 X101.025 Y92.642 E6.16205
G1 X101.667 Y92.219 E6.20041
G1 X102.35 Y91.864 E6.23881
G1 X103.065 Y91.583 E6.27714
G1 X103.807 Y91.377 E6.31556
G1 X104.565 Y91.249 E6.35391
G1 X105.414 Y91.2 E6.39634
G1 X111.814 Y91.2 E6.71564
G1 X112.582 Y91.24 E6.754
G1 X113.342 Y91.359 E6.79238
G1 X113.409 Y91.377 E6.79584
G1 X114.165 Y91.249 E6.8341
G1 X115.014 Y91.2 E6.87652
G1 X121.414 Y91.2 E7.19582
G1 X122.182 Y91.24 E7.23419
G1 X122.942 Y91.359 E7.27257
G1 X123.685 Y91.557 E7.31093
G1 X124.404 Y91.831 E7.34932
G1 X125.09 Y92.178 E7.38767
G1 X125.737 Y92.594 E7.42605
G1 X126.337 Y93.075 E7.46441
G1 X126.884 Y93.616 E7.50279
G1 X127.372 Y94.211 E7.54119
G1 X127.795 Y94.853 E7.57954
G1 X128.15 Y95.536 E7.61795
G1 X128.431 Y96.251 E7.65627
G1 X128.637 Y96.993 E7.69469
G1 X128.765 Y97.751 E7.73304
G1 X128.814 Y98.6 E7.77547
G1 X128.814 Y105.8 E8.13468
G1 X128.774 Y106.568 E8.17305
G1 X128.706 Y107.002 E8.19497
G1 X128.765 Y107.351 E8.21262
G1 X128.814 Y108.2 E8.25505
G1 X128.814 Y115.4 E8.61426
G1 X128.774 Y116.168 E8.65263
G1 X128.655 Y116.928 E8.69101
G1 X128.457 Y117.671 E8.72937
G1 X128.183 Y118.39 E8.76776
G1 X127.836 Y119.076 E8.80611
G1 X127.42 Y119.723 E8.84449
G1 X126.939 Y120.323 E8.88285
G1 X126.398 Y120.87 E8.92123
G1 X125.803 Y121.358 E8.95963
G1 X125.161 Y121.781 E8.99798
G1 X124.478 Y122.136 E9.03639
G1 X123.763 Y122.417 E9.07471
G1 X123.021 Y122.623 E9.11313
G1 X122.694 Y122.678 E9.12968
G1 X122.655 Y122.928 E9.1423
G1 X122.457 Y123.671 E9.18066
G1 X122.183 Y124.39 E9.21905
G1 X121.836 Y125.076 E9.2574
G1 X121.42 Y125.723 E9.29578
G1 X120.939 Y126.323 E9.33414
G1 X120.398 Y126.87 E9.37253
G1 X119.803 Y127.358 E9.41092
G1 X119.161 Y127.781 E9.44927
G1 X118.478 Y128.136 E9.48768
G1 X117.763 Y128.417 E9.52601
G1 X117.021 Y128.623 E9.56442
G1 X116.263 Y128.751 E9.60278
G1 X115.414 Y128.8 E9.6452
G1 X107.636 Y128.8 E10.03325
G1 X106.868 Y128.76 E10.07162
G1 X106.108 Y128.641 E10.11
G1 X105.365 Y128.443 E10.14836
G1 X104.646 Y128.169 E10.18674
G1 X103.96 Y127.822 E10.2251
G1 X103.313 Y127.406 E10.26347
G1 X102.713 Y126.925 E10.30184
G1 X102.166 Y126.384 E10.34022
G1 X101.678 Y125.789 E10.37861
G1 X101.255 Y125.147 E10.41697
G1 X100.9 Y124.464 E10.45537
G1 X100.619 Y123.749 E10.4937
G1 X100.413 Y123.007 E10.53212
G1 X100.285 Y122.249 E10.57047
G1 X100.236 Y121.402 E10.6128
G1 X100.236 Y120.673 E10.64917
G1 X99.944 Y120.384 E10.66967
G1 X99.456 Y119.789 E10.70806
G1 X99.033 Y119.147 E10.74642
G1 X98.678 Y118.464 E10.78482
G1 X98.397 Y117.749 E10.82315
G1 X98.191 Y117.007 E10.86156
G1 X98.063 Y116.249 E10.89992
G1 X98.014 Y115.4 E10.94234
G1 X98.014 Y108.2 E11.30155
G1 X98.054 Y107.432 E11.33992
G1 X98.122 Y106.998 E11.36184
G1 X98.063 Y106.649 E11.3795
G1 X98.014 Y105.8 E11.42192
G1 X98.014 Y98.6 E11.78113
G1 X98.054 Y97.832 E11.8195
G1 X98.173 Y97.072 E11.85788
G1 X98.371 Y96.329 E11.89624
G1 X98.645 Y95.61 E11.93463
G1 X98.992 Y94.924 E11.97298
G1 X99.408 Y94.277 E12.01136
G1 X99.889 Y93.677 E12.04972
G0 F7500 X100.285 Y93.837
G1 F1500 X100.822 Y93.316 E12.08705
G1 X101.412 Y92.857 E12.12435
G1 X102.048 Y92.462 E12.1617
G1 X102.722 Y92.138 E12.19901
G1 X103.427 Y91.888 E12.23633
G1 X104.155 Y91.714 E12.27367
G1 X104.897 Y91.619 E12.31099
G1 X105.414 Y91.6 E12.3368
G1 X111.814 Y91.6 E12.6561
G1 X112.561 Y91.64 E12.69342
G1 X113.299 Y91.759 E12.73071
G1 X113.424 Y91.793 E12.73718
G1 X113.755 Y91.714 E12.75415
G1 X114.497 Y91.619 E12.79147
G1 X115.014 Y91.6 E12.81728
G1 X121.414 Y91.6 E13.13658
G1 X122.161 Y91.64 E13.1739
G1 X122.899 Y91.759 E13.2112
G1 X123.621 Y91.957 E13.24855
G1 X124.317 Y92.23 E13.28585
G1 X124.98 Y92.577 E13.32318
G1 X125.603 Y92.992 E13.36053
G1 X126.177 Y93.471 E13.39783
G1 X126.698 Y94.008 E13.43515
G1 X127.157 Y94.598 E13.47245
G1 X127.552 Y95.234 E13.5098
G1 X127.876 Y95.908 E13.54711
G1 X128.126 Y96.613 E13.58443
G1 X128.3 Y97.341 E13.62177
G1 X128.395 Y98.083 E13.65909
G1 X128.414 Y98.6 E13.6849
G1 X128.414 Y105.8 E14.04411
G1 X128.374 Y106.547 E14.08143
G1 X128.305 Y106.977 E14.10316
G1 X128.395 Y107.683 E14.13867
G1 X128.414 Y108.2 E14.16448
G1 X128.414 Y115.4 E14.52369
G1 X128.374 Y116.147 E14.56101
G1 X128.255 Y116.885 E14.5983
G1 X128.057 Y117.607 E14.63565
G1 X127.784 Y118.303 E14.67295
G1 X127.437 Y118.966 E14.71029
G1 X127.022 Y119.589 E14.74763
G1 X126.543 Y120.163 E14.78493
G1 X126.006 Y120.684 E14.82226
G1 X125.416 Y121.143 E14.85955
G1 X124.78 Y121.538 E14.89691
G1 X124.106 Y121.862 E14.93421
G1 X123.401 Y122.112 E14.97153
G1 X122.673 Y122.286 E15.00888
G1 X122.345 Y122.328 E15.02537
G1 X122.255 Y122.885 E15.05352
G1 X122.057 Y123.607 E15.09087
G1 X121.784 Y124.303 E15.12817
G1 X121.437 Y124.966 E15.16551
G1 X121.022 Y125.589 E15.20285
G1 X120.543 Y126.163 E15.24015
G1 X120.006 Y126.684 E15.27748
G1 X119.416 Y127.143 E15.31477
G1 X118.78 Y127.538 E15.35212
G1 X118.106 Y127.862 E15.38943
G1 X117.401 Y128.112 E15.42675
G1 X116.673 Y128.286 E15.4641
G1 X115.931 Y128.381 E15.50142
G1 X115.414 Y128.4 E15.52723
G1 X107.636 Y128.4 E15.91527
G1 X106.889 Y128.36 E15.95259
G1 X106.151 Y128.241 E15.98989
G1 X105.429 Y128.043 E16.02724
G1 X104.733 Y127.77 E16.06454
G1 X104.07 Y127.423 E16.10187
G1 X103.447 Y127.008 E16.13922
G1 X102.873 Y126.529 E16.17652
G1 X102.352 Y125.992 E16.21385
G1 X101.893 Y125.402 E16.25114
G1 X101.498 Y124.766 E16.28849
G1 X101.174 Y124.092 E16.3258
G1 X100.924 Y123.387 E16.36312
G1 X100.75 Y122.659 E16.40046
G1 X100.655 Y121.917 E16.43778
G1 X100.636 Y121.402 E16.46349
G1 X100.636 Y120.513 E16.50785
G1 X100.13 Y119.992 E16.54408
G1 X99.671 Y119.402 E16.58137
G1 X99.276 Y118.766 E16.61873
G1 X98.952 Y118.092 E16.65604
G1 X98.702 Y117.387 E16.69335
G1 X98.528 Y116.659 E16.7307
G1 X98.433 Y115.917 E16.76802
G1 X98.414 Y115.4 E16.79383
G1 X98.414 Y108.2 E17.15304
G1 X98.454 Y107.453 E17.19036
G1 X98.523 Y107.023 E17.21209
G1 X98.433 Y106.317 E17.24759
G1 X98.414 Y105.8 E17.2734
G1 X98.414 Y98.6 E17.63261
G1 X98.454 Y97.853 E17.66994
G1 X98.573 Y97.115 E17.70723
G1 X98.771 Y96.393 E17.74458
G1 X99.044 Y95.697 E17.78188
G1 X99.391 Y95.034 E17.81921
G1 X99.806 Y94.411 E17.85656
G1 X100.285 Y93.837 E17.89386
G0 F7500 X100.203 Y94.55
G1 F1500 X100.679 Y94.002 E17.93007
G1 X101.213 Y93.509 E17.96633
G1 X101.798 Y93.079 E18.00255
G1 X102.427 Y92.715 E18.03881
G1 X103.092 Y92.422 E18.07506
G1 X103.785 Y92.204 E18.11131
G1 X104.497 Y92.064 E18.14751
G1 X105.414 Y92 E18.19337
G1 X111.814 Y92 E18.51267
G1 X112.539 Y92.04 E18.54889
G1 X113.256 Y92.159 E18.58515
G1 X113.403 Y92.201 E18.59278
G1 X114.097 Y92.064 E18.62807
G1 X115.014 Y92 E18.67393
G1 X121.414 Y92 E18.99323
G1 X122.139 Y92.04 E19.02946
G1 X122.856 Y92.159 E19.06572
G1 X123.555 Y92.357 E19.10196
G1 X124.228 Y92.63 E19.1382
G1 X124.867 Y92.975 E19.17443
G1 X125.464 Y93.389 E19.21067
G1 X126.012 Y93.865 E19.24688
G1 X126.505 Y94.399 E19.28314
G1 X126.935 Y94.984 E19.31937
G1 X127.299 Y95.613 E19.35562
G1 X127.592 Y96.278 E19.39188
G1 X127.81 Y96.971 E19.42812
G1 X127.95 Y97.683 E19.46432
G1 X128.014 Y98.6 E19.51018
G1 X128.014 Y105.8 E19.86939
G1 X127.974 Y106.525 E19.90562
G1 X127.895 Y107.002 E19.92974
G1 X127.95 Y107.283 E19.94403
G1 X128.014 Y108.2 E19.98989
G1 X128.014 Y115.4 E20.3491
G1 X127.974 Y116.125 E20.38532
G1 X127.855 Y116.842 E20.42158
G1 X127.657 Y117.541 E20.45783
G1 X127.384 Y118.214 E20.49406
G1 X127.039 Y118.853 E20.53029
G1 X126.625 Y119.45 E20.56653
G1 X126.149 Y119.998 E20.60275
G1 X125.615 Y120.491 E20.63901
G1 X125.03 Y120.921 E20.67523
G1 X124.401 Y121.285 E20.71149
G1 X123.736 Y121.578 E20.74774
G1 X123.043 Y121.796 E20.78399
G1 X122.331 Y121.936 E20.82019
G1 X121.983 Y121.96 E20.83759
G1 X121.974 Y122.125 E20.84583
G1 X121.855 Y122.842 E20.88209
G1 X121.657 Y123.541 E20.91834
G1 X121.384 Y124.214 E20.95457
G1 X121.039 Y124.853 E20.9908
G1 X120.625 Y125.45 E21.02705
G1 X120.149 Y125.998 E21.06326
G1 X119.615 Y126.491 E21.09952
G1 X119.03 Y126.921 E21.13574
G1 X118.401 Y127.285 E21.172
G1 X117.736 Y127.578 E21.20825
G1 X117.043 Y127.796 E21.2445
G1 X116.331 Y127.936 E21.2807
G1 X115.414 Y128 E21.32656
G1 X107.636 Y128 E21.71461
G1 X106.911 Y127.96 E21.75083
G1 X106.194 Y127.841 E21.78709
G1 X105.495 Y127.643 E21.82334
G1 X104.822 Y127.37 E21.85957
G1 X104.183 Y127.025 E21.8958
G1 X103.586 Y126.611 E21.93205
G1 X103.038 Y126.135 E21.96826
G1 X102.545 Y125.601 E22.00452
G1 X102.115 Y125.016 E22.04074
G1 X101.751 Y124.387 E22.077
G1 X101.458 Y123.722 E22.11325
G1 X101.24 Y123.029 E22.1495
G1 X101.1 Y122.317 E22.1857
G1 X101.036 Y121.402 E22.23146
G1 X101.036 Y120.326 E22.28514
G1 X100.816 Y120.135 E22.29968
G1 X100.323 Y119.601 E22.33594
G1 X99.893 Y119.016 E22.37216
G1 X99.529 Y118.387 E22.40841
G1 X99.236 Y117.722 E22.44467
G1 X99.018 Y117.029 E22.48091
G1 X98.878 Y116.317 E22.51712
G1 X98.814 Y115.4 E22.56298
G1 X98.814 Y108.2 E22.92219
G1 X98.854 Y107.475 E22.95841
G1 X98.933 Y106.998 E22.98253
G1 X98.878 Y106.717 E22.99682
G1 X98.814 Y105.8 E23.04268
G1 X98.814 Y98.6 E23.40189
G1 X98.854 Y97.875 E23.43811
G1 X98.973 Y97.158 E23.47437
G1 X99.171 Y96.459 E23.51062
G1 X99.444 Y95.786 E23.54685
G1 X99.789 Y95.147 E23.58308
G1 X100.203 Y94.55 E23.61933
G0 F7500 X100.599 Y94.694
G1 F1500 X101.073 Y94.173 E23.65447
G1 X101.603 Y93.709 E23.68961
G1 X102.182 Y93.309 E23.72472
G1 X102.803 Y92.977 E23.75985
G1 X103.457 Y92.717 E23.79496
G1 X104.137 Y92.533 E23.83011
G1 X104.833 Y92.427 E23.86523
G1 X105.414 Y92.4 E23.89425
G1 X111.814 Y92.4 E24.21355
G1 X112.517 Y92.44 E24.24868
G1 X113.211 Y92.559 E24.28381
G1 X113.417 Y92.62 E24.29453
G1 X113.737 Y92.533 E24.31107
G1 X114.433 Y92.427 E24.34619
G1 X115.014 Y92.4 E24.37521
G1 X121.414 Y92.4 E24.69451
G1 X122.117 Y92.44 E24.72964
G1 X122.811 Y92.559 E24.76477
G1 X123.486 Y92.757 E24.79986
G1 X124.135 Y93.029 E24.83497
G1 X124.749 Y93.374 E24.87011
G1 X125.32 Y93.785 E24.90521
G1 X125.841 Y94.259 E24.94035
G1 X126.305 Y94.789 E24.97549
G1 X126.705 Y95.368 E25.0106
G1 X127.037 Y95.989 E25.04573
G1 X127.297 Y96.643 E25.08084
G1 X127.481 Y97.323 E25.11599
G1 X127.587 Y98.019 E25.15111
G1 X127.614 Y98.6 E25.18013
G1 X127.614 Y105.8 E25.53934
G1 X127.574 Y106.503 E25.57447
G1 X127.491 Y106.988 E25.59902
G1 X127.587 Y107.619 E25.63086
G1 X127.614 Y108.2 E25.65988
G1 X127.614 Y115.4 E26.01909
G1 X127.574 Y116.103 E26.05422
G1 X127.455 Y116.797 E26.08935
G1 X127.257 Y117.472 E26.12444
G1 X126.985 Y118.121 E26.15955
G1 X126.64 Y118.735 E26.19469
G1 X126.229 Y119.306 E26.22978
G1 X125.755 Y119.827 E26.26493
G1 X125.225 Y120.291 E26.30007
G1 X124.646 Y120.691 E26.33518
G1 X124.025 Y121.023 E26.37031
G1 X123.371 Y121.283 E26.40542
G1 X122.691 Y121.467 E26.44057
G1 X121.995 Y121.573 E26.47569
G1 X121.603 Y121.591 E26.49527
G1 X121.574 Y122.103 E26.52085
G1 X121.455 Y122.797 E26.55598
G1 X121.257 Y123.472 E26.59108
G1 X120.985 Y124.121 E26.62618
G1 X120.64 Y124.735 E26.66132
G1 X120.229 Y125.306 E26.69642
G1 X119.755 Y125.827 E26.73156
G1 X119.225 Y126.291 E26.7667
G1 X118.646 Y126.691 E26.80181
G1 X118.025 Y127.023 E26.83695
G1 X117.371 Y127.283 E26.87206
G1 X116.691 Y127.467 E26.9072
G1 X115.995 Y127.573 E26.94233
G1 X115.414 Y127.6 E26.97134
G1 X107.636 Y127.6 E27.35939
G1 X106.933 Y127.56 E27.39452
G1 X106.239 Y127.441 E27.42965
G1 X105.564 Y127.243 E27.46474
G1 X104.915 Y126.971 E27.49985
G1 X104.301 Y126.626 E27.53499
G1 X103.73 Y126.215 E27.57009
G1 X103.209 Y125.741 E27.60523
G1 X102.745 Y125.211 E27.64037
G1 X102.345 Y124.632 E27.67548
G1 X102.013 Y124.011 E27.71061
G1 X101.753 Y123.357 E27.74572
G1 X101.569 Y122.677 E27.78087
G1 X101.463 Y121.981 E27.81599
G1 X101.436 Y121.402 E27.84491
G1 X101.436 Y120.149 E27.90742
G1 X100.987 Y119.741 E27.93769
G1 X100.523 Y119.211 E27.97284
G1 X100.123 Y118.632 E28.00794
G1 X99.791 Y118.011 E28.04308
G1 X99.531 Y117.357 E28.07819
G1 X99.347 Y116.677 E28.11333
G1 X99.241 Y115.981 E28.14846
G1 X99.214 Y115.4 E28.17747
G1 X99.214 Y108.2 E28.53668
G1 X99.254 Y107.497 E28.57181
G1 X99.337 Y107.012 E28.59636
G1 X99.241 Y106.381 E28.62821
G1 X99.214 Y105.8 E28.65722
G1 X99.214 Y98.6 E29.01643
G1 X99.254 Y97.897 E29.05156
G1 X99.373 Y97.203 E29.08669
G1 X99.571 Y96.528 E29.12179
G1 X99.843 Y95.879 E29.15689
G1 X100.188 Y95.265 E29.19203
G1 X100.599 Y94.694 E29.22713
G0 F7500 X100.996 Y94.842
G1 F1500 X101.467 Y94.351 E29.26107
G1 X101.992 Y93.917 E29.29506
G1 X102.564 Y93.548 E29.32902
G1 X103.176 Y93.249 E29.363
G1 X103.818 Y93.024 E29.39694
G1 X104.483 Y92.875 E29.43094
G1 X105.414 Y92.8 E29.47754
G1 X111.814 Y92.8 E29.79683
