; generated by SuperSlicer 2.3.57 on 2022-04-11 at 11:08:57 UTC


;
;

;
;
; 

; external perimeters extrusion width = 0.40mm
; perimeters extrusion width = 0.45mm
; infill extrusion width = 0.72mm
; solid infill extrusion width = 0.56mm
; top infill extrusion width = 0.40mm
; first layer extrusion width = 0.50mm

; external perimeters extrusion width = 0.40mm
; perimeters extrusion width = 0.45mm
; infill extrusion width = 0.72mm
; solid infill extrusion width = 0.56mm
; top infill extrusion width = 0.40mm
; first layer extrusion width = 0.50mm

; external perimeters extrusion width = 0.40mm
; perimeters extrusion width = 0.45mm
; infill extrusion width = 0.72mm
; solid infill extrusion width = 0.56mm
; top infill extrusion width = 0.40mm
; first layer extrusion width = 0.50mm

; external perimeters extrusion width = 0.40mm
; perimeters extrusion width = 0.45mm
; infill extrusion width = 0.72mm
; solid infill extrusion width = 0.56mm
; top infill extrusion width = 0.40mm
; first layer extrusion width = 0.50mm

; external perimeters extrusion width = 0.40mm
; perimeters extrusion width = 0.45mm
; infill extrusion width = 0.72mm
; solid infill extrusion width = 0.56mm
; top infill extrusion width = 0.40mm
; first layer extrusion width = 0.50mm

; external perimeters extrusion width = 0.40mm
; perimeters extrusion width = 0.45mm
; infill extrusion width = 0.72mm
; solid infill extrusion width = 0.56mm
; top infill extrusion width = 0.40mm
; first layer extrusion width = 0.50mm

; external perimeters extrusion width = 0.40mm
; perimeters extrusion width = 0.45mm
; infill extrusion width = 0.72mm
; solid infill extrusion width = 0.56mm
; top infill extrusion width = 0.40mm
; first layer extrusion width = 0.50mm

; external perimeters extrusion width = 0.40mm
; perimeters extrusion width = 0.45mm
; infill extrusion width = 0.72mm
; solid infill extrusion width = 0.56mm
; top infill extrusion width = 0.40mm
; first layer extrusion width = 0.50mm

; external perimeters extrusion width = 0.40mm
; perimeters extrusion width = 0.45mm
; infill extrusion width = 0.72mm
; solid infill extrusion width = 0.56mm
; top infill extrusion width = 0.40mm
; first layer extrusion width = 0.50mm

; object:{"name":"cube-30x30x3mm","id":"cube-30x30x3mm.stl id:0 copy 0","object_center":[24.500000,60.000000,0.000000],"boundingbox_center":[24.500000,60.000000,1.500000],"boundingbox_size":[30.000000,30.000000,3.000000]}
; object:{"name":"cube-30x30x3mm","id":"cube-30x30x3mm.stl id:1 copy 0","object_center":[24.500000,95.000000,0.000000],"boundingbox_center":[24.500000,95.000000,1.500000],"boundingbox_size":[30.000000,30.000000,3.000000]}
; object:{"name":"cube-30x30x3mm","id":"cube-30x30x3mm.stl id:2 copy 0","object_center":[24.500000,25.000000,0.000000],"boundingbox_center":[24.500000,25.000000,1.500000],"boundingbox_size":[30.000000,30.000000,3.000000]}
; object:{"name":"cube-30x30x3mm","id":"cube-30x30x3mm.stl id:3 copy 0","object_center":[61.929823,59.993806,0.000000],"boundingbox_center":[61.929823,59.993806,1.500000],"boundingbox_size":[30.000000,30.000000,3.000000]}
; object:{"name":"cube-30x30x3mm","id":"cube-30x30x3mm.stl id:4 copy 0","object_center":[61.929823,94.993806,0.000000],"boundingbox_center":[61.929823,94.993806,1.500000],"boundingbox_size":[30.000000,30.000000,3.000000]}
; object:{"name":"cube-30x30x3mm","id":"cube-30x30x3mm.stl id:5 copy 0","object_center":[61.929823,24.993806,0.000000],"boundingbox_center":[61.929823,24.993806,1.500000],"boundingbox_size":[30.000000,30.000000,3.000000]}
; object:{"name":"cube-30x30x3mm","id":"cube-30x30x3mm.stl id:6 copy 0","object_center":[98.617594,59.786903,0.000000],"boundingbox_center":[98.617594,59.786903,1.500000],"boundingbox_size":[30.000000,30.000000,3.000000]}
; object:{"name":"cube-30x30x3mm","id":"cube-30x30x3mm.stl id:7 copy 0","object_center":[98.617594,94.786903,0.000000],"boundingbox_center":[98.617594,94.786903,1.500000],"boundingbox_size":[30.000000,30.000000,3.000000]}
; object:{"name":"cube-30x30x3mm","id":"cube-30x30x3mm.stl id:8 copy 0","object_center":[98.617594,24.786903,0.000000],"boundingbox_center":[98.617594,24.786903,1.500000],"boundingbox_size":[30.000000,30.000000,3.000000]}
; plater:{"center":[61.558797,59.893452,0.000000],"boundingbox_center":[61.558797,59.893452,1.500000],"boundingbox_size":[104.117594,100.213097,3.000000]}

M73 P0 R122
;TYPE:Custom
; custom gcode: start_gcode
PRINT_START BED=110 HOTEND=260 CHAMBER=45
; custom gcode end: start_gcode
G21 ; set units to millimeters
G90 ; use absolute coordinates
M83 ; use relative distances for extrusion
; custom gcode: start_filament_gcode
; Filament gcode
; custom gcode end: start_filament_gcode
M104 S260 ; set temperature
M109 S260 ; set temperature and wait for it to be reached
M190 S110 ; set bed temperature and wait for it to be reached
;LAYER_CHANGE
;Z:0.2
;HEIGHT:0.2
G1 E-0.5 F1800
G1 Z0.2 F21000
G1 X5.982 Y6.522
G1 E0.5 F1800
; custom gcode: feature_gcode
; External perimeter
;Skirt
SET_VELOCITY_LIMIT ACCEL=5000 ACCEL_TO_DECEL=2500 SQUARE_CORNER_VELOCITY=8

; Support material
; custom gcode end: feature_gcode

;TYPE:Skirt
;WIDTH:0.45
G1 X5.375 Y7.267 E0.03254
G1 X4.923 Y8.11 E0.03236
G1 X4.639 Y9.022 E0.03236
G1 X4.533 Y9.978 E0.03254
G1 X4.532 Y109.95 E3.38393
G1 X4.63 Y110.935 E0.03352
G1 X4.919 Y111.881 E0.03348
G1 X5.391 Y112.757 E0.03366
G1 X6.022 Y113.518 E0.03348
G1 X6.763 Y114.122 E0.03236
G1 X7.599 Y114.573 E0.03217
G1 X8.506 Y114.858 E0.03217
G1 X9.45 Y114.967 E0.03217
G1 X76.892 Y114.961 E2.2828
G1 X113.779 Y114.75 E1.24862
G1 X114.71 Y114.623 E0.0318
G1 X115.601 Y114.324 E0.0318
G1 X116.42 Y113.865 E0.0318
G1 X117.136 Y113.265 E0.03161
G1 X117.743 Y112.52 E0.03254
G1 X118.195 Y111.677 E0.03236
G1 X118.479 Y110.764 E0.03236
G1 X118.585 Y109.809 E0.03254
G1 X118.583 Y9.675 E3.38941
G1 X118.459 Y8.716 E0.03273
G1 X118.155 Y7.804 E0.03254
G1 X117.683 Y6.966 E0.03254
G1 X117.06 Y6.234 E0.03254
G1 X116.309 Y5.634 E0.03254
G1 X115.452 Y5.186 E0.03273
G1 X114.53 Y4.912 E0.03254
G1 X113.573 Y4.819 E0.03254
G1 X83.659 Y4.819 E1.01257
G1 X9.471 Y5.033 E2.51117
G1 X8.51 Y5.141 E0.03273
G1 X7.583 Y5.434 E0.03292
G1 X6.73 Y5.9 E0.03292
G1 X6.028 Y6.484 E0.03089
G1 X6.286 Y6.795 F21000
G1 F1800
G1 X5.717 Y7.488 E0.03037
G1 X5.298 Y8.268 E0.02994
G1 X5.036 Y9.112 E0.02994
G1 X4.94 Y9.992 E0.02994
G1 X4.939 Y109.95 E3.38347
G1 X5.029 Y110.853 E0.0307
G1 X5.292 Y111.719 E0.03066
G1 X5.72 Y112.517 E0.03066
G1 X6.3 Y113.22 E0.03083
G1 X6.98 Y113.778 E0.02976
G1 X7.753 Y114.196 E0.02976
G1 X8.592 Y114.46 E0.02976
G1 X9.465 Y114.56 E0.02976
G1 X76.89 Y114.554 E2.28225
G1 X113.749 Y114.344 E1.24766
G1 X114.605 Y114.229 E0.02923
G1 X115.424 Y113.957 E0.02923
G1 X116.179 Y113.537 E0.02923
G1 X116.838 Y112.987 E0.02905
G1 X117.401 Y112.299 E0.03012
G1 X117.82 Y111.519 E0.02994
G1 X118.082 Y110.675 E0.02994
G1 X118.178 Y109.795 E0.02994
G1 X118.176 Y9.698 E3.38818
G1 X118.065 Y8.82 E0.02994
G1 X117.788 Y7.98 E0.02994
G1 X117.353 Y7.204 E0.03012
G1 X116.78 Y6.53 E0.02994
G1 X116.085 Y5.974 E0.03012
G1 X115.301 Y5.565 E0.02994
G1 X114.453 Y5.312 E0.02994
G1 X113.573 Y5.226 E0.02994
G1 X83.66 Y5.226 E1.01253
G1 X9.485 Y5.44 E2.51073
G1 X8.596 Y5.539 E0.0303
G1 X7.747 Y5.807 E0.03012
G1 X6.965 Y6.232 E0.03012
G1 X6.332 Y6.757 E0.02783
G1 X6.59 Y7.069 F21000
G1 F1800
G1 X6.571 Y7.084 E0.00082
G1 X6.058 Y7.71 E0.02739
G1 X5.674 Y8.422 E0.02739
G1 X5.434 Y9.195 E0.02739
G1 X5.347 Y9.999 E0.02739
G1 X5.346 Y109.95 E3.38321
G1 X5.428 Y110.773 E0.028
G1 X5.668 Y111.562 E0.0279
G1 X6.057 Y112.288 E0.0279
G1 X6.584 Y112.929 E0.02807
G1 X7.206 Y113.439 E0.02722
G1 X7.913 Y113.822 E0.02722
G1 X8.68 Y114.063 E0.02722
G1 X9.479 Y114.153 E0.02722
G1 X76.888 Y114.147 E2.28172
G1 X113.722 Y113.938 E1.24681
G1 X114.505 Y113.835 E0.02671
G1 X115.254 Y113.587 E0.02671
G1 X115.944 Y113.204 E0.02671
G1 X116.546 Y112.703 E0.02654
G1 X117.059 Y112.077 E0.02739
G1 X117.443 Y111.365 E0.02739
G1 X117.683 Y110.592 E0.02739
G1 X117.771 Y109.788 E0.02739
G1 X117.77 Y9.723 E3.38708
G1 X117.67 Y8.92 E0.02739
G1 X117.418 Y8.151 E0.02739
G1 X117.024 Y7.444 E0.02739
G1 X116.501 Y6.826 E0.02739
G1 X115.87 Y6.32 E0.02739
G1 X115.153 Y5.944 E0.02739
G1 X114.378 Y5.712 E0.02739
G1 X113.573 Y5.633 E0.02739
G1 X83.661 Y5.633 E1.01249
G1 X9.491 Y5.847 E2.51055
G1 X8.687 Y5.936 E0.02739
G1 X7.91 Y6.18 E0.02756
G1 X7.199 Y6.565 E0.02739
G1 X6.636 Y7.03 E0.02471
; INIT printing object cube-30x30x3mm.stl id:0 copy 0
G1 E-0.5
G1 Z0.5 F21000
; printing object cube-30x30x3mm.stl id:0 copy 0
G1 X11.221 Y46.721
G1 Z0.2
G1 E0.5 F1800
; custom gcode: feature_gcode
; External perimeter
;Perimeter
SET_VELOCITY_LIMIT ACCEL=800 ACCEL_TO_DECEL=400 SQUARE_CORNER_VELOCITY=8

; Overhang perimeter
; custom gcode end: feature_gcode

;TYPE:Internal perimeter
;WIDTH:0.5
G1 X37.779 Y46.721 E0.90842
M73 P0 R121
G1 X37.779 Y73.279 E0.90842
G1 X11.221 Y73.279 E0.90842
G1 X11.221 Y46.781 E0.90637
G1 X38.236 Y73.736 F21000
G1 F1800
G1 X10.764 Y73.736 E0.93969
G1 X10.764 Y46.264 E0.93969
G1 X38.236 Y46.264 E0.93969
G1 X38.236 Y73.676 E0.93764
G1 X38.693 Y74.193 F21000
G1 F1800
G1 X10.307 Y74.193 E0.97096
G1 X10.307 Y45.807 E0.97096
G1 X38.693 Y45.807 E0.97096
G1 X38.693 Y74.133 E0.96891
M73 P1 R121
G1 X39.15 Y74.65 F21000
; custom gcode: feature_gcode
; External perimeter
;ExternalPerimeter
SET_VELOCITY_LIMIT ACCEL=450 ACCEL_TO_DECEL=250 SQUARE_CORNER_VELOCITY=8

; Perimeter
; custom gcode end: feature_gcode

;TYPE:External perimeter
G1 F1800
G1 X9.85 Y74.65 E1.00223
G1 X9.85 Y45.35 E1.00223
G1 X39.15 Y45.35 E1.00223
G1 X39.15 Y74.59 E1.00017
;WIPE_START
G1 X38.804 Y74.45 F21000
;WIPE_END
G1 X36.786 Y46.79
; custom gcode: feature_gcode
; External perimeter
;SolidInfill
SET_VELOCITY_LIMIT ACCEL=3800 ACCEL_TO_DECEL=2000 SQUARE_CORNER_VELOCITY=8

; Bridge infill
; custom gcode end: feature_gcode

;TYPE:Solid infill
;WIDTH:0.493898
G1 F1800
G1 X37.514 Y47.517 E0.03476
G1 X37.514 Y48.164 E0.02184
G1 X36.336 Y46.986 E0.05626
G1 X35.69 Y46.986 E0.02184
G1 X37.514 Y48.81 E0.08714
G1 X37.514 Y49.456 E0.02184
G1 X35.044 Y46.986 E0.11803
G1 X34.397 Y46.986 E0.02184
G1 X37.514 Y50.103 E0.14892
G1 X37.514 Y50.749 E0.02184
G1 X33.751 Y46.986 E0.17981
G1 X33.104 Y46.986 E0.02184
G1 X37.514 Y51.396 E0.21069
G1 X37.514 Y52.042 E0.02184
G1 X32.458 Y46.986 E0.24158
G1 X31.812 Y46.986 E0.02184
G1 X37.514 Y52.688 E0.27247
G1 X37.514 Y53.335 E0.02184
G1 X31.165 Y46.986 E0.30336
G1 X30.519 Y46.986 E0.02184
G1 X37.514 Y53.981 E0.33425
G1 X37.514 Y54.628 E0.02184
G1 X29.872 Y46.986 E0.36513
G1 X29.226 Y46.986 E0.02184
G1 X37.514 Y55.274 E0.39602
G1 X37.514 Y55.921 E0.02184
G1 X28.579 Y46.986 E0.42691
G1 X27.933 Y46.986 E0.02184
G1 X37.514 Y56.567 E0.4578
G1 X37.514 Y57.213 E0.02184
G1 X27.287 Y46.986 E0.48868
G1 X26.64 Y46.986 E0.02184
G1 X37.514 Y57.86 E0.51957
G1 X37.514 Y58.506 E0.02184
G1 X25.994 Y46.986 E0.55046
G1 X25.347 Y46.986 E0.02184
G1 X37.514 Y59.153 E0.58135
G1 X37.514 Y59.799 E0.02184
G1 X24.701 Y46.986 E0.61224
G1 X24.055 Y46.986 E0.02184
G1 X37.514 Y60.445 E0.64312
G1 X37.514 Y61.092 E0.02184
G1 X23.408 Y46.986 E0.67401
G1 X22.762 Y46.986 E0.02184
G1 X37.514 Y61.738 E0.7049
G1 X37.514 Y62.385 E0.02184
G1 X22.115 Y46.986 E0.73579
G1 X21.469 Y46.986 E0.02184
G1 X37.514 Y63.031 E0.76668
G1 X37.514 Y63.677 E0.02184
G1 X20.823 Y46.986 E0.79756
G1 X20.176 Y46.986 E0.02184
G1 X37.514 Y64.324 E0.82845
G1 X37.514 Y64.97 E0.02184
G1 X19.53 Y46.986 E0.85934
G1 X18.883 Y46.986 E0.02184
G1 X37.514 Y65.617 E0.89023
G1 X37.514 Y66.263 E0.02184
G1 X18.237 Y46.986 E0.92111
G1 X17.591 Y46.986 E0.02184
G1 X37.514 Y66.909 E0.952
G1 X37.514 Y67.556 E0.02184
G1 X16.944 Y46.986 E0.98289
G1 X16.298 Y46.986 E0.02184
G1 X37.514 Y68.202 E1.01378
G1 X37.514 Y68.849 E0.02184
G1 X15.651 Y46.986 E1.04467
G1 X15.005 Y46.986 E0.02184
G1 X37.514 Y69.495 E1.07555
G1 X37.514 Y70.141 E0.02184
G1 X14.359 Y46.986 E1.10644
G1 X13.712 Y46.986 E0.02184
G1 X37.514 Y70.788 E1.13733
G1 X37.514 Y71.434 E0.02184
G1 X13.066 Y46.986 E1.16822
G1 X12.419 Y46.986 E0.02184
G1 X37.514 Y72.081 E1.1991
G1 X37.514 Y72.727 E0.02184
G1 X11.773 Y46.986 E1.22999
G1 X11.486 Y46.986 E0.00968
G1 X11.486 Y47.346 E0.01216
G1 X37.154 Y73.014 E1.22649
G1 X36.507 Y73.014 E0.02184
G1 X11.486 Y47.993 E1.19561
G1 X11.486 Y48.639 E0.02184
G1 X35.861 Y73.014 E1.16472
G1 X35.215 Y73.014 E0.02184
G1 X11.486 Y49.285 E1.13383
M73 P1 R120
G1 X11.486 Y49.932 E0.02184
G1 X34.568 Y73.014 E1.10294
G1 X33.922 Y73.014 E0.02184
G1 X11.486 Y50.578 E1.07205
G1 X11.486 Y51.225 E0.02184
G1 X33.275 Y73.014 E1.04117
G1 X32.629 Y73.014 E0.02184
G1 X11.486 Y51.871 E1.01028
G1 X11.486 Y52.517 E0.02184
G1 X31.983 Y73.014 E0.97939
G1 X31.336 Y73.014 E0.02184
G1 X11.486 Y53.164 E0.9485
G1 X11.486 Y53.81 E0.02184
G1 X30.69 Y73.014 E0.91761
G1 X30.043 Y73.014 E0.02184
G1 X11.486 Y54.457 E0.88673
G1 X11.486 Y55.103 E0.02184
G1 X29.397 Y73.014 E0.85584
G1 X28.751 Y73.014 E0.02184
G1 X11.486 Y55.749 E0.82495
G1 X11.486 Y56.396 E0.02184
G1 X28.104 Y73.014 E0.79406
G1 X27.458 Y73.014 E0.02184
G1 X11.486 Y57.042 E0.76318
G1 X11.486 Y57.689 E0.02184
G1 X26.811 Y73.014 E0.73229
G1 X26.165 Y73.014 E0.02184
G1 X11.486 Y58.335 E0.7014
G1 X11.486 Y58.981 E0.02184
G1 X25.519 Y73.014 E0.67051
G1 X24.872 Y73.014 E0.02184
G1 X11.486 Y59.628 E0.63962
G1 X11.486 Y60.274 E0.02184
G1 X24.226 Y73.014 E0.60874
G1 X23.579 Y73.014 E0.02184
G1 X11.486 Y60.921 E0.57785
G1 X11.486 Y61.567 E0.02184
G1 X22.933 Y73.014 E0.54696
G1 X22.286 Y73.014 E0.02184
G1 X11.486 Y62.214 E0.51607
G1 X11.486 Y62.86 E0.02184
G1 X21.64 Y73.014 E0.48519
G1 X20.994 Y73.014 E0.02184
G1 X11.486 Y63.506 E0.4543
G1 X11.486 Y64.153 E0.02184
G1 X20.347 Y73.014 E0.42341
G1 X19.701 Y73.014 E0.02184
G1 X11.486 Y64.799 E0.39252
G1 X11.486 Y65.446 E0.02184
G1 X19.054 Y73.014 E0.36163
G1 X18.408 Y73.014 E0.02184
G1 X11.486 Y66.092 E0.33075
G1 X11.486 Y66.738 E0.02184
G1 X17.762 Y73.014 E0.29986
G1 X17.115 Y73.014 E0.02184
G1 X11.486 Y67.385 E0.26897
G1 X11.486 Y68.031 E0.02184
G1 X16.469 Y73.014 E0.23808
G1 X15.822 Y73.014 E0.02184
G1 X11.486 Y68.678 E0.20719
G1 X11.486 Y69.324 E0.02184
G1 X15.176 Y73.014 E0.17631
G1 X14.53 Y73.014 E0.02184
G1 X11.486 Y69.97 E0.14542
G1 X11.486 Y70.617 E0.02184
G1 X13.883 Y73.014 E0.11453
G1 X13.237 Y73.014 E0.02184
G1 X11.486 Y71.263 E0.08364
M73 P2 R120
G1 X11.486 Y71.91 E0.02184
G1 X12.59 Y73.014 E0.05276
G1 X11.944 Y73.014 E0.02184
G1 X11.29 Y72.359 E0.03126
; INIT stop printing object cube-30x30x3mm.stl id:0 copy 0
; INIT printing object cube-30x30x3mm.stl id:2 copy 0
G1 E-0.5
G1 Z0.5 F21000
; stop printing object cube-30x30x3mm.stl id:0 copy 0
; printing object cube-30x30x3mm.stl id:2 copy 0
G1 X11.29 Y38.279
G1 Z0.2
G1 E0.5 F1800
; custom gcode: feature_gcode
; External perimeter
;Perimeter
SET_VELOCITY_LIMIT ACCEL=800 ACCEL_TO_DECEL=400 SQUARE_CORNER_VELOCITY=8

; Overhang perimeter
; custom gcode end: feature_gcode

;TYPE:Internal perimeter
;WIDTH:0.5
G1 X11.221 Y38.279 E0.0024
G1 X11.221 Y11.721 E0.92861
G1 X37.779 Y11.721 E0.92861
G1 X37.779 Y38.279 E0.92861
G1 X11.35 Y38.279 E0.92411
G1 X38.236 Y38.736 F21000
G1 F1800
G1 X10.764 Y38.736 E0.96057
G1 X10.764 Y11.264 E0.96057
G1 X38.236 Y11.264 E0.96057
G1 X38.236 Y38.676 E0.95847
G1 X38.693 Y39.193 F21000
G1 F1800
G1 X10.307 Y39.193 E0.99253
G1 X10.307 Y10.807 E0.99253
G1 X38.693 Y10.807 E0.99253
G1 X38.693 Y39.133 E0.99044
G1 X39.15 Y39.65 F21000
; custom gcode: feature_gcode
; External perimeter
;ExternalPerimeter
SET_VELOCITY_LIMIT ACCEL=450 ACCEL_TO_DECEL=250 SQUARE_CORNER_VELOCITY=8

; Perimeter
; custom gcode end: feature_gcode

;TYPE:External perimeter
G1 F1800
G1 X9.85 Y39.65 E1.0245
G1 X9.85 Y10.35 E1.0245
G1 X39.15 Y10.35 E1.0245
G1 X39.15 Y39.59 E1.0224
;WIPE_START
G1 X38.804 Y39.45 F21000
;WIPE_END
G1 X36.786 Y11.79
; custom gcode: feature_gcode
; External perimeter
;SolidInfill
SET_VELOCITY_LIMIT ACCEL=3800 ACCEL_TO_DECEL=2000 SQUARE_CORNER_VELOCITY=8

; Bridge infill
; custom gcode end: feature_gcode

;TYPE:Solid infill
;WIDTH:0.493898
G1 F1800
G1 X37.514 Y12.517 E0.03553
G1 X37.514 Y13.164 E0.02233
