; generated by SuperSlicer 2.3.57 on 2022-04-11 at 14:27:34 UTC


;
;

;
;
; 

; external perimeters extrusion width = 0.40mm
; perimeters extrusion width = 0.45mm
; infill extrusion width = 0.72mm
; solid infill extrusion width = 0.56mm
; top infill extrusion width = 0.40mm
; first layer extrusion width = 0.50mm

; object:{"name":"Voron_Design_Cube_v7","id":"Voron_Design_Cube_v7.stl id:0 copy 0","object_center":[60.000000,60.000000,0.000000],"boundingbox_center":[60.000000,60.000000,15.000000],"boundingbox_size":[30.000000,30.000000,30.000000]}
; plater:{"center":[60.000000,60.000000,0.000000],"boundingbox_center":[60.000000,60.000000,15.000000],"boundingbox_size":[30.000000,30.000000,30.000000]}

M73 P0 R52
;TYPE:Custom
; custom gcode: start_gcode
PRINT_START BED=110 HOTEND=260 CHAMBER=45
; custom gcode end: start_gcode
G21 ; set units to millimeters
G90 ; use absolute coordinates
M83 ; use relative distances for extrusion
; custom gcode: start_filament_gcode
; Filament gcode
; custom gcode end: start_filament_gcode
M109 S260 ; set temperature and wait for it to be reached
M190 S110 ; set bed temperature and wait for it to be reached
;LAYER_CHANGE
;Z:0.2375
;HEIGHT:0.2375
G1 E-0.5 F1800
G1 Z0.2375 F27000
G1 Z0.5375
G1 X44.424 Y44.436
G1 Z0.2375
G1 E0.5 F1800
; custom gcode: feature_gcode
; External perimeter
;Skirt
SET_VELOCITY_LIMIT ACCEL=5000 ACCEL_TO_DECEL=2500 SQUARE_CORNER_VELOCITY=8

; Support material
; custom gcode end: feature_gcode

;TYPE:Skirt
;WIDTH:0.5
G1 X41.476 Y47.383 E0.17741
G1 X41.02 Y47.934 E0.03044
G1 X40.642 Y48.547 E0.03067
G1 X40.219 Y49.652 E0.05034
G1 X40.061 Y50.818 E0.0501
G1 X40.06 Y69.123 E0.77914
G1 X40.221 Y70.356 E0.05294
G1 X40.683 Y71.529 E0.05365
G1 X41.421 Y72.558 E0.05388
G1 X47.383 Y78.524 E0.35902
G1 X47.934 Y78.98 E0.03044
G1 X48.547 Y79.358 E0.03067
G1 X49.652 Y79.781 E0.05034
G1 X50.818 Y79.939 E0.0501
G1 X69.123 Y79.94 E0.77914
G1 X70.356 Y79.779 E0.05294
G1 X71.534 Y79.315 E0.05388
G1 X72.558 Y78.579 E0.05365
G1 X78.524 Y72.617 E0.35902
G1 X78.98 Y72.066 E0.03044
G1 X79.358 Y71.453 E0.03067
G1 X79.782 Y70.343 E0.05057
G1 X79.939 Y69.16 E0.05081
G1 X79.94 Y50.855 E0.77914
G1 X79.871 Y50.081 E0.03305
G1 X79.686 Y49.327 E0.03305
G1 X79.249 Y48.349 E0.04561
G1 X78.617 Y47.484 E0.04561
G1 X72.452 Y41.325 E0.37091
G1 X71.711 Y40.787 E0.03898
G1 X70.887 Y40.389 E0.03898
G1 X70.004 Y40.144 E0.03898
G1 X69.087 Y40.06 E0.03921
G1 X50.866 Y40.06 E0.77557
G1 X49.455 Y40.274 E0.06072
G1 X48.369 Y40.74 E0.05034
G1 X47.414 Y41.447 E0.05057
G1 X44.466 Y44.394 E0.1774
G1 X44.783 Y44.711 F27000
G1 F1800
G1 X41.809 Y47.684 E0.179
G1 X41.051 Y48.732 E0.05506
G1 X40.657 Y49.751 E0.04649
G1 X40.509 Y50.833 E0.04649
G1 X40.509 Y69.115 E0.77814
G1 X40.653 Y70.235 E0.04807
G1 X41.077 Y71.316 E0.04943
G1 X41.755 Y72.259 E0.04943
G1 X47.684 Y78.191 E0.357
G1 X48.732 Y78.949 E0.05506
G1 X49.751 Y79.343 E0.04649
G1 X50.833 Y79.491 E0.04649
G1 X69.115 Y79.491 E0.77814
G1 X70.235 Y79.347 E0.04807
G1 X71.316 Y78.923 E0.04943
G1 X72.259 Y78.245 E0.04943
G1 X78.191 Y72.316 E0.357
G1 X78.949 Y71.268 E0.05506
G1 X79.346 Y70.239 E0.04694
G1 X79.491 Y69.151 E0.04672
G1 X79.491 Y50.864 E0.77836
G1 X79.431 Y50.168 E0.02975
G1 X79.269 Y49.493 E0.02952
G1 X78.865 Y48.582 E0.04243
G1 X78.278 Y47.777 E0.04243
G1 X72.175 Y41.679 E0.36722
G1 X71.495 Y41.18 E0.03587
G1 X70.738 Y40.812 E0.03587
G1 X69.926 Y40.585 E0.03587
G1 X69.087 Y40.509 E0.03587
G1 X50.875 Y40.509 E0.77518
G1 X49.601 Y40.698 E0.05483
G1 X48.596 Y41.127 E0.04649
G1 X47.718 Y41.777 E0.04649
G1 X44.826 Y44.668 E0.17408
G1 X45.142 Y44.985 F27000
G1 F1800
G1 X42.14 Y47.987 E0.18074
G1 X41.46 Y48.92 E0.04912
G1 X41.093 Y49.854 E0.04269
G1 X40.958 Y50.842 E0.04248
G1 X40.957 Y69.109 E0.7775
G1 X41.085 Y70.114 E0.04312
G1 X41.47 Y71.1 E0.04505
G1 X42.089 Y71.959 E0.04505
G1 X47.987 Y77.86 E0.35517
G1 X48.92 Y78.54 E0.04912
G1 X49.854 Y78.907 E0.04269
G1 X50.842 Y79.042 E0.04248
G1 X69.109 Y79.043 E0.7775
G1 X70.114 Y78.915 E0.04312
G1 X71.1 Y78.53 E0.04505
G1 X71.959 Y77.911 E0.04505
G1 X77.86 Y72.013 E0.35517
G1 X78.54 Y71.08 E0.04912
G1 X78.908 Y70.141 E0.04291
G1 X79.043 Y69.142 E0.04291
G1 X79.043 Y50.876 E0.7775
G1 X78.849 Y49.652 E0.05276
G1 X78.48 Y48.812 E0.03904
G1 X77.939 Y48.071 E0.03904
G1 X71.89 Y42.026 E0.36402
G1 X71.274 Y41.571 E0.03259
G1 X70.586 Y41.234 E0.03259
G1 X69.849 Y41.027 E0.03259
G1 X69.086 Y40.957 E0.03259
G1 X50.881 Y40.957 E0.7749
G1 X49.749 Y41.122 E0.04869
G1 X48.825 Y41.512 E0.04269
G1 X48.023 Y42.106 E0.04248
G1 X45.185 Y44.943 E0.1708
; INIT printing object Voron_Design_Cube_v7.stl id:0 copy 0
G1 E-0.5
G1 Z0.5375 F27000
; printing object Voron_Design_Cube_v7.stl id:0 copy 0
G1 X53.472 Y53.205
G1 Z0.2375
G1 E0.5 F1800
; custom gcode: feature_gcode
; External perimeter
;Perimeter
SET_VELOCITY_LIMIT ACCEL=800 ACCEL_TO_DECEL=400 SQUARE_CORNER_VELOCITY=8

; Overhang perimeter
; custom gcode end: feature_gcode

;TYPE:Internal perimeter
G1 X53.078 Y53.6 E0.02373
G1 X52.619 Y54.131 E0.02988
G1 X52.057 Y54.917 E0.04112
G1 X51.574 Y55.765 E0.04153
G1 X51.182 Y56.658 E0.04153
G1 X50.883 Y57.587 E0.04153
G1 X50.683 Y58.542 E0.04153
G1 X50.582 Y59.512 E0.04153
G1 X50.582 Y60.488 E0.04153
G1 X50.683 Y61.458 E0.04153
G1 X50.883 Y62.413 E0.04153
G1 X51.179 Y63.333 E0.04114
G1 X51.454 Y63.979 E0.02987
G1 X51.808 Y64.67 E0.03306
G1 X52.33 Y65.487 E0.04128
G1 X52.938 Y66.25 E0.04153
G1 X53.622 Y66.946 E0.04153
G1 X54.374 Y67.568 E0.04153
G1 X55.186 Y68.109 E0.04153
G1 X56.04 Y68.558 E0.0411
G1 X56.689 Y68.827 E0.0299
G1 X57.427 Y69.072 E0.03309
G1 X58.372 Y69.289 E0.04125
G1 X59.34 Y69.407 E0.04153
G1 X60.316 Y69.425 E0.04153
G1 X61.288 Y69.342 E0.04153
G1 X62.246 Y69.159 E0.04153
G1 X63.17 Y68.881 E0.04106
G1 X63.823 Y68.619 E0.02994
G1 X64.521 Y68.275 E0.03313
G1 X65.346 Y67.768 E0.04121
G1 X66.12 Y67.174 E0.04153
G1 X66.829 Y66.504 E0.04153
G1 X67.464 Y65.763 E0.04153
G1 X68.019 Y64.961 E0.04153
G1 X68.489 Y64.106 E0.04153
G1 X68.868 Y63.207 E0.04153
G1 X69.152 Y62.274 E0.04153
G1 X69.338 Y61.316 E0.04153
G1 X69.423 Y60.356 E0.041
G1 X69.423 Y59.644 E0.03035
G1 X69.338 Y58.684 E0.041
G1 X69.152 Y57.726 E0.04153
G1 X68.87 Y56.801 E0.04118
G1 X68.575 Y56.079 E0.03317
G1 X68.259 Y55.45 E0.02997
G1 X67.752 Y54.63 E0.04103
G1 X67.156 Y53.858 E0.04153
G1 X66.483 Y53.152 E0.04153
G1 X65.741 Y52.519 E0.04153
G1 X64.937 Y51.965 E0.04153
G1 X64.087 Y51.502 E0.04122
G1 X63.372 Y51.195 E0.03313
G1 X62.706 Y50.967 E0.02993
G1 X61.769 Y50.737 E0.04107
G1 X60.803 Y50.604 E0.04153
G1 X59.828 Y50.571 E0.04153
G1 X58.855 Y50.639 E0.04153
G1 X57.894 Y50.808 E0.04153
G1 X56.955 Y51.075 E0.04153
G1 X56.049 Y51.437 E0.04153
G1 X55.186 Y51.891 E0.04153
G1 X54.374 Y52.432 E0.04153
G1 X53.627 Y53.05 E0.04127
G1 X53.514 Y53.163 E0.00679
G1 X53.832 Y53.48 F27000
G1 F1800
G1 X53.407 Y53.906 E0.0256
G1 X52.972 Y54.409 E0.02833
G1 X52.435 Y55.159 E0.03926
G1 X51.976 Y55.967 E0.03955
G1 X51.602 Y56.817 E0.03955
G1 X51.318 Y57.702 E0.03955
G1 X51.127 Y58.611 E0.03955
G1 X51.031 Y59.535 E0.03955
G1 X51.031 Y60.465 E0.03955
G1 X51.127 Y61.389 E0.03955
G1 X51.318 Y62.298 E0.03955
G1 X51.6 Y63.176 E0.03927
G1 X51.861 Y63.789 E0.02832
G1 X52.197 Y64.447 E0.03146
G1 X52.696 Y65.226 E0.03937
G1 X53.275 Y65.952 E0.03955
G1 X53.926 Y66.615 E0.03955
G1 X54.642 Y67.207 E0.03955
G1 X55.415 Y67.722 E0.03955
G1 X56.231 Y68.151 E0.03924
G1 X56.846 Y68.406 E0.02834
G1 X57.548 Y68.639 E0.03149
G1 X58.45 Y68.846 E0.03935
G1 X59.372 Y68.959 E0.03955
G1 X60.301 Y68.976 E0.03955
G1 X61.226 Y68.897 E0.03955
G1 X62.139 Y68.722 E0.03955
G1 X63.021 Y68.457 E0.03921
G1 X63.64 Y68.208 E0.02836
G1 X64.304 Y67.882 E0.03152
G1 X65.091 Y67.398 E0.03932
G1 X65.828 Y66.832 E0.03955
G1 X66.503 Y66.194 E0.03955
G1 X67.108 Y65.489 E0.03955
G1 X67.637 Y64.725 E0.03955
G1 X68.084 Y63.91 E0.03955
G1 X68.445 Y63.054 E0.03955
G1 X68.715 Y62.165 E0.03955
G1 X68.892 Y61.253 E0.03955
G1 X68.973 Y60.337 E0.03917
G1 X68.973 Y59.663 E0.02866
G1 X68.892 Y58.747 E0.03917
G1 X68.715 Y57.835 E0.03955
G1 X68.447 Y56.951 E0.0393
G1 X68.166 Y56.266 E0.03154
G1 X67.867 Y55.669 E0.02839
G1 X67.382 Y54.886 E0.03919
G1 X66.815 Y54.151 E0.03955
G1 X66.174 Y53.478 E0.03955
G1 X65.467 Y52.875 E0.03955
G1 X64.702 Y52.349 E0.03955
G1 X63.891 Y51.906 E0.03932
G1 X63.21 Y51.615 E0.03152
G1 X62.58 Y51.398 E0.02836
G1 X61.685 Y51.179 E0.03922
G1 X60.765 Y51.052 E0.03955
G1 X59.836 Y51.021 E0.03955
G1 X58.909 Y51.086 E0.03955
G1 X57.994 Y51.246 E0.03955
G1 X57.1 Y51.5 E0.03955
G1 X56.238 Y51.845 E0.03955
G1 X55.415 Y52.278 E0.03955
G1 X54.642 Y52.793 E0.03955
G1 X53.929 Y53.382 E0.03936
G1 X53.874 Y53.437 E0.00332
G1 X54.192 Y53.754 F27000
G1 F1800
G1 X53.737 Y54.211 E0.02747
G1 X53.325 Y54.687 E0.02677
G1 X52.814 Y55.402 E0.03739
G1 X52.378 Y56.169 E0.03757
G1 X52.022 Y56.977 E0.03757
G1 X51.753 Y57.817 E0.03757
G1 X51.571 Y58.681 E0.03757
G1 X51.48 Y59.559 E0.03757
G1 X51.48 Y60.441 E0.03757
G1 X51.571 Y61.319 E0.03757
G1 X51.753 Y62.183 E0.03757
G1 X52.021 Y63.02 E0.0374
G1 X52.268 Y63.598 E0.02676
G1 X52.587 Y64.223 E0.02987
G1 X53.062 Y64.964 E0.03746
G1 X53.612 Y65.654 E0.03757
G1 X54.23 Y66.284 E0.03757
G1 X54.91 Y66.847 E0.03757
G1 X55.645 Y67.336 E0.03757
G1 X56.422 Y67.744 E0.03738
G1 X57.003 Y67.985 E0.02678
G1 X57.67 Y68.207 E0.02989
G1 X58.527 Y68.403 E0.03744
G1 X59.403 Y68.51 E0.03757
G1 X60.286 Y68.526 E0.03757
G1 X61.165 Y68.451 E0.03757
G1 X62.032 Y68.286 E0.03757
G1 X62.873 Y68.033 E0.03736
G1 X63.457 Y67.798 E0.02679
G1 X64.087 Y67.488 E0.0299
G1 X64.836 Y67.028 E0.03743
G1 X65.536 Y66.49 E0.03757
G1 X66.177 Y65.884 E0.03757
G1 X66.752 Y65.214 E0.03757
G1 X67.255 Y64.488 E0.03757
G1 X67.68 Y63.715 E0.03757
G1 X68.022 Y62.901 E0.03757
G1 X68.279 Y62.057 E0.03757
G1 X68.447 Y61.191 E0.03757
G1 X68.524 Y60.317 E0.03734
G1 X68.524 Y59.683 E0.02697
G1 X68.447 Y58.809 E0.03734
G1 X68.279 Y57.943 E0.03757
G1 X68.023 Y57.102 E0.03741
G1 X67.757 Y56.452 E0.02992
G1 X67.474 Y55.889 E0.02681
G1 X67.013 Y55.142 E0.03735
G1 X66.473 Y54.444 E0.03757
G1 X65.865 Y53.805 E0.03757
G1 X65.193 Y53.232 E0.03757
G1 X64.466 Y52.732 E0.03757
G1 X63.694 Y52.311 E0.03743
G1 X63.049 Y52.034 E0.0299
G1 X62.453 Y51.83 E0.02679
G1 X61.601 Y51.62 E0.03737
G1 X60.726 Y51.5 E0.03757
G1 X59.844 Y51.47 E0.03757
G1 X58.964 Y51.532 E0.03757
G1 X58.094 Y51.684 E0.03757
G1 X57.245 Y51.926 E0.03757
G1 X56.426 Y52.254 E0.03757
G1 X55.645 Y52.664 E0.03757
G1 X54.91 Y53.153 E0.03757
G1 X54.235 Y53.712 E0.0373
G1 X54.535 Y54.047 F27000
; custom gcode: feature_gcode
; External perimeter
;ExternalPerimeter
SET_VELOCITY_LIMIT ACCEL=450 ACCEL_TO_DECEL=250 SQUARE_CORNER_VELOCITY=8

; Perimeter
; custom gcode end: feature_gcode

;TYPE:External perimeter
G1 F1800
G1 X54.066 Y54.517 E0.02828
G1 X53.679 Y54.965 E0.02521
G1 X53.193 Y55.644 E0.03552
G1 X52.779 Y56.371 E0.03559
G1 X52.443 Y57.136 E0.03559
G1 X52.187 Y57.932 E0.03559
G1 X52.016 Y58.75 E0.03559
G1 X51.929 Y59.582 E0.03559
G1 X51.929 Y60.418 E0.03559
G1 X52.016 Y61.25 E0.03559
G1 X52.187 Y62.068 E0.03559
G1 X52.442 Y62.863 E0.03553
G1 X52.675 Y63.408 E0.02521
G1 X52.977 Y63.999 E0.02828
G1 X53.427 Y64.702 E0.03555
G1 X53.948 Y65.356 E0.03559
G1 X54.534 Y65.953 E0.03559
G1 X55.178 Y66.486 E0.03559
G1 X55.874 Y66.949 E0.03559
G1 X56.613 Y67.337 E0.03552
G1 X57.16 Y67.564 E0.02521
G1 X57.791 Y67.774 E0.02828
G1 X58.605 Y67.96 E0.03554
G1 X59.435 Y68.062 E0.03559
G1 X60.271 Y68.077 E0.03559
G1 X61.104 Y68.006 E0.03559
G1 X61.925 Y67.849 E0.03559
G1 X62.724 Y67.608 E0.03551
G1 X63.274 Y67.387 E0.02522
G1 X63.87 Y67.094 E0.02829
G1 X64.581 Y66.657 E0.03554
G1 X65.245 Y66.148 E0.03559
G1 X65.852 Y65.573 E0.03559
G1 X66.396 Y64.939 E0.03559
G1 X66.872 Y64.252 E0.03559
G1 X67.275 Y63.519 E0.03559
G1 X67.599 Y62.748 E0.03559
G1 X67.843 Y61.949 E0.03559
G1 X68.002 Y61.128 E0.03559
G1 X68.075 Y60.297 E0.0355
G1 X68.075 Y59.703 E0.02528
G1 X68.002 Y58.872 E0.0355
G1 X67.843 Y58.051 E0.03559
G1 X67.6 Y57.253 E0.03553
G1 X67.348 Y56.638 E0.02829
G1 X67.082 Y56.108 E0.02522
G1 X66.643 Y55.398 E0.03551
G1 X66.132 Y54.737 E0.03559
G1 X65.556 Y54.131 E0.03559
G1 X64.92 Y53.589 E0.03559
G1 X64.231 Y53.115 E0.03559
G1 X63.498 Y52.715 E0.03554
G1 X62.887 Y52.453 E0.02829
G1 X62.327 Y52.261 E0.02522
G1 X61.516 Y52.062 E0.03551
G1 X60.688 Y51.948 E0.03559
G1 X59.852 Y51.92 E0.03559
G1 X59.018 Y51.978 E0.03559
G1 X58.195 Y52.123 E0.03559
G1 X57.391 Y52.351 E0.03559
G1 X56.614 Y52.662 E0.03559
G1 X55.874 Y53.051 E0.03559
G1 X55.178 Y53.514 E0.03559
G1 X54.581 Y54.008 E0.03299
;WIPE_START
G1 X54.152 Y53.931 F27000
;WIPE_END
G1 X46.778 Y68.42
; custom gcode: feature_gcode
; External perimeter
;Perimeter
SET_VELOCITY_LIMIT ACCEL=800 ACCEL_TO_DECEL=400 SQUARE_CORNER_VELOCITY=8

; Overhang perimeter
; custom gcode end: feature_gcode

;TYPE:Internal perimeter
G1 F1800
G1 X46.778 Y51.58 E0.71677
G1 X51.58 Y46.778 E0.28904
G1 X68.42 Y46.778 E0.71677
G1 X73.222 Y51.58 E0.28904
G1 X73.222 Y68.42 E0.71677
M73 P1 R52
G1 X68.42 Y73.222 E0.28904
G1 X51.58 Y73.222 E0.71677
G1 X46.821 Y68.462 E0.28649
G1 E-0.5
G1 Z0.5375 F27000
G1 X73.671 Y51.394
G1 Z0.2375
G1 E0.5 F1800
G1 X73.671 Y68.606 E0.73261
G1 X68.606 Y73.671 E0.30488
G1 X51.394 Y73.671 E0.73261
G1 X46.329 Y68.606 E0.30488
G1 X46.329 Y51.394 E0.73261
G1 X51.394 Y46.329 E0.30488
G1 X68.606 Y46.329 E0.73261
G1 X73.628 Y51.352 E0.30232
G1 E-0.5
G1 Z0.5375 F27000
G1 X45.88 Y68.792
G1 Z0.2375
G1 E0.5 F1800
G1 X45.88 Y51.208 E0.74844
G1 X51.208 Y45.88 E0.32071
G1 X68.792 Y45.88 E0.74844
G1 X74.12 Y51.208 E0.32071
G1 X74.12 Y68.792 E0.74844
M73 P1 R51
G1 X68.792 Y74.12 E0.32071
G1 X51.208 Y74.12 E0.74844
G1 X45.923 Y68.834 E0.31816
G1 E-0.5
G1 Z0.5375 F27000
G1 X68.978 Y45.431
G1 Z0.2375
G1 E0.5 F1800
; custom gcode: feature_gcode
; External perimeter
;ExternalPerimeter
SET_VELOCITY_LIMIT ACCEL=450 ACCEL_TO_DECEL=250 SQUARE_CORNER_VELOCITY=8

; Perimeter
; custom gcode end: feature_gcode

;TYPE:External perimeter
G1 X69.216 Y45.67 E0.01435
G1 X74.569 Y51.022 E0.32219
G1 X74.569 Y68.978 E0.76427
G1 X68.978 Y74.569 E0.33654
G1 X51.022 Y74.569 E0.76427
G1 X45.431 Y68.978 E0.33654
G1 X45.431 Y51.022 E0.76427
G1 X51.022 Y45.431 E0.33654
G1 X68.918 Y45.431 E0.76172
;WIPE_START
G1 X68.978 Y45.768 F27000
;WIPE_END
G1 X68.106 Y46.846
; custom gcode: feature_gcode
; External perimeter
;SolidInfill
SET_VELOCITY_LIMIT ACCEL=3800 ACCEL_TO_DECEL=2000 SQUARE_CORNER_VELOCITY=8

; Bridge infill
; custom gcode end: feature_gcode

;TYPE:Solid infill
;WIDTH:0.488208
G1 F1800
G1 X72.961 Y51.701 E0.28536
G1 X72.961 Y52.336 E0.02639
G1 X67.664 Y47.039 E0.31133
G1 X67.029 Y47.039 E0.02639
G1 X72.961 Y52.971 E0.34866
G1 X72.961 Y53.606 E0.02639
G1 X66.394 Y47.039 E0.38598
G1 X65.759 Y47.039 E0.02639
G1 X72.961 Y54.241 E0.42331
G1 X72.961 Y54.876 E0.02639
G1 X65.124 Y47.039 E0.46063
G1 X64.489 Y47.039 E0.02639
G1 X72.961 Y55.511 E0.49795
G1 X72.961 Y56.146 E0.02639
G1 X63.854 Y47.039 E0.53528
G1 X63.219 Y47.039 E0.02639
G1 X72.961 Y56.781 E0.5726
G1 X72.961 Y57.416 E0.02639
G1 X62.584 Y47.039 E0.60993
G1 X61.949 Y47.039 E0.02639
G1 X72.961 Y58.051 E0.64725
G1 X72.961 Y58.686 E0.02639
G1 X61.314 Y47.039 E0.68458
G1 X60.679 Y47.039 E0.02639
G1 X72.961 Y59.321 E0.7219
G1 X72.961 Y59.956 E0.02639
G1 X68.646 Y55.641 E0.2536
G1 X68.812 Y55.972 E0.01535
G1 X69.116 Y56.713 E0.0333
G1 X69.13 Y56.76 E0.00203
G1 X72.961 Y60.591 E0.22518
G1 X72.961 Y61.226 E0.02639
G1 X69.406 Y57.671 E0.20894
G1 X69.559 Y58.459 E0.03336
G1 X72.961 Y61.861 E0.19995
G1 X72.961 Y62.496 E0.02639
G1 X69.643 Y59.178 E0.19505
G1 X69.683 Y59.632 E0.01895
G1 X69.683 Y59.853 E0.00918
G1 X72.961 Y63.131 E0.19268
G1 X72.961 Y63.766 E0.02639
G1 X69.673 Y60.478 E0.19326
G1 X69.622 Y61.062 E0.02434
G1 X72.961 Y64.401 E0.19629
G1 X72.961 Y65.036 E0.02639
G1 X69.544 Y61.619 E0.20084
G1 X69.441 Y62.151 E0.02251
G1 X72.961 Y65.671 E0.20691
G1 X72.961 Y66.306 E0.02639
G1 X69.308 Y62.654 E0.2147
G1 X69.16 Y63.141 E0.02115
G1 X72.961 Y66.941 E0.2234
G1 X72.961 Y67.576 E0.02639
G1 X68.985 Y63.6 E0.23371
G1 X68.797 Y64.047 E0.02015
G1 X72.961 Y68.211 E0.24477
G1 X72.961 Y68.312 E0.00418
G1 X72.694 Y68.579 E0.01571
G1 X68.586 Y64.471 E0.24146
