;FLAVOR:Marlin
;TIME:6764
;Filament used: 4.84779m
;Layer height: 0.1
;MINX:27.2
;MINY:27.2
;MINZ:0.3
;MAXX:192.8
;MAXY:192.8
;MAXZ:2
;Generated with Cura_SteamEngine 4.10.0
M140 S57
M105
M190 S57
M104 S195
M105
M109 S195
M82 ;absolute extrusion mode
G28 ;Home
G1 Z15.0 F2000 ;Move the platform
G92 E0
G92 E0
G1 F1500 E-9.5
;LAYER_COUNT:18
;LAYER:0
M107
M204 S1000
G0 F7500 X29.623 Y29.349 Z0.3
;TYPE:SKIRT
G1 F1500 E0
G1 X30.222 Y28.834 E0.03941
G1 X30.87 Y28.383 E0.0788
G1 X31.561 Y27.999 E0.11824
G1 X32.286 Y27.687 E0.15762
G1 X33.039 Y27.45 E0.197
G1 X33.813 Y27.291 E0.23642
G1 X34.598 Y27.21 E0.27579
G1 X35 Y27.2 E0.29586
G1 X185 Y27.2 E7.77939
G1 X185.789 Y27.24 E7.8188
G1 X186.569 Y27.359 E7.85816
G1 X187.334 Y27.557 E7.89759
G1 X188.074 Y27.831 E7.93696
G1 X188.783 Y28.179 E7.97636
G1 X189.454 Y28.597 E8.0158
G1 X190.078 Y29.08 E8.05517
G1 X190.651 Y29.623 E8.09455
G1 X191.166 Y30.222 E8.13396
G1 X191.617 Y30.87 E8.17335
G1 X192.001 Y31.561 E8.21279
G1 X192.313 Y32.286 E8.25217
G1 X192.55 Y33.039 E8.29155
G1 X192.709 Y33.813 E8.33097
G1 X192.79 Y34.598 E8.37035
G1 X192.8 Y35 E8.39041
G1 X192.8 Y185 E15.87394
G1 X192.76 Y185.789 E15.91335
G1 X192.641 Y186.569 E15.95272
G1 X192.443 Y187.334 E15.99214
G1 X192.169 Y188.074 E16.03151
G1 X191.821 Y188.783 E16.07091
G1 X191.403 Y189.454 E16.11035
G1 X190.92 Y190.078 E16.14972
G1 X190.377 Y190.651 E16.1891
G1 X189.778 Y191.166 E16.22852
G1 X189.13 Y191.617 E16.2679
G1 X188.439 Y192.001 E16.30734
G1 X187.714 Y192.313 E16.34672
G1 X186.961 Y192.55 E16.38611
G1 X186.187 Y192.709 E16.42553
G1 X185.402 Y192.79 E16.4649
G1 X185 Y192.8 E16.48496
G1 X35 Y192.8 E23.96849
G1 X34.211 Y192.76 E24.0079
G1 X33.431 Y192.641 E24.04727
G1 X32.666 Y192.443 E24.08669
G1 X31.926 Y192.169 E24.12606
G1 X31.217 Y191.821 E24.16546
G1 X30.546 Y191.403 E24.20491
G1 X29.922 Y190.92 E24.24427
G1 X29.349 Y190.377 E24.28366
G1 X28.834 Y189.778 E24.32307
G1 X28.383 Y189.13 E24.36246
G1 X27.999 Y188.439 E24.4019
G1 X27.687 Y187.714 E24.44127
G1 X27.45 Y186.961 E24.48066
G1 X27.291 Y186.187 E24.52008
G1 X27.21 Y185.402 E24.55945
G1 X27.2 Y185 E24.57951
G1 X27.2 Y35 E32.06304
G1 X27.24 Y34.211 E32.10246
G1 X27.359 Y33.431 E32.14182
G1 X27.557 Y32.666 E32.18125
G1 X27.831 Y31.926 E32.22061
G1 X28.179 Y31.217 E32.26002
G1 X28.597 Y30.546 E32.29946
G1 X29.08 Y29.922 E32.33883
G1 X29.623 Y29.349 E32.37821
G0 F7500 X30.016 Y29.53
G1 F1500 X30.611 Y29.042 E32.4166
G1 X31.253 Y28.619 E32.45496
G1 X31.936 Y28.264 E32.49336
G1 X32.651 Y27.983 E32.53169
G1 X33.393 Y27.777 E32.57011
G1 X34.151 Y27.649 E32.60846
G1 X35 Y27.6 E32.65089
G1 X185 Y27.6 E40.13442
G1 X185.768 Y27.64 E40.17278
G1 X186.528 Y27.759 E40.21116
G1 X187.271 Y27.957 E40.24953
G1 X187.99 Y28.231 E40.28791
G1 X188.676 Y28.578 E40.32627
G1 X189.323 Y28.994 E40.36464
G1 X189.923 Y29.475 E40.40301
G1 X190.47 Y30.016 E40.44139
G1 X190.958 Y30.611 E40.47978
G1 X191.381 Y31.253 E40.51814
G1 X191.736 Y31.936 E40.55654
G1 X192.017 Y32.651 E40.59487
G1 X192.223 Y33.393 E40.63329
G1 X192.351 Y34.151 E40.67164
G1 X192.4 Y35 E40.71407
G1 X192.4 Y185 E48.1976
G1 X192.36 Y185.768 E48.23597
G1 X192.241 Y186.528 E48.27434
G1 X192.043 Y187.271 E48.31271
G1 X191.769 Y187.99 E48.35109
G1 X191.422 Y188.676 E48.38945
G1 X191.006 Y189.323 E48.42782
G1 X190.525 Y189.923 E48.46619
G1 X189.984 Y190.47 E48.50457
G1 X189.389 Y190.958 E48.54296
G1 X188.747 Y191.381 E48.58132
G1 X188.064 Y191.736 E48.61972
G1 X187.349 Y192.017 E48.65805
G1 X186.607 Y192.223 E48.69647
G1 X185.849 Y192.351 E48.73482
G1 X185 Y192.4 E48.77725
G1 X35 Y192.4 E56.26078
G1 X34.232 Y192.36 E56.29915
G1 X33.472 Y192.241 E56.33753
G1 X32.729 Y192.043 E56.37589
G1 X32.01 Y191.769 E56.41427
G1 X31.324 Y191.422 E56.45263
G1 X30.677 Y191.006 E56.491
G1 X30.077 Y190.525 E56.52937
G1 X29.53 Y189.984 E56.56775
G1 X29.042 Y189.389 E56.60614
G1 X28.619 Y188.747 E56.6445
G1 X28.264 Y188.064 E56.6829
G1 X27.983 Y187.349 E56.72123
G1 X27.777 Y186.607 E56.75965
G1 X27.649 Y185.849 E56.798
G1 X27.6 Y185 E56.84043
G1 X27.6 Y35 E64.32396
G1 X27.64 Y34.232 E64.36233
G1 X27.759 Y33.472 E64.40071
G1 X27.957 Y32.729 E64.43907
G1 X28.231 Y32.01 E64.47746
G1 X28.578 Y31.324 E64.51581
G1 X28.994 Y30.677 E64.55419
G1 X29.475 Y30.077 E64.59255
G1 X30.016 Y29.53 E64.63093
G0 F7500 X30.408 Y29.716
G1 F1500 X30.998 Y29.257 E64.66823
G1 X31.634 Y28.862 E64.70558
G1 X32.308 Y28.538 E64.74289
G1 X33.013 Y28.288 E64.78021
G1 X33.741 Y28.114 E64.81755
G1 X34.483 Y28.019 E64.85487
G1 X35 Y28 E64.88068
G1 X185 Y28 E72.36421
G1 X185.747 Y28.04 E72.40153
G1 X186.485 Y28.159 E72.43883
G1 X187.207 Y28.357 E72.47618
G1 X187.903 Y28.63 E72.51348
G1 X188.566 Y28.977 E72.55081
G1 X189.189 Y29.392 E72.58816
G1 X189.763 Y29.871 E72.62546
G1 X190.284 Y30.408 E72.66278
G1 X190.743 Y30.998 E72.70008
G1 X191.138 Y31.634 E72.73743
G1 X191.462 Y32.308 E72.77474
G1 X191.712 Y33.013 E72.81206
G1 X191.886 Y33.741 E72.8494
G1 X191.981 Y34.483 E72.88672
G1 X192 Y35 E72.91253
G1 X192 Y185 E80.39606
G1 X191.96 Y185.747 E80.43338
G1 X191.841 Y186.485 E80.47068
G1 X191.643 Y187.207 E80.50803
G1 X191.37 Y187.903 E80.54533
G1 X191.023 Y188.566 E80.58266
G1 X190.608 Y189.189 E80.62001
G1 X190.129 Y189.763 E80.65731
G1 X189.592 Y190.284 E80.69463
G1 X189.002 Y190.743 E80.73193
G1 X188.366 Y191.138 E80.76928
G1 X187.692 Y191.462 E80.80659
G1 X186.987 Y191.712 E80.84391
G1 X186.259 Y191.886 E80.88125
G1 X185.517 Y191.981 E80.91857
G1 X185 Y192 E80.94438
G1 X35 Y192 E88.42791
G1 X34.253 Y191.96 E88.46523
G1 X33.515 Y191.841 E88.50253
G1 X32.793 Y191.643 E88.53988
G1 X32.097 Y191.37 E88.57718
G1 X31.434 Y191.023 E88.61451
G1 X30.811 Y190.608 E88.65186
G1 X30.237 Y190.129 E88.68916
G1 X29.716 Y189.592 E88.72648
G1 X29.257 Y189.002 E88.76378
G1 X28.862 Y188.366 E88.80113
G1 X28.538 Y187.692 E88.83844
G1 X28.288 Y186.987 E88.87576
G1 X28.114 Y186.259 E88.9131
G1 X28.019 Y185.517 E88.95042
G1 X28 Y185 E88.97623
G1 X28 Y35 E96.45976
G1 X28.04 Y34.253 E96.49708
G1 X28.159 Y33.515 E96.53438
G1 X28.357 Y32.793 E96.57173
G1 X28.63 Y32.097 E96.60903
G1 X28.977 Y31.434 E96.64636
G1 X29.392 Y30.811 E96.68371
G1 X29.871 Y30.237 E96.72101
G1 X30.408 Y29.716 E96.75834
G0 F7500 X30.265 Y30.402
G1 F1500 X30.799 Y29.909 E96.79459
G1 X31.384 Y29.479 E96.83082
G1 X32.013 Y29.115 E96.86707
G1 X32.678 Y28.822 E96.90333
G1 X33.371 Y28.604 E96.93957
G1 X34.083 Y28.464 E96.97577
G1 X35 Y28.4 E97.02163
G1 X185 Y28.4 E104.50516
G1 X185.725 Y28.44 E104.54139
G1 X186.442 Y28.559 E104.57765
G1 X187.141 Y28.757 E104.6139
G1 X187.814 Y29.03 E104.65013
G1 X188.453 Y29.375 E104.68636
G1 X189.05 Y29.789 E104.7226
G1 X189.598 Y30.265 E104.75882
G1 X190.091 Y30.799 E104.79508
G1 X190.521 Y31.384 E104.8313
G1 X190.885 Y32.013 E104.86756
G1 X191.178 Y32.678 E104.90381
G1 X191.396 Y33.371 E104.94005
G1 X191.536 Y34.083 E104.97626
G1 X191.6 Y35 E105.02212
G1 X191.6 Y185 E112.50565
G1 X191.56 Y185.725 E112.54187
G1 X191.441 Y186.442 E112.57813
G1 X191.243 Y187.141 E112.61438
G1 X190.97 Y187.814 E112.65061
G1 X190.625 Y188.453 E112.68684
G1 X190.211 Y189.05 E112.72309
G1 X189.735 Y189.598 E112.7593
G1 X189.201 Y190.091 E112.79556
G1 X188.616 Y190.521 E112.83178
G1 X187.987 Y190.885 E112.86804
G1 X187.322 Y191.178 E112.90429
G1 X186.629 Y191.396 E112.94054
G1 X185.917 Y191.536 E112.97674
G1 X185 Y191.6 E113.0226
G1 X35 Y191.6 E120.50613
G1 X34.275 Y191.56 E120.54236
G1 X33.558 Y191.441 E120.57862
G1 X32.859 Y191.243 E120.61486
G1 X32.186 Y190.97 E120.65109
G1 X31.547 Y190.625 E120.68732
G1 X30.95 Y190.211 E120.72357
G1 X30.402 Y189.735 E120.75978
G1 X29.909 Y189.201 E120.79604
G1 X29.479 Y188.616 E120.83226
G1 X29.115 Y187.987 E120.86852
G1 X28.822 Y187.322 E120.90478
G1 X28.604 Y186.629 E120.94102
G1 X28.464 Y185.917 E120.97722
G1 X28.4 Y185 E121.02308
G1 X28.4 Y35 E128.50661
G1 X28.44 Y34.275 E128.54284
G1 X28.559 Y33.558 E128.5791
G1 X28.757 Y32.859 E128.61534
G1 X29.03 Y32.186 E128.65158
G1 X29.375 Y31.547 E128.68781
G1 X29.789 Y30.95 E128.72405
G1 X30.265 Y30.402 E128.76027
G0 F7500 X30.659 Y30.573
G1 F1500 X31.189 Y30.109 E128.79541
G1 X31.768 Y29.709 E128.83052
G1 X32.389 Y29.377 E128.86565
G1 X33.043 Y29.117 E128.90076
G1 X33.723 Y28.933 E128.93591
G1 X34.419 Y28.827 E128.97103
G1 X35 Y28.8 E129.00005
G1 X185 Y28.8 E136.48358
G1 X185.703 Y28.84 E136.51871
G1 X186.397 Y28.959 E136.55384
G1 X187.072 Y29.157 E136.58893
G1 X187.721 Y29.429 E136.62404
G1 X188.335 Y29.774 E136.65918
G1 X188.906 Y30.185 E136.69428
G1 X189.427 Y30.659 E136.72942
G1 X189.891 Y31.189 E136.76456
G1 X190.291 Y31.768 E136.79967
G1 X190.623 Y32.389 E136.8348
G1 X190.883 Y33.043 E136.86991
G1 X191.067 Y33.723 E136.90506
G1 X191.173 Y34.419 E136.94018
G1 X191.2 Y35 E136.9692
G1 X191.2 Y185 E144.45273
G1 X191.16 Y185.703 E144.48786
G1 X191.041 Y186.397 E144.52299
G1 X190.843 Y187.072 E144.55808
G1 X190.571 Y187.721 E144.59319
G1 X190.226 Y188.335 E144.62833
G1 X189.815 Y188.906 E144.66343
G1 X189.341 Y189.427 E144.69857
G1 X188.811 Y189.891 E144.73371
G1 X188.232 Y190.291 E144.76882
G1 X187.611 Y190.623 E144.80395
G1 X186.957 Y190.883 E144.83907
G1 X186.277 Y191.067 E144.87421
G1 X185.581 Y191.173 E144.90933
G1 X185 Y191.2 E144.93835
G1 X35 Y191.2 E152.42188
G1 X34.297 Y191.16 E152.45701
G1 X33.603 Y191.041 E152.49214
G1 X32.928 Y190.843 E152.52724
G1 X32.279 Y190.571 E152.56234
G1 X31.665 Y190.226 E152.59748
G1 X31.094 Y189.815 E152.63258
G1 X30.573 Y189.341 E152.66772
G1 X30.109 Y188.811 E152.70286
G1 X29.709 Y188.232 E152.73797
G1 X29.377 Y187.611 E152.7731
G1 X29.117 Y186.957 E152.80822
G1 X28.933 Y186.277 E152.84336
G1 X28.827 Y185.581 E152.87849
G1 X28.8 Y185 E152.9075
G1 X28.8 Y35 E160.39103
G1 X28.84 Y34.297 E160.42616
G1 X28.959 Y33.603 E160.46129
G1 X29.157 Y32.928 E160.49639
G1 X29.429 Y32.279 E160.53149
G1 X29.774 Y31.665 E160.56663
G1 X30.185 Y31.094 E160.60173
G1 X30.659 Y30.573 E160.63687
G0 F7500 X31.053 Y30.751
G1 F1500 X31.578 Y30.317 E160.67086
G1 X32.15 Y29.948 E160.70481
G1 X32.762 Y29.649 E160.7388
G1 X33.404 Y29.424 E160.77274
G1 X34.069 Y29.275 E160.80674
G1 X35 Y29.2 E160.85333
G1 X185 Y29.2 E168.33686
G1 X185.68 Y29.24 E168.37085
G1 X186.35 Y29.359 E168.4048
G1 X187.002 Y29.556 E168.43878
G1 X187.626 Y29.828 E168.47274
G1 X188.214 Y30.172 E168.50673
G1 X188.758 Y30.582 E168.54071
G1 X189.249 Y31.053 E168.57466
G1 X189.683 Y31.578 E168.60864
G1 X190.052 Y32.15 E168.6426
G1 X190.351 Y32.762 E168.67658
G1 X190.576 Y33.404 E168.71052
G1 X190.725 Y34.069 E168.74452
G1 X190.8 Y35 E168.79112
G1 X190.8 Y185 E176.27465
G1 X190.76 Y185.68 E176.30863
G1 X190.641 Y186.35 E176.34258
G1 X190.444 Y187.002 E176.37656
G1 X190.172 Y187.626 E176.41052
G1 X189.828 Y188.214 E176.44451
G1 X189.418 Y188.758 E176.4785
G1 X188.947 Y189.249 E176.51244
G1 X188.422 Y189.683 E176.54642
G1 X187.85 Y190.052 E176.58038
G1 X187.238 Y190.351 E176.61437
G1 X186.596 Y190.576 E176.64831
G1 X185.931 Y190.725 E176.68231
G1 X185 Y190.8 E176.7289
G1 X35 Y190.8 E184.21243
G1 X34.32 Y190.76 E184.24642
G1 X33.65 Y190.641 E184.28037
G1 X32.998 Y190.444 E184.31435
G1 X32.374 Y190.172 E184.34831
G1 X31.786 Y189.828 E184.3823
G1 X31.242 Y189.418 E184.41628
G1 X30.751 Y188.947 E184.45023
G1 X30.317 Y188.422 E184.48421
G1 X29.948 Y187.85 E184.51817
G1 X29.649 Y187.238 E184.55215
G1 X29.424 Y186.596 E184.58609
G1 X29.275 Y185.931 E184.62009
G1 X29.2 Y185 E184.66669
G1 X29.2 Y35 E192.15022
G1 X29.24 Y34.32 E192.1842
G1 X29.359 Y33.65 E192.21815
G1 X29.556 Y32.998 E192.25213
G1 X29.828 Y32.374 E192.28609
G1 X30.172 Y31.786 E192.32008
G1 X30.582 Y31.242 E192.35407
G1 X31.053 Y30.751 E192.38801
G0 F7500 X31.445 Y30.935
G1 F1500 X31.965 Y30.534 E192.42077
G1 X32.529 Y30.198 E192.45352
G1 X33.131 Y29.934 E192.48632
G1 X33.76 Y29.744 E192.5191
G1 X34.407 Y29.633 E192.55185
G1 X35 Y29.6 E192.58148
G1 X185 Y29.6 E200.06501
G1 X185.656 Y29.64 E200.0978
G1 X186.302 Y29.759 E200.13057
G1 X186.929 Y29.956 E200.16336
G1 X187.527 Y30.228 E200.19614
G1 X188.088 Y30.57 E200.22892
G1 X188.603 Y30.978 E200.2617
G1 X189.065 Y31.445 E200.29447
G1 X189.466 Y31.965 E200.32723
G1 X189.802 Y32.529 E200.35998
G1 X190.066 Y33.131 E200.39278
G1 X190.256 Y33.76 E200.42556
G1 X190.367 Y34.407 E200.45831
G1 X190.4 Y35 E200.48794
G1 X190.4 Y185 E207.97147
G1 X190.36 Y185.656 E208.00426
G1 X190.241 Y186.302 E208.03703
G1 X190.044 Y186.929 E208.06982
G1 X189.772 Y187.527 E208.10259
G1 X189.43 Y188.088 E208.13537
G1 X189.022 Y188.603 E208.16815
G1 X188.555 Y189.065 E208.20093
G1 X188.035 Y189.466 E208.23369
G1 X187.471 Y189.802 E208.26644
G1 X186.869 Y190.066 E208.29924
G1 X186.24 Y190.256 E208.33202
G1 X185.593 Y190.367 E208.36477
G1 X185 Y190.4 E208.3944
G1 X35 Y190.4 E215.87793
G1 X34.344 Y190.36 E215.91072
G1 X33.698 Y190.241 E215.94349
G1 X33.071 Y190.044 E215.97628
G1 X32.473 Y189.772 E216.00905
G1 X31.912 Y189.43 E216.04183
G1 X31.397 Y189.022 E216.07461
G1 X30.935 Y188.555 E216.10738
G1 X30.534 Y188.035 E216.14015
G1 X30.198 Y187.471 E216.1729
G1 X29.934 Y186.869 E216.20569
G1 X29.744 Y186.24 E216.23848
G1 X29.633 Y185.593 E216.27123
G1 X29.6 Y185 E216.30086
G1 X29.6 Y35 E223.78439
G1 X29.64 Y34.344 E223.81718
G1 X29.759 Y33.698 E223.84995
G1 X29.956 Y33.071 E223.88274
G1 X30.228 Y32.473 E223.91551
G1 X30.57 Y31.912 E223.94829
G1 X30.978 Y31.397 E223.98107
G1 X31.445 Y30.935 E224.01384
G0 F7500 X31.373 Y31.559
G1 F1500 X31.836 Y31.129 E224.04537
G1 X32.35 Y30.76 E224.07694
G1 X32.906 Y30.46 E224.10845
G1 X33.495 Y30.232 E224.13996
G1 X34.109 Y30.08 E224.17152
G1 X35 Y30 E224.21615
G1 X185 Y30 E231.69968
G1 X185.631 Y30.04 E231.73123
G1 X186.252 Y30.159 E231.76277
G1 X186.852 Y30.356 E231.79428
G1 X187.424 Y30.627 E231.82586
G1 X187.956 Y30.967 E231.85736
G1 X188.441 Y31.373 E231.88891
G1 X188.871 Y31.836 E231.92044
G1 X189.24 Y32.35 E231.952
G1 X189.54 Y32.906 E231.98352
G1 X189.768 Y33.495 E232.01503
G1 X189.92 Y34.109 E232.04659
G1 X190 Y35 E232.09122
G1 X190 Y185 E239.57475
G1 X189.96 Y185.631 E239.6063
G1 X189.841 Y186.252 E239.63784
G1 X189.644 Y186.852 E239.66935
G1 X189.373 Y187.424 E239.70093
G1 X189.033 Y187.956 E239.73242
G1 X188.627 Y188.441 E239.76398
G1 X188.164 Y188.871 E239.7955
G1 X187.65 Y189.24 E239.82707
G1 X187.094 Y189.54 E239.85859
G1 X186.505 Y189.768 E239.8901
G1 X185.891 Y189.92 E239.92166
G1 X185 Y190 E239.96629
G1 X35 Y190 E247.44982
G1 X34.369 Y189.96 E247.48136
G1 X33.748 Y189.841 E247.51291
G1 X33.148 Y189.644 E247.54442
G1 X32.576 Y189.373 E247.57599
G1 X32.044 Y189.033 E247.60749
G1 X31.559 Y188.627 E247.63905
G1 X31.129 Y188.164 E247.67057
G1 X30.76 Y187.65 E247.70214
G1 X30.46 Y187.094 E247.73366
G1 X30.232 Y186.505 E247.76517
G1 X30.08 Y185.891 E247.79673
G1 X30 Y185 E247.84136
G1 X30 Y35 E255.32489
G1 X30.04 Y34.369 E255.35643
G1 X30.159 Y33.748 E255.38798
G1 X30.356 Y33.148 E255.41948
G1 X30.627 Y32.576 E255.45106
G1 X30.967 Y32.044 E255.48256
G1 X31.373 Y31.559 E255.51412
G0 F7500 X31.767 Y31.728
G1 F1500 X32.225 Y31.331 E255.54436
G1 X32.732 Y30.998 E255.57462
G1 X33.278 Y30.734 E255.60488
G1 X33.854 Y30.545 E255.63512
G1 X34.45 Y30.433 E255.66537
G1 X35 Y30.4 E255.69286
G1 X185 Y30.4 E263.17639
G1 X185.605 Y30.44 E263.20664
G1 X186.199 Y30.559 E263.23687
G1 X186.773 Y30.755 E263.26713
G1 X187.316 Y31.026 E263.2974
G1 X187.819 Y31.365 E263.32767
G1 X188.272 Y31.767 E263.35788
G1 X188.669 Y32.225 E263.38812
G1 X189.002 Y32.732 E263.41838
G1 X189.266 Y33.278 E263.44864
G1 X189.455 Y33.854 E263.47889
G1 X189.567 Y34.45 E263.50914
G1 X189.6 Y35 E263.53663
G1 X189.6 Y185 E271.02016
G1 X189.56 Y185.605 E271.05041
G1 X189.441 Y186.199 E271.08063
G1 X189.245 Y186.773 E271.11089
G1 X188.974 Y187.316 E271.14117
G1 X188.635 Y187.819 E271.17143
G1 X188.233 Y188.272 E271.20165
G1 X187.775 Y188.669 E271.23189
G1 X187.268 Y189.002 E271.26215
G1 X186.722 Y189.266 E271.29241
G1 X186.146 Y189.455 E271.32265
G1 X185.55 Y189.567 E271.35291
G1 X185 Y189.6 E271.38039
G1 X35 Y189.6 E278.86393
G1 X34.395 Y189.56 E278.89417
G1 X33.801 Y189.441 E278.9244
G1 X33.227 Y189.245 E278.95466
G1 X32.684 Y188.974 E278.98494
G1 X32.181 Y188.635 E279.0152
G1 X31.728 Y188.233 E279.04541
G1 X31.331 Y187.775 E279.07565
G1 X30.998 Y187.268 E279.10592
