;FLAVOR:Marlin
;TIME:3729
;Filament used: 2.65497m
;Layer height: 0.15
;MINX:95.932
;MINY:91.35
;MINZ:0.3
;MAXX:128.668
;MAXY:128.65
;MAXZ:34.65
;Generated with Cura_SteamEngine 4.10.0
M140 S57
M105
M190 S57
M104 S196
M105
M109 S196
M82 ;absolute extrusion mode
G28 ;Home
G1 Z15.0 F2000 ;Move the platform
G92 E0
G92 E0
G1 F1500 E-6
;LAYER_COUNT:232
;LAYER:0
M107
M204 S1000
G0 F7500 X100.878 Y92.966 Z0.3
;TYPE:SKIRT
G1 F1500 E0
G1 X101.284 Y92.534 E0.02958
G1 X101.745 Y92.161 E0.05916
G1 X102.252 Y91.853 E0.08876
G1 X102.795 Y91.616 E0.11832
G1 X103.366 Y91.454 E0.14793
G1 X104.154 Y91.361 E0.18751
G1 X104.598 Y91.35 E0.20967
G1 X111.646 Y91.35 E0.5613
G1 X112.861 Y91.367 E0.62192
G1 X115.576 Y91.367 E0.75737
G1 X116.278 Y91.352 E0.7924
G1 X116.549 Y91.35 E0.80592
G1 X123.624 Y91.35 E1.1589
G1 X124.322 Y91.36 E1.19372
G1 X124.913 Y91.409 E1.22331
G1 X125.492 Y91.536 E1.25288
G1 X126.049 Y91.74 E1.28248
G1 X126.573 Y92.018 E1.31207
G1 X127.055 Y92.363 E1.34164
G1 X127.487 Y92.77 E1.37125
G1 X127.859 Y93.231 E1.40081
G1 X128.167 Y93.738 E1.4304
G1 X128.403 Y94.282 E1.45999
G1 X128.564 Y94.852 E1.48954
G1 X128.657 Y95.636 E1.52893
G1 X128.668 Y96.08 E1.55108
G1 X128.668 Y104.076 E1.95001
G1 X128.66 Y104.634 E1.97785
G1 X128.66 Y107.342 E2.11295
G1 X128.665 Y107.587 E2.12518
G1 X128.668 Y108.033 E2.14743
G1 X128.668 Y116.085 E2.54914
G1 X128.658 Y116.807 E2.58517
G1 X128.609 Y117.398 E2.61475
G1 X128.482 Y117.977 E2.64433
G1 X128.278 Y118.534 E2.67392
G1 X128.001 Y119.058 E2.70349
G1 X127.657 Y119.541 E2.73308
G1 X127.212 Y120.007 E2.76522
G1 X126.993 Y120.205 E2.77995
G1 X124.959 Y122.102 E2.91871
G1 X123.051 Y123.986 E3.05249
G1 X121.177 Y125.943 E3.18767
G1 X120.743 Y126.422 E3.21992
G1 X119.984 Y127.238 E3.27552
G1 X119.552 Y127.644 E3.30509
G1 X119.069 Y127.988 E3.33468
G1 X118.544 Y128.264 E3.36427
G1 X117.987 Y128.467 E3.39384
G1 X117.408 Y128.593 E3.42341
G1 X116.884 Y128.639 E3.44965
G1 X116.438 Y128.65 E3.47191
G1 X107.726 Y128.65 E3.90655
G1 X107.027 Y128.64 E3.94143
G1 X106.436 Y128.591 E3.97101
G1 X105.857 Y128.464 E4.00059
G1 X105.3 Y128.26 E4.03018
G1 X104.776 Y127.982 E4.05978
G1 X104.294 Y127.637 E4.08935
G1 X103.862 Y127.231 E4.11892
G1 X103.49 Y126.769 E4.14852
G1 X103.182 Y126.262 E4.17811
G1 X102.944 Y125.715 E4.20787
G1 X102.71 Y125.055 E4.24281
G1 X102.223 Y123.617 E4.31855
G1 X101.297 Y121.115 E4.45165
G1 X100.29 Y118.616 E4.58607
G1 X100.211 Y118.425 E4.59638
G1 X100.022 Y117.863 E4.62597
G1 X99.91 Y117.28 E4.65558
G1 X99.879 Y116.866 E4.6763
G1 X99.868 Y116.42 E4.69855
G1 X99.868 Y108.412 E5.09807
G1 X99.876 Y107.865 E5.12537
G1 X99.876 Y105.158 E5.26042
G1 X99.871 Y104.913 E5.27265
G1 X99.868 Y104.467 E5.2949
G1 X99.868 Y96.364 E5.69916
G1 X99.877 Y95.699 E5.73234
G1 X99.925 Y95.108 E5.76192
G1 X100.052 Y94.529 E5.79149
G1 X100.256 Y93.972 E5.82109
G1 X100.533 Y93.448 E5.85066
G1 X100.878 Y92.966 E5.88023
G0 F7500 X101.272 Y93.119
G1 F1500 X101.674 Y92.722 E5.90842
G1 X102.128 Y92.385 E5.93663
G1 X102.625 Y92.116 E5.96482
G1 X103.155 Y91.919 E5.99303
G1 X103.708 Y91.8 E6.02125
G1 X104.165 Y91.761 E6.04413
G1 X104.598 Y91.75 E6.06574
G1 X111.64 Y91.75 E6.41707
G1 X112.855 Y91.767 E6.47769
G1 X115.585 Y91.767 E6.61389
G1 X116.28 Y91.752 E6.64857
G1 X116.551 Y91.75 E6.66209
G1 X123.618 Y91.75 E7.01467
G1 X124.316 Y91.76 E7.04949
G1 X124.88 Y91.808 E7.07773
G1 X125.43 Y91.935 E7.1059
G1 X125.958 Y92.139 E7.13414
G1 X126.452 Y92.414 E7.16234
G1 X126.901 Y92.757 E7.19053
G1 X127.298 Y93.159 E7.21872
G1 X127.635 Y93.614 E7.24697
G1 X127.903 Y94.111 E7.27514
G1 X128.099 Y94.641 E7.30333
G1 X128.219 Y95.194 E7.33156
G1 X128.257 Y95.648 E7.35429
G1 X128.268 Y96.08 E7.37585
G1 X128.268 Y104.07 E7.77447
G1 X128.26 Y104.628 E7.80232
G1 X128.26 Y107.351 E7.93817
G1 X128.265 Y107.59 E7.95009
G1 X128.268 Y108.036 E7.97234
G1 X128.268 Y116.079 E8.37361
G1 X128.258 Y116.801 E8.40964
G1 X128.21 Y117.365 E8.43788
G1 X128.083 Y117.916 E8.46609
G1 X127.88 Y118.443 E8.49426
G1 X127.605 Y118.937 E8.52247
G1 X127.262 Y119.387 E8.5507
G1 X126.944 Y119.71 E8.57331
G1 X126.678 Y119.951 E8.59122
G1 X124.706 Y121.79 E8.72574
G1 X122.746 Y123.725 E8.86315
G1 X120.891 Y125.663 E8.99699
G1 X120.45 Y126.149 E9.02973
G1 X119.691 Y126.965 E9.08533
G1 X119.278 Y127.351 E9.11354
G1 X118.814 Y127.675 E9.14177
G1 X118.309 Y127.93 E9.16999
G1 X117.774 Y128.111 E9.19817
G1 X117.218 Y128.215 E9.22639
G1 X116.873 Y128.239 E9.24365
G1 X116.438 Y128.25 E9.26535
G1 X107.732 Y128.25 E9.6997
G1 X107.033 Y128.24 E9.73458
G1 X106.469 Y128.192 E9.76281
G1 X105.919 Y128.065 E9.79098
G1 X105.391 Y127.861 E9.81922
G1 X104.898 Y127.586 E9.84738
G1 X104.448 Y127.243 E9.87561
G1 X104.051 Y126.841 E9.9038
G1 X103.715 Y126.386 E9.93201
G1 X103.446 Y125.889 E9.96021
G1 X103.321 Y125.581 E9.97679
G1 X103.089 Y124.927 E10.01141
G1 X102.605 Y123.498 E10.08668
G1 X101.667 Y120.964 E10.22149
G1 X100.646 Y118.429 E10.35783
G1 X100.581 Y118.272 E10.36631
G1 X100.402 Y117.735 E10.39455
G1 X100.301 Y117.179 E10.42274
G1 X100.279 Y116.854 E10.439
G1 X100.268 Y116.42 E10.46066
G1 X100.268 Y108.418 E10.85988
G1 X100.276 Y107.871 E10.88717
G1 X100.276 Y105.149 E11.02297
G1 X100.271 Y104.91 E11.0349
G1 X100.268 Y104.464 E11.05715
G1 X100.268 Y96.37 E11.46096
G1 X100.277 Y95.705 E11.49414
G1 X100.325 Y95.142 E11.52233
G1 X100.451 Y94.591 E11.55053
G1 X100.654 Y94.063 E11.57875
G1 X100.93 Y93.569 E11.60698
G1 X101.272 Y93.119 E11.63518
G0 F7500 X101.665 Y93.281
G1 F1500 X102.062 Y92.921 E11.66192
G1 X102.509 Y92.623 E11.68872
G1 X102.994 Y92.395 E11.71546
G1 X103.508 Y92.242 E11.74221
G1 X104.176 Y92.16 E11.77579
G1 X104.598 Y92.15 E11.79685
G1 X111.634 Y92.15 E12.14788
G1 X112.849 Y92.167 E12.2085
G1 X115.594 Y92.167 E12.34545
G1 X116.283 Y92.152 E12.37983
G1 X116.554 Y92.15 E12.39335
G1 X123.613 Y92.15 E12.74553
G1 X124.311 Y92.16 E12.78035
G1 X124.845 Y92.208 E12.8071
G1 X125.366 Y92.334 E12.83384
G1 X125.863 Y92.537 E12.86063
G1 X126.324 Y92.811 E12.88738
G1 X126.739 Y93.15 E12.91412
G1 X127.099 Y93.548 E12.94089
G1 X127.396 Y93.994 E12.96762
G1 X127.624 Y94.48 E12.99441
G1 X127.776 Y94.994 E13.02115
G1 X127.858 Y95.659 E13.05458
G1 X127.868 Y96.08 E13.07559
G1 X127.868 Y104.065 E13.47396
G1 X127.86 Y104.623 E13.5018
G1 X127.86 Y107.36 E13.63835
G1 X127.865 Y107.593 E13.64998
G1 X127.868 Y108.039 E13.67223
G1 X127.868 Y116.074 E14.0731
G1 X127.858 Y116.796 E14.10912
G1 X127.81 Y117.33 E14.13587
G1 X127.684 Y117.851 E14.16261
G1 X127.482 Y118.348 E14.18938
G1 X127.208 Y118.809 E14.21613
G1 X126.869 Y119.224 E14.24287
G1 X126.675 Y119.414 E14.25641
G1 X126.448 Y119.62 E14.27171
G1 X124.399 Y121.531 E14.41149
G1 X122.477 Y123.429 E14.54625
G1 X120.59 Y125.4 E14.68239
G1 X120.157 Y125.877 E14.71453
G1 X119.398 Y126.693 E14.77013
G1 X119.005 Y127.057 E14.79685
G1 X118.561 Y127.359 E14.82364
G1 X118.078 Y127.592 E14.8504
G1 X117.566 Y127.75 E14.87713
G1 X116.862 Y127.84 E14.91254
G1 X116.438 Y127.85 E14.9337
G1 X107.738 Y127.85 E15.36774
G1 X107.039 Y127.84 E15.40262
G1 X106.504 Y127.792 E15.42942
G1 X105.983 Y127.666 E15.45616
G1 X105.487 Y127.463 E15.4829
G1 X105.026 Y127.189 E15.50965
G1 X104.61 Y126.85 E15.53642
G1 X104.25 Y126.452 E15.5632
G1 X103.953 Y126.006 E15.58993
G1 X103.698 Y125.446 E15.62063
G1 X103.468 Y124.798 E15.65494
G1 X102.987 Y123.379 E15.72969
G1 X102.037 Y120.812 E15.86624
G1 X101.029 Y118.31 E16.00082
G1 X100.95 Y118.119 E16.01113
G1 X100.783 Y117.609 E16.0379
G1 X100.678 Y116.843 E16.07648
G1 X100.668 Y116.42 E16.09759
G1 X100.668 Y108.423 E16.49656
G1 X100.676 Y107.876 E16.52385
G1 X100.676 Y105.14 E16.66035
G1 X100.671 Y104.907 E16.67198
G1 X100.668 Y104.461 E16.69423
G1 X100.668 Y96.375 E17.09764
G1 X100.677 Y95.71 E17.13082
G1 X100.725 Y95.176 E17.15757
G1 X100.851 Y94.655 E17.18431
G1 X101.053 Y94.158 E17.21108
G1 X101.326 Y93.697 E17.23781
G1 X101.665 Y93.281 E17.26458
G0 F7500 X101.722 Y93.832
G1 F1500 X102.057 Y93.454 E17.28978
G1 X102.448 Y93.133 E17.31502
G1 X102.885 Y92.878 E17.34026
G1 X103.356 Y92.694 E17.36549
G1 X103.85 Y92.588 E17.39069
G1 X104.187 Y92.56 E17.40757
G1 X104.598 Y92.55 E17.42808
G1 X111.629 Y92.55 E17.77885
G1 X112.844 Y92.567 E17.83948
G1 X115.603 Y92.567 E17.97712
G1 X116.286 Y92.552 E18.01121
G1 X116.557 Y92.55 E18.02473
G1 X123.607 Y92.55 E18.37645
G1 X124.305 Y92.56 E18.41128
G1 X124.808 Y92.607 E18.43648
G1 X125.298 Y92.733 E18.46173
G1 X125.762 Y92.935 E18.48697
G1 X126.188 Y93.207 E18.51219
G1 X126.566 Y93.542 E18.53739
G1 X126.886 Y93.933 E18.5626
G1 X127.141 Y94.37 E18.58784
G1 X127.324 Y94.841 E18.61305
G1 X127.431 Y95.335 E18.63826
G1 X127.458 Y95.67 E18.65503
G1 X127.468 Y96.08 E18.67549
G1 X127.468 Y104.059 E19.07357
G1 X127.46 Y104.617 E19.10141
G1 X127.46 Y107.37 E19.23876
G1 X127.465 Y107.595 E19.24998
G1 X127.468 Y108.041 E19.27224
G1 X127.468 Y116.068 E19.6727
G1 X127.458 Y116.79 E19.70873
G1 X127.411 Y117.294 E19.73398
G1 X127.285 Y117.783 E19.75918
G1 X127.084 Y118.247 E19.7844
G1 X126.812 Y118.674 E19.80966
G1 X126.407 Y119.117 E19.83961
G1 X126.175 Y119.327 E19.85522
G1 X124.128 Y121.236 E19.99486
G1 X122.189 Y123.15 E20.13079
G1 X120.304 Y125.12 E20.26682
G1 X119.864 Y125.604 E20.29945
G1 X119.105 Y126.42 E20.35505
G1 X118.733 Y126.762 E20.38026
G1 X118.311 Y127.041 E20.4055
G1 X117.851 Y127.25 E20.43071
G1 X117.363 Y127.384 E20.45596
G1 X116.851 Y127.44 E20.48165
G1 X116.438 Y127.45 E20.50226
G1 X107.743 Y127.45 E20.93606
G1 X107.044 Y127.44 E20.97093
G1 X106.541 Y127.393 E20.99614
G1 X106.051 Y127.267 E21.02138
G1 X105.587 Y127.065 E21.04663
G1 X105.161 Y126.793 E21.07184
G1 X104.783 Y126.458 E21.09704
G1 X104.463 Y126.067 E21.12225
G1 X104.208 Y125.63 E21.14749
G1 X104.075 Y125.312 E21.16469
G1 X103.847 Y124.67 E21.19868
G1 X103.366 Y123.248 E21.27357
G1 X102.412 Y120.672 E21.41062
G1 X101.388 Y118.13 E21.54734
G1 X101.32 Y117.966 E21.5562
G1 X101.164 Y117.485 E21.58143
G1 X101.078 Y116.832 E21.61429
G1 X101.068 Y116.42 E21.63485
G1 X101.068 Y108.429 E22.03352
G1 X101.076 Y107.882 E22.06081
G1 X101.076 Y105.13 E22.19811
G1 X101.071 Y104.905 E22.20934
G1 X101.068 Y104.459 E22.23159
G1 X101.068 Y96.381 E22.6346
G1 X101.077 Y95.716 E22.66778
G1 X101.124 Y95.212 E22.69304
G1 X101.25 Y94.723 E22.71823
G1 X101.451 Y94.259 E22.74346
G1 X101.722 Y93.832 E22.76869
G1 F1500 E16.76869
;MESH:calicat.stl
G0 F7500 X103.615 Y105.403
G0 X104.682 Y107.085
G0 X104.682 Y108.164
G0 X105.85 Y115.168
G0 X112.196 Y116.322
G0 X112.196 Y119.678
G0 X108.525 Y119.686
G0 X108.482 Y122.85
;TYPE:WALL-INNER
G1 F1500 E22.76869
G1 X108.481 Y120.849 E22.86852
G1 X108.481 Y120.65 E22.87845
G1 X108.68 Y120.65 E22.88487
G1 X113.168 Y120.65 E23.10878
G1 X113.168 Y115.35 E23.3732
G1 X105.668 Y115.35 E23.74737
G1 X105.668 Y109.15 E24.05669
G1 X110.868 Y109.15 E24.31612
G1 X110.868 Y114.15 E24.56557
G1 X117.668 Y114.15 E24.90483
G1 X117.668 Y109.15 E25.15428
G1 X122.868 Y109.15 E25.41371
G1 X122.868 Y115.35 E25.72303
G1 X115.368 Y115.35 E26.0972
G1 X115.368 Y122.85 E26.47138
G1 X108.482 Y122.85 E26.81492
G0 F7500 X108.082 Y123.25
G1 F1500 X108.081 Y120.449 E26.95466
G1 X108.081 Y120.25 E26.96459
G1 X108.28 Y120.25 E26.97102
G1 X112.768 Y120.25 E27.19492
G1 X112.768 Y115.75 E27.41943
G1 X105.268 Y115.75 E27.79361
G1 X105.268 Y108.75 E28.14284
G1 X111.268 Y108.75 E28.44218
G1 X111.268 Y113.75 E28.69163
G1 X117.268 Y113.75 E28.99097
G1 X117.268 Y108.75 E29.24042
G1 X123.268 Y108.75 E29.53976
G1 X123.268 Y115.75 E29.88899
G1 X115.768 Y115.75 E30.26317
G1 X115.768 Y123.25 E30.63735
G1 X108.082 Y123.25 E31.0208
G0 F7500 X107.682 Y123.65
G1 F1500 X107.681 Y120.049 E31.20046
G1 X107.681 Y119.85 E31.21039
G1 X107.88 Y119.85 E31.21681
G1 X112.368 Y119.85 E31.44072
G1 X112.368 Y116.15 E31.62531
G1 X104.868 Y116.15 E31.99949
G1 X104.868 Y108.35 E32.38863
G1 X111.668 Y108.35 E32.72788
G1 X111.668 Y113.35 E32.97734
G1 X116.868 Y113.35 E33.23676
G1 X116.868 Y108.35 E33.48622
G1 X123.668 Y108.35 E33.82547
G1 X123.668 Y116.15 E34.21461
G1 X116.168 Y116.15 E34.58879
G1 X116.168 Y123.65 E34.96297
G1 X107.682 Y123.65 E35.38633
G0 F7500 X107.282 Y124.05
;TYPE:WALL-OUTER
G1 F1500 X107.281 Y119.45 E35.61583
G1 X111.968 Y119.45 E35.84966
G1 X111.968 Y116.55 E35.99435
G1 X104.468 Y116.55 E36.36852
G1 X104.468 Y107.95 E36.79758
G1 X112.068 Y107.95 E37.17674
G1 X112.068 Y112.95 E37.42619
G1 X116.468 Y112.95 E37.64571
G1 X116.468 Y107.95 E37.89516
G1 X124.068 Y107.95 E38.27433
G1 X124.068 Y116.55 E38.70338
G1 X116.568 Y116.55 E39.07756
G1 X116.568 Y124.05 E39.45174
G1 X107.282 Y124.05 E39.91502
G0 F7500 X107.282 Y123.85
G0 X107.722 Y123.61
G0 X108.872 Y122.74
G0 X108.872 Y122.46
;TYPE:SKIN
G1 F1500 X108.871 Y121.04 E39.98586
G1 X113.558 Y121.04 E40.2197
G1 X113.558 Y114.96 E40.52303
G1 X106.058 Y114.96 E40.89721
G1 X106.058 Y109.54 E41.16761
G1 X110.478 Y109.54 E41.38813
G1 X110.478 Y114.54 E41.63758
G1 X118.058 Y114.54 E42.01574
G1 X118.058 Y109.54 E42.26519
G1 X122.478 Y109.54 E42.48571
G1 X122.478 Y114.96 E42.75611
G1 X114.978 Y114.96 E43.13029
G1 X114.978 Y122.46 E43.50447
G1 X108.872 Y122.46 E43.8091
G0 F7500 X109.288 Y122.299
G1 F1500 X109.031 Y122.042 E43.82723
G0 F7500 X109.03 Y121.475
G1 F1500 X109.853 Y122.299 E43.88533
G0 F7500 X110.419 Y122.299
G1 F1500 X109.32 Y121.199 E43.96291
G0 F7500 X109.885 Y121.199
G1 F1500 X110.985 Y122.299 E44.04052
G0 F7500 X111.551 Y122.299
G1 F1500 X110.451 Y121.199 E44.11813
G0 F7500 X111.017 Y121.199
G1 F1500 X112.116 Y122.299 E44.19571
G0 F7500 X112.682 Y122.299
G1 F1500 X111.582 Y121.199 E44.27332
G0 F7500 X112.148 Y121.199
G1 F1500 X113.248 Y122.299 E44.35093
G0 F7500 X113.813 Y122.299
G1 F1500 X112.714 Y121.199 E44.4285
G0 F7500 X113.279 Y121.199
G1 F1500 X114.379 Y122.299 E44.50611
G0 F7500 X114.817 Y122.171
G1 F1500 X113.717 Y121.071 E44.58372
G0 F7500 X113.717 Y120.505
G1 F1500 X114.817 Y121.606 E44.66137
G0 F7500 X114.817 Y121.04
G1 F1500 X113.717 Y119.94 E44.73898
G0 F7500 X113.717 Y119.374
G1 F1500 X114.817 Y120.474 E44.81659
G0 F7500 X114.817 Y119.909
G1 F1500 X113.717 Y118.808 E44.89424
G0 F7500 X113.717 Y118.243
G1 F1500 X114.817 Y119.343 E44.97185
G0 F7500 X114.817 Y118.777
G1 F1500 X113.717 Y117.677 E45.04946
G0 F7500 X113.717 Y117.111
G1 F1500 X114.817 Y118.211 E45.12707
G0 F7500 X114.817 Y117.646
G1 F1500 X113.717 Y116.546 E45.20468
G0 F7500 X113.717 Y115.98
G1 F1500 X114.817 Y117.08 E45.28229
G0 F7500 X114.817 Y116.514
G1 F1500 X113.717 Y115.414 E45.3599
G0 F7500 X113.717 Y114.848
G1 F1500 X114.817 Y115.949 E45.43755
G0 F7500 X114.817 Y115.383
G1 F1500 X114.134 Y114.699 E45.48578
G0 F7500 X113.668 Y114.799
G1 F1500 X113.568 Y114.699 E45.49283
G0 F7500 X113.102 Y114.799
G1 F1500 X113.002 Y114.699 E45.49989
G0 F7500 X112.536 Y114.799
G1 F1500 X112.437 Y114.699 E45.50691
G0 F7500 X111.971 Y114.799
G1 F1500 X111.871 Y114.699 E45.51396
G0 F7500 X111.405 Y114.799
G1 F1500 X111.305 Y114.699 E45.52102
G0 F7500 X110.839 Y114.799
G1 F1500 X110.739 Y114.699 E45.52807
G0 F7500 X110.274 Y114.799
G1 F1500 X106.218 Y110.743 E45.81425
G0 F7500 X106.218 Y110.177
G1 F1500 X110.317 Y114.277 E46.10349
G0 F7500 X110.317 Y113.711
G1 F1500 X106.306 Y109.7 E46.38649
G0 F7500 X106.872 Y109.7
G1 F1500 X110.317 Y113.146 E46.62958
G0 F7500 X110.317 Y112.58
G1 F1500 X107.437 Y109.7 E46.83278
G0 F7500 X108.003 Y109.7
G1 F1500 X110.317 Y112.014 E46.99605
G0 F7500 X110.317 Y111.449
G1 F1500 X108.569 Y109.7 E47.11942
G0 F7500 X109.134 Y109.7
G1 F1500 X110.317 Y110.883 E47.20288
G0 F7500 X110.317 Y110.317
G1 F1500 X109.7 Y109.7 E47.24642
G0 F7500 X109.7 Y109.26
G0 X105.85 Y109.332
G0 X105.778 Y111.309
G0 X106.218 Y111.309
G1 F1500 X109.708 Y114.799 E47.49265
G0 F7500 X109.142 Y114.799
G1 F1500 X106.218 Y111.874 E47.69899
G0 F7500 X106.218 Y112.44
G1 F1500 X108.576 Y114.799 E47.8654
G0 F7500 X108.011 Y114.799
G1 F1500 X106.218 Y113.006 E47.9919
G0 F7500 X106.218 Y113.571
G1 F1500 X107.445 Y114.799 E48.07851
G0 F7500 X106.879 Y114.799
G1 F1500 X106.218 Y114.137 E48.12518
G0 F7500 X106.218 Y114.703
G1 F1500 X106.314 Y114.799 E48.13196
G0 F7500 X106.314 Y115.24
G0 X105.85 Y115.168
G0 X105.85 Y109.332
G0 X110.686 Y109.332
G0 X110.686 Y113.382
G0 X114.699 Y114.26
G0 X114.699 Y114.699
