; generated by SuperSlicer 2.3.57 on 2022-04-18 at 18:42:46 UTC


;
;

;
;
; 

; external perimeters extrusion width = 0.40mm
; perimeters extrusion width = 0.40mm
; infill extrusion width = 0.72mm
; solid infill extrusion width = 0.56mm
; top infill extrusion width = 0.40mm
; first layer extrusion width = 0.50mm

; object:{"name":"Lower_Corner_1_and_3_Clip_x2","id":"Lower_Corner_1_and_3_Clip_x2.stl id:0 copy 0","object_center":[47.065293,84.547385,0.000000],"boundingbox_center":[47.065293,84.547385,12.424039],"boundingbox_size":[18.399693,30.500000,24.848078]}
; object:{"name":"Lower_Corner_2_and_4_Clip_x2","id":"Lower_Corner_2_and_4_Clip_x2.STL id:1 copy 0","object_center":[70.885530,84.972529,0.000000],"boundingbox_center":[70.885530,84.972529,12.424039],"boundingbox_size":[18.399693,30.500000,24.848078]}
; plater:{"center":[58.975412,84.759957,0.000000],"boundingbox_center":[58.975412,84.759957,12.424039],"boundingbox_size":[42.219930,30.925144,24.848078]}

M73 P0 R33
;TYPE:Custom
; custom gcode: start_gcode
PRINT_START BED=110 HOTEND=250 CHAMBER=45
; custom gcode end: start_gcode
G21 ; set units to millimeters
G90 ; use absolute coordinates
M83 ; use relative distances for extrusion
; custom gcode: start_filament_gcode
; Filament gcode
; custom gcode end: start_filament_gcode
M109 S250 ; set temperature and wait for it to be reached
M190 S110 ; set bed temperature and wait for it to be reached
;LAYER_CHANGE
;Z:0.2375
;HEIGHT:0.2375
G1 E-0.4 F1800
G1 Z0.2375 F27000
G1 Z0.4375
G1 X36.347 Y75.155
G1 Z0.2375
G1 E0.4 F1800
; custom gcode: feature_gcode
; External perimeter
;Skirt
SET_VELOCITY_LIMIT ACCEL=5000 ACCEL_TO_DECEL=2500 SQUARE_CORNER_VELOCITY=8

; Support material
; custom gcode end: feature_gcode

;TYPE:Skirt
;WIDTH:0.5
G1 X35.414 Y75.749 E0.0466
G1 X34.648 Y76.555 E0.04682
G1 X34.052 Y77.565 E0.04942
G1 X33.731 Y78.679 E0.04881
G1 X33.677 Y79.363 E0.02889
G1 X33.677 Y96.568 E0.72473
G1 X33.792 Y97.817 E0.0528
G1 X34.269 Y99.41 E0.07005
G1 X35.015 Y100.73 E0.06387
G1 X35.663 Y101.513 E0.04282
G1 X36.804 Y102.659 E0.06811
G1 X37.587 Y103.283 E0.04218
G1 X38.694 Y103.788 E0.05123
G1 X39.9 Y103.984 E0.05145
G1 X72.085 Y104.411 E1.35582
G1 X78.189 Y104.404 E0.2571
G1 X79.478 Y104.14 E0.05542
G1 X80.639 Y103.52 E0.05542
G1 X82.304 Y101.921 E0.09725
G1 X83.25 Y100.671 E0.06601
G1 X83.905 Y99.243 E0.06619
G1 X84.132 Y98.4 E0.03675
G1 X84.262 Y97.388 E0.04298
G1 X84.269 Y79.584 E0.74992
G1 X84.084 Y78.499 E0.04638
G1 X83.644 Y77.489 E0.04638
G1 X82.943 Y76.553 E0.04928
G1 X82.071 Y75.838 E0.04748
G1 X80.965 Y75.332 E0.05123
G1 X79.764 Y75.136 E0.05123
G1 X42.03 Y74.709 E1.5895
M73 P0 R32
G1 X37.961 Y74.723 E0.17143
G1 X37.134 Y74.865 E0.03532
G1 X36.404 Y75.134 E0.03279
G1 X36.596 Y75.534 F27000
G1 F1800
G1 X35.733 Y76.069 E0.04278
G1 X35.023 Y76.802 E0.04298
G1 X34.465 Y77.74 E0.04596
G1 X34.172 Y78.764 E0.04487
G1 X34.125 Y96.565 E0.7498
G1 X34.233 Y97.734 E0.04946
G1 X34.685 Y99.241 E0.06627
G1 X35.39 Y100.484 E0.06018
G1 X36 Y101.217 E0.04018
G1 X37.125 Y102.346 E0.06715
G1 X37.857 Y102.922 E0.03921
G1 X38.847 Y103.366 E0.04571
G1 X39.919 Y103.536 E0.04571
G1 X72.088 Y103.962 E1.35512
G1 X78.16 Y103.956 E0.25576
G1 X79.34 Y103.713 E0.05073
G1 X80.403 Y103.136 E0.05094
G1 X81.987 Y101.604 E0.09284
G1 X82.891 Y100.399 E0.06345
G1 X83.483 Y99.09 E0.06054
G1 X83.693 Y98.306 E0.03417
G1 X83.815 Y97.349 E0.04063
G1 X83.821 Y79.619 E0.7468
G1 X83.654 Y78.628 E0.04236
G1 X83.252 Y77.706 E0.04236
G1 X82.604 Y76.847 E0.04534
G1 X81.798 Y76.196 E0.04361
G1 X80.812 Y75.755 E0.0455
G1 X79.74 Y75.584 E0.04571
G1 X42.03 Y75.157 E1.58849
G1 X38.032 Y75.167 E0.16843
G1 X37.3 Y75.285 E0.03122
G1 X36.653 Y75.514 E0.02891
G1 X36.844 Y75.914 F27000
G1 F1800
G1 X36.046 Y76.392 E0.03918
G1 X35.394 Y77.055 E0.03918
G1 X34.88 Y77.91 E0.04202
G1 X34.612 Y78.85 E0.04116
G1 X34.574 Y96.566 E0.74622
G1 X34.673 Y97.647 E0.04572
G1 X35.098 Y99.067 E0.06244
G1 X35.764 Y100.235 E0.05663
G1 X36.332 Y100.916 E0.03737
G1 X37.446 Y102.033 E0.06645
G1 X38.121 Y102.558 E0.03601
G1 X38.994 Y102.942 E0.04017
G1 X39.937 Y103.088 E0.04017
G1 X72.09 Y103.514 E1.35446
G1 X78.127 Y103.509 E0.25429
G1 X79.204 Y103.285 E0.04629
G1 X80.162 Y102.756 E0.04609
G1 X81.664 Y101.292 E0.08837
G1 X82.526 Y100.136 E0.06076
G1 X83.059 Y98.943 E0.05501
G1 X83.252 Y98.223 E0.03143
G1 X83.367 Y97.317 E0.03845
G1 X83.374 Y79.65 E0.74415
G1 X83.224 Y78.756 E0.03819
G1 X82.86 Y77.925 E0.03819
G1 X82.269 Y77.146 E0.04121
G1 X81.538 Y76.563 E0.03938
G1 X80.665 Y76.179 E0.04017
G1 X79.722 Y76.032 E0.04017
G1 X42.03 Y75.606 E1.58775
M73 P1 R32
G1 X38.099 Y75.612 E0.16556
G1 X37.459 Y75.708 E0.02729
G1 X36.901 Y75.895 E0.02476
G1 X37.088 Y76.298 F27000
G1 F1800
G1 X36.363 Y76.714 E0.03522
G1 X35.766 Y77.307 E0.0354
G1 X35.293 Y78.085 E0.03837
G1 X35.054 Y78.932 E0.03707
G1 X35.061 Y97.196 E0.76931
G1 X35.394 Y98.605 E0.06099
G1 X36.083 Y99.908 E0.06208
G1 X36.652 Y100.601 E0.03777
G1 X37.75 Y101.703 E0.06553
G1 X38.377 Y102.188 E0.03336
G1 X39.136 Y102.516 E0.03485
G1 X39.954 Y102.64 E0.03485
G1 X72.098 Y103.065 E1.35403
G1 X78.095 Y103.061 E0.25263
G1 X79.06 Y102.86 E0.04151
G1 X79.915 Y102.38 E0.04132
G1 X81.337 Y100.985 E0.08389
G1 X82.156 Y99.88 E0.05793
G1 X82.631 Y98.808 E0.04942
G1 X82.812 Y98.14 E0.02914
G1 X82.919 Y97.291 E0.03604
G1 X82.926 Y79.678 E0.74188
G1 X82.794 Y78.883 E0.03392
G1 X82.47 Y78.146 E0.03392
G1 X81.937 Y77.447 E0.03704
G1 X81.279 Y76.931 E0.03522
G1 X80.523 Y76.605 E0.03466
G1 X79.706 Y76.48 E0.03485
G1 X42.03 Y76.054 E1.58705
G1 X38.161 Y76.058 E0.16297
G1 X37.146 Y76.285 E0.04377
; INIT printing object Lower_Corner_1_and_3_Clip_x2.stl id:0 copy 0
G1 E-0.4
G1 Z0.4375 F27000
; printing object Lower_Corner_1_and_3_Clip_x2.stl id:0 copy 0
G1 X39.844 Y80.876
G1 Z0.2375
G1 E0.4 F1800
; custom gcode: feature_gcode
; External perimeter
;Perimeter
SET_VELOCITY_LIMIT ACCEL=800 ACCEL_TO_DECEL=400 SQUARE_CORNER_VELOCITY=8

; Overhang perimeter
; custom gcode end: feature_gcode

;TYPE:Internal perimeter
G1 X41.12 Y80.876 E0.05376
G1 X41.618 Y81.599 E0.037
G1 X42.19 Y82.322 E0.03881
G1 X42.807 Y83.006 E0.03881
G1 X43.469 Y83.647 E0.03881
G1 X44.171 Y84.244 E0.03881
G1 X44.911 Y84.793 E0.03881
G1 X45.686 Y85.292 E0.03881
G1 X46.491 Y85.739 E0.03881
G1 X47.325 Y86.132 E0.03881
G1 X48.182 Y86.469 E0.03881
G1 X49.06 Y86.749 E0.03881
G1 X49.955 Y86.97 E0.03881
G1 X50.862 Y87.132 E0.03881
G1 X51.777 Y87.234 E0.03881
G1 X52.62 Y87.272 E0.03552
G1 X52.62 Y90.2 E0.12334
G1 X45.147 Y97.819 E0.4495
G1 X40.685 Y97.819 E0.18796
G1 X40.184 Y97.319 E0.02981
G1 X40.051 Y97.164 E0.0086
G1 X39.957 Y97.018 E0.00731
G1 X39.937 Y96.979 E0.00187
G1 X39.92 Y96.938 E0.00186
G1 X39.871 Y96.771 E0.00732
G1 X39.846 Y96.599 E0.00732
G1 X39.844 Y96.524 E0.00314
G1 X39.844 Y80.936 E0.65661
G1 X39.395 Y80.427 F27000
G1 F1800
G1 X41.372 Y80.427 E0.0833
G1 X41.474 Y80.598 E0.00839
G1 X41.98 Y81.332 E0.03756
G1 X42.533 Y82.032 E0.03756
G1 X43.131 Y82.694 E0.03756
G1 X43.771 Y83.315 E0.03756
G1 X44.45 Y83.892 E0.03756
G1 X45.167 Y84.423 E0.03756
G1 X45.916 Y84.906 E0.03756
G1 X46.696 Y85.339 E0.03756
G1 X47.503 Y85.719 E0.03756
G1 X48.333 Y86.046 E0.03756
G1 X49.182 Y86.317 E0.03757
G1 X50.048 Y86.531 E0.03757
G1 X50.926 Y86.688 E0.03756
G1 X51.812 Y86.786 E0.03756
G1 X52.69 Y86.826 E0.03699
G1 X53.069 Y86.826 E0.01597
G1 X53.069 Y90.384 E0.14986
G1 X45.336 Y98.268 E0.46517
G1 X40.499 Y98.268 E0.20373
G1 X39.856 Y97.625 E0.03832
G1 X39.69 Y97.434 E0.01063
G1 X39.566 Y97.241 E0.00968
G1 X39.528 Y97.165 E0.00356
G1 X39.496 Y97.087 E0.00355
G1 X39.431 Y96.867 E0.00968
G1 X39.399 Y96.639 E0.00969
G1 X39.395 Y96.532 E0.00449
G1 X39.395 Y80.487 E0.67586
G1 X38.946 Y79.978 F27000
G1 F1800
G1 X41.628 Y79.978 E0.11297
G1 X41.852 Y80.356 E0.01852
G1 X42.341 Y81.066 E0.03631
G1 X42.876 Y81.742 E0.03632
G1 X43.454 Y82.382 E0.03632
G1 X44.073 Y82.982 E0.03632
G1 X44.73 Y83.54 E0.03632
G1 X45.422 Y84.054 E0.03632
G1 X46.147 Y84.521 E0.03632
G1 X46.901 Y84.939 E0.03632
G1 X47.681 Y85.307 E0.03632
G1 X48.483 Y85.622 E0.03631
G1 X49.305 Y85.884 E0.03632
G1 X50.142 Y86.091 E0.03632
G1 X50.99 Y86.243 E0.03631
G1 X51.847 Y86.338 E0.03632
G1 X52.7 Y86.377 E0.03594
G1 X53.518 Y86.377 E0.03446
G1 X53.518 Y90.567 E0.17649
G1 X45.524 Y98.717 E0.48084
G1 X40.313 Y98.717 E0.21951
G1 X39.527 Y97.931 E0.04682
G1 X39.33 Y97.704 E0.01265
G1 X39.175 Y97.463 E0.01205
G1 X39.12 Y97.352 E0.00525
G1 X39.072 Y97.237 E0.00524
G1 X38.991 Y96.962 E0.01205
G1 X38.951 Y96.679 E0.01206
G1 X38.946 Y96.541 E0.00584
G1 X38.946 Y80.038 E0.69512
G1 X38.497 Y79.529 F27000
; custom gcode: feature_gcode
; External perimeter
;ExternalPerimeter
SET_VELOCITY_LIMIT ACCEL=450 ACCEL_TO_DECEL=250 SQUARE_CORNER_VELOCITY=8

; Perimeter
; custom gcode end: feature_gcode

;TYPE:External perimeter
G1 F1800
G1 X41.883 Y79.529 E0.14264
G1 X41.986 Y79.701 E0.00844
G1 X42.231 Y80.113 E0.02022
G1 X42.703 Y80.799 E0.03506
G1 X43.219 Y81.452 E0.03507
G1 X43.777 Y82.07 E0.03507
G1 X44.375 Y82.649 E0.03507
G1 X45.009 Y83.188 E0.03507
G1 X45.678 Y83.685 E0.03507
G1 X46.378 Y84.135 E0.03507
G1 X47.106 Y84.539 E0.03507
G1 X47.859 Y84.894 E0.03507
G1 X48.634 Y85.199 E0.03507
G1 X49.427 Y85.452 E0.03507
G1 X50.235 Y85.652 E0.03507
G1 X51.055 Y85.798 E0.03507
G1 X51.882 Y85.891 E0.03507
G1 X52.71 Y85.928 E0.0349
G1 X53.967 Y85.928 E0.05294
G1 X53.967 Y90.751 E0.20312
G1 X45.713 Y99.166 E0.49651
G1 X40.127 Y99.166 E0.23528
G1 X39.198 Y98.237 E0.05533
G1 X38.97 Y97.974 E0.01468
G1 X38.785 Y97.686 E0.01442
G1 X38.711 Y97.539 E0.00694
G1 X38.648 Y97.387 E0.00693
G1 X38.552 Y97.058 E0.01442
G1 X38.503 Y96.719 E0.01442
G1 X38.497 Y96.549 E0.00719
G1 X38.497 Y79.589 E0.71437
;WIPE_START
G1 X38.843 Y79.729 F27000
;WIPE_END
G1 X52.552 Y88.245
; custom gcode: feature_gcode
; External perimeter
;SolidInfill
SET_VELOCITY_LIMIT ACCEL=3800 ACCEL_TO_DECEL=2000 SQUARE_CORNER_VELOCITY=8

; Bridge infill
; custom gcode end: feature_gcode

;TYPE:Solid infill
;WIDTH:0.490352
G1 F1800
G1 X51.803 Y87.496 E0.04376
G1 X51.757 Y87.494 E0.00191
G1 X51.092 Y87.42 E0.02764
G1 X52.359 Y88.687 E0.07403
G1 X52.359 Y89.322 E0.02623
G1 X50.341 Y87.304 E0.11791
G1 X49.9 Y87.225 E0.01849
G1 X49.537 Y87.135 E0.01545
G1 X52.359 Y89.957 E0.16485
G1 X52.359 Y90.094 E0.00565
G1 X52.113 Y90.345 E0.01456
G1 X48.663 Y86.895 E0.20155
G1 X48.095 Y86.714 E0.02461
G1 X47.686 Y86.553 E0.01817
G1 X51.798 Y90.666 E0.24025
G1 X51.484 Y90.987 E0.01855
G1 X46.553 Y86.056 E0.28805
G1 X46.372 Y85.971 E0.00824
G1 X45.552 Y85.515 E0.03877
G1 X45.062 Y85.2 E0.02406
G1 X51.169 Y91.307 E0.35677
G1 X50.855 Y91.628 E0.01855
G1 X40.363 Y81.136 E0.61291
G1 X40.104 Y81.136 E0.0107
G1 X40.104 Y81.512 E0.01553
G1 X50.54 Y91.948 E0.60967
M73 P2 R32
G1 X50.226 Y92.269 E0.01855
G1 X40.104 Y82.147 E0.5913
G1 X40.104 Y82.782 E0.02623
G1 X49.912 Y92.59 E0.57293
G1 X49.597 Y92.91 E0.01855
G1 X40.104 Y83.417 E0.55456
G1 X40.104 Y84.052 E0.02623
G1 X49.283 Y93.231 E0.53619
G1 X48.968 Y93.551 E0.01855
G1 X40.104 Y84.687 E0.51783
G1 X40.104 Y85.322 E0.02623
G1 X48.654 Y93.872 E0.49946
G1 X48.339 Y94.193 E0.01855
G1 X40.104 Y85.957 E0.48109
G1 X40.104 Y86.592 E0.02623
G1 X48.025 Y94.513 E0.46272
G1 X47.71 Y94.834 E0.01855
G1 X40.104 Y87.227 E0.44435
G1 X40.104 Y87.862 E0.02623
G1 X47.396 Y95.154 E0.42598
G1 X47.082 Y95.475 E0.01855
G1 X40.104 Y88.497 E0.40761
G1 X40.104 Y89.133 E0.02623
G1 X46.767 Y95.795 E0.38924
G1 X46.453 Y96.116 E0.01855
G1 X40.104 Y89.768 E0.37087
G1 X40.104 Y90.403 E0.02623
G1 X46.138 Y96.437 E0.3525
G1 X45.824 Y96.757 E0.01855
G1 X40.104 Y91.038 E0.33413
G1 X40.104 Y91.673 E0.02623
G1 X45.509 Y97.078 E0.31576
G1 X45.195 Y97.398 E0.01855
G1 X40.104 Y92.308 E0.2974
G1 X40.104 Y92.943 E0.02623
G1 X44.72 Y97.559 E0.26966
G1 X44.085 Y97.559 E0.02623
G1 X40.104 Y93.578 E0.23256
G1 X40.104 Y94.213 E0.02623
G1 X43.45 Y97.559 E0.19546
G1 X42.815 Y97.559 E0.02623
G1 X40.104 Y94.848 E0.15837
G1 X40.104 Y95.483 E0.02623
G1 X42.18 Y97.559 E0.12127
G1 X41.545 Y97.559 E0.02623
G1 X40.104 Y96.118 E0.08417
G1 X40.104 Y96.51 E0.0162
G1 X40.127 Y96.717 E0.00859
G1 X40.155 Y96.803 E0.00375
G1 X41.103 Y97.752 E0.05541
G1 X40.804 Y81.1 F27000
; custom gcode: feature_gcode
; External perimeter
;GapFill
SET_VELOCITY_LIMIT ACCEL=2000 ACCEL_TO_DECEL=1000 SQUARE_CORNER_VELOCITY=8

; Skirt
; custom gcode end: feature_gcode

;TYPE:Gap fill
;WIDTH:0.283814
G1 F1800
G1 X40.937 Y81.224 E0.00398
G1 X41.05 Y81.36 E0.00385
;WIDTH:0.255855
G1 X41.163 Y81.495 E0.00339
;WIDTH:0.212993
G1 X41.276 Y81.631 E0.00268
;WIDTH:0.170126
G1 X41.391 Y81.769 E0.00202
G1 X41.52 Y81.914 E0.00217
; INIT stop printing object Lower_Corner_1_and_3_Clip_x2.stl id:0 copy 0
; INIT printing object Lower_Corner_2_and_4_Clip_x2.STL id:1 copy 0
G1 E-0.4
G1 Z0.4375 F27000
; stop printing object Lower_Corner_1_and_3_Clip_x2.stl id:0 copy 0
; printing object Lower_Corner_2_and_4_Clip_x2.STL id:1 copy 0
G1 X65.331 Y87.697
G1 Z0.2375
G1 E0.4 F1800
; custom gcode: feature_gcode
; External perimeter
;Perimeter
SET_VELOCITY_LIMIT ACCEL=800 ACCEL_TO_DECEL=400 SQUARE_CORNER_VELOCITY=8

; Overhang perimeter
; custom gcode end: feature_gcode

;TYPE:Internal perimeter
;WIDTH:0.5
G1 X66.173 Y87.659 E0.03552
G1 X67.089 Y87.557 E0.03881
G1 X67.996 Y87.395 E0.03881
G1 X68.891 Y87.174 E0.03881
G1 X69.769 Y86.894 E0.03881
G1 X70.626 Y86.557 E0.03881
G1 X71.46 Y86.164 E0.03881
G1 X72.265 Y85.717 E0.03881
G1 X73.04 Y85.218 E0.03881
G1 X73.78 Y84.669 E0.03881
G1 X74.482 Y84.073 E0.03881
G1 X75.143 Y83.431 E0.03881
G1 X75.761 Y82.747 E0.03881
G1 X76.332 Y82.024 E0.03881
G1 X76.831 Y81.301 E0.037
G1 X78.107 Y81.301 E0.05376
G1 X78.107 Y96.95 E0.65914
G1 X78.104 Y97.024 E0.00314
G1 X78.08 Y97.196 E0.00732
G1 X78.031 Y97.363 E0.00732
G1 X78.014 Y97.404 E0.00186
G1 X77.994 Y97.444 E0.00187
G1 X77.9 Y97.59 E0.00731
G1 X77.766 Y97.744 E0.0086
G1 X77.266 Y98.244 E0.02981
G1 X72.804 Y98.244 E0.18796
G1 X65.331 Y90.625 E0.4495
G1 X65.331 Y87.757 E0.12081
G1 X78.556 Y80.852 F27000
G1 F1800
G1 X78.556 Y96.958 E0.67839
G1 X78.552 Y97.064 E0.00449
G1 X78.52 Y97.292 E0.00969
G1 X78.455 Y97.513 E0.00968
G1 X78.422 Y97.59 E0.00355
G1 X78.385 Y97.666 E0.00356
G1 X78.26 Y97.859 E0.00968
G1 X78.095 Y98.05 E0.01063
G1 X77.452 Y98.693 E0.03832
G1 X72.615 Y98.693 E0.20373
G1 X64.882 Y90.809 E0.46517
G1 X64.882 Y87.251 E0.14986
G1 X65.261 Y87.251 E0.01597
G1 X66.138 Y87.211 E0.03699
G1 X67.025 Y87.113 E0.03756
G1 X67.903 Y86.956 E0.03756
G1 X68.768 Y86.742 E0.03757
G1 X69.618 Y86.471 E0.03757
G1 X70.448 Y86.144 E0.03756
G1 X71.255 Y85.764 E0.03756
G1 X72.034 Y85.332 E0.03756
G1 X72.784 Y84.849 E0.03756
G1 X73.5 Y84.317 E0.03756
G1 X74.18 Y83.74 E0.03756
G1 X74.82 Y83.119 E0.03756
G1 X75.418 Y82.457 E0.03756
G1 X75.971 Y81.758 E0.03756
G1 X76.477 Y81.023 E0.03756
G1 X76.579 Y80.852 E0.0084
G1 X78.496 Y80.852 E0.08077
G1 X79.005 Y80.403 F27000
G1 F1800
G1 X79.005 Y96.966 E0.69764
G1 X79 Y97.104 E0.00584
G1 X78.959 Y97.388 E0.01206
G1 X78.879 Y97.662 E0.01205
G1 X78.831 Y97.777 E0.00524
G1 X78.775 Y97.889 E0.00525
G1 X78.621 Y98.129 E0.01205
G1 X78.424 Y98.356 E0.01265
G1 X77.638 Y99.142 E0.04682
G1 X72.427 Y99.142 E0.21951
G1 X64.433 Y90.992 E0.48084
G1 X64.433 Y86.802 E0.17649
G1 X65.251 Y86.802 E0.03446
G1 X66.103 Y86.764 E0.03594
G1 X66.96 Y86.668 E0.03632
G1 X67.809 Y86.517 E0.03631
G1 X68.646 Y86.309 E0.03632
G1 X69.468 Y86.047 E0.03632
G1 X70.27 Y85.732 E0.03631
G1 X71.05 Y85.364 E0.03632
G1 X71.804 Y84.946 E0.03632
G1 X72.529 Y84.479 E0.03632
G1 X73.221 Y83.965 E0.03632
G1 X73.878 Y83.407 E0.03632
G1 X74.497 Y82.807 E0.03632
G1 X75.075 Y82.167 E0.03632
G1 X75.61 Y81.491 E0.03632
G1 X76.098 Y80.781 E0.03631
G1 X76.323 Y80.403 E0.01853
G1 X78.945 Y80.403 E0.11044
G1 X79.454 Y79.954 F27000
; custom gcode: feature_gcode
; External perimeter
;ExternalPerimeter
SET_VELOCITY_LIMIT ACCEL=450 ACCEL_TO_DECEL=250 SQUARE_CORNER_VELOCITY=8

; Perimeter
; custom gcode end: feature_gcode

;TYPE:External perimeter
G1 F1800
G1 X79.454 Y96.974 E0.71689
G1 X79.448 Y97.144 E0.00719
G1 X79.399 Y97.483 E0.01442
G1 X79.303 Y97.812 E0.01442
G1 X79.24 Y97.964 E0.00693
G1 X79.166 Y98.111 E0.00694
G1 X78.981 Y98.399 E0.01442
