; generated by SuperSlicer 2.3.57 on 2022-04-04 at 12:06:57 UTC


;
;

;
;
; 

; external perimeters extrusion width = 0.40mm
; perimeters extrusion width = 0.45mm
; infill extrusion width = 0.72mm
; solid infill extrusion width = 0.56mm
; top infill extrusion width = 0.40mm
; first layer extrusion width = 0.50mm

; external perimeters extrusion width = 0.40mm
; perimeters extrusion width = 0.45mm
; infill extrusion width = 0.72mm
; solid infill extrusion width = 0.56mm
; top infill extrusion width = 0.40mm
; first layer extrusion width = 0.50mm

; external perimeters extrusion width = 0.40mm
; perimeters extrusion width = 0.45mm
; infill extrusion width = 0.72mm
; solid infill extrusion width = 0.56mm
; top infill extrusion width = 0.40mm
; first layer extrusion width = 0.50mm

; external perimeters extrusion width = 0.40mm
; perimeters extrusion width = 0.45mm
; infill extrusion width = 0.72mm
; solid infill extrusion width = 0.56mm
; top infill extrusion width = 0.40mm
; first layer extrusion width = 0.50mm

; external perimeters extrusion width = 0.40mm
; perimeters extrusion width = 0.45mm
; infill extrusion width = 0.72mm
; solid infill extrusion width = 0.56mm
; top infill extrusion width = 0.40mm
; first layer extrusion width = 0.50mm

; external perimeters extrusion width = 0.40mm
; perimeters extrusion width = 0.45mm
; infill extrusion width = 0.72mm
; solid infill extrusion width = 0.56mm
; top infill extrusion width = 0.40mm
; first layer extrusion width = 0.50mm

; external perimeters extrusion width = 0.40mm
; perimeters extrusion width = 0.45mm
; infill extrusion width = 0.72mm
; solid infill extrusion width = 0.56mm
; top infill extrusion width = 0.40mm
; first layer extrusion width = 0.50mm

; external perimeters extrusion width = 0.40mm
; perimeters extrusion width = 0.45mm
; infill extrusion width = 0.72mm
; solid infill extrusion width = 0.56mm
; top infill extrusion width = 0.40mm
; first layer extrusion width = 0.50mm

; external perimeters extrusion width = 0.40mm
; perimeters extrusion width = 0.45mm
; infill extrusion width = 0.72mm
; solid infill extrusion width = 0.56mm
; top infill extrusion width = 0.40mm
; first layer extrusion width = 0.50mm

; object:{"name":"cube-30x30x3mm","id":"cube-30x30x3mm.stl id:0 copy 0","object_center":[24.500000,60.000000,0.000000],"boundingbox_center":[24.500000,60.000000,1.500000],"boundingbox_size":[30.000000,30.000000,3.000000]}
; object:{"name":"cube-30x30x3mm","id":"cube-30x30x3mm.stl id:1 copy 0","object_center":[24.500000,95.000000,0.000000],"boundingbox_center":[24.500000,95.000000,1.500000],"boundingbox_size":[30.000000,30.000000,3.000000]}
; object:{"name":"cube-30x30x3mm","id":"cube-30x30x3mm.stl id:2 copy 0","object_center":[24.500000,25.000000,0.000000],"boundingbox_center":[24.500000,25.000000,1.500000],"boundingbox_size":[30.000000,30.000000,3.000000]}
; object:{"name":"cube-30x30x3mm","id":"cube-30x30x3mm.stl id:3 copy 0","object_center":[61.929822,59.993806,0.000000],"boundingbox_center":[61.929822,59.993806,1.500000],"boundingbox_size":[30.000000,30.000000,3.000000]}
; object:{"name":"cube-30x30x3mm","id":"cube-30x30x3mm.stl id:4 copy 0","object_center":[61.929822,94.993806,0.000000],"boundingbox_center":[61.929822,94.993806,1.500000],"boundingbox_size":[30.000000,30.000000,3.000000]}
; object:{"name":"cube-30x30x3mm","id":"cube-30x30x3mm.stl id:5 copy 0","object_center":[61.929822,24.993806,0.000000],"boundingbox_center":[61.929822,24.993806,1.500000],"boundingbox_size":[30.000000,30.000000,3.000000]}
; object:{"name":"cube-30x30x3mm","id":"cube-30x30x3mm.stl id:6 copy 0","object_center":[98.617594,59.786903,0.000000],"boundingbox_center":[98.617594,59.786903,1.500000],"boundingbox_size":[30.000000,30.000000,3.000000]}
; object:{"name":"cube-30x30x3mm","id":"cube-30x30x3mm.stl id:7 copy 0","object_center":[98.617594,94.786903,0.000000],"boundingbox_center":[98.617594,94.786903,1.500000],"boundingbox_size":[30.000000,30.000000,3.000000]}
; object:{"name":"cube-30x30x3mm","id":"cube-30x30x3mm.stl id:8 copy 0","object_center":[98.617594,24.786903,0.000000],"boundingbox_center":[98.617594,24.786903,1.500000],"boundingbox_size":[30.000000,30.000000,3.000000]}
; plater:{"center":[61.558797,59.893452,0.000000],"boundingbox_center":[61.558797,59.893452,1.500000],"boundingbox_size":[104.117594,100.213097,3.000000]}

M73 P0 R115
;TYPE:Custom
; custom gcode: start_gcode
PRINT_START BED=50 HOTEND=200 CHAMBER=0
; custom gcode end: start_gcode
G21 ; set units to millimeters
G90 ; use absolute coordinates
M83 ; use relative distances for extrusion
; custom gcode: start_filament_gcode
; Filament gcode
; custom gcode end: start_filament_gcode
M104 S200 ; set temperature
M109 S200 ; set temperature and wait for it to be reached
M190 S50 ; set bed temperature and wait for it to be reached
;LAYER_CHANGE
;Z:0.25
;HEIGHT:0.25
G1 E-0.5 F1800
G1 Z0.25 F27000
G1 X6.005 Y6.537
G1 E0.5 F1800
; custom gcode: feature_gcode
; External perimeter
;Skirt
SET_VELOCITY_LIMIT ACCEL=5000 ACCEL_TO_DECEL=2500 SQUARE_CORNER_VELOCITY=8

; Support material
; custom gcode end: feature_gcode

;TYPE:Skirt
;WIDTH:0.45
G1 X5.401 Y7.276 E0.03927
G1 X4.947 Y8.12 E0.0395
G1 X4.664 Y9.031 E0.03927
G1 X4.56 Y9.978 E0.03927
G1 X4.559 Y109.95 E4.11841
G1 X4.656 Y110.928 E0.0405
G1 X4.944 Y111.872 E0.04063
G1 X5.409 Y112.735 E0.04041
G1 X6.037 Y113.495 E0.04063
G1 X6.771 Y114.096 E0.03905
G1 X7.605 Y114.546 E0.03905
G1 X8.509 Y114.831 E0.03905
G1 X9.451 Y114.94 E0.03905
G1 X76.891 Y114.935 E2.77827
G1 X113.78 Y114.723 E1.51966
G1 X114.702 Y114.597 E0.03837
G1 X115.586 Y114.302 E0.03837
G1 X116.399 Y113.847 E0.03837
G1 X117.113 Y113.25 E0.03837
G1 X117.716 Y112.511 E0.03927
G1 X118.17 Y111.667 E0.0395
G1 X118.453 Y110.756 E0.03927
G1 X118.558 Y109.803 E0.0395
G1 X118.556 Y9.675 E4.12487
G1 X118.433 Y8.724 E0.0395
G1 X118.132 Y7.819 E0.03927
G1 X117.662 Y6.983 E0.0395
G1 X117.041 Y6.253 E0.0395
G1 X116.291 Y5.655 E0.0395
G1 X115.441 Y5.211 E0.0395
G1 X114.522 Y4.938 E0.0395
G1 X113.573 Y4.846 E0.03927
G1 X83.659 Y4.846 E1.23234
G1 X9.47 Y5.06 E3.05626
G1 X8.512 Y5.168 E0.03973
G1 X7.593 Y5.459 E0.03973
G1 X6.746 Y5.921 E0.03973
G1 X6.051 Y6.499 E0.03726
G1 X6.302 Y6.802 F27000
G1 F1800
G1 X6.292 Y6.81 E0.00051
G1 X5.733 Y7.493 E0.03638
G1 X5.314 Y8.271 E0.03638
G1 X5.052 Y9.114 E0.03638
G1 X4.956 Y9.992 E0.03638
G1 X4.955 Y109.95 E4.11785
G1 X5.044 Y110.849 E0.03721
G1 X5.308 Y111.714 E0.03724
G1 X5.735 Y112.51 E0.03724
G1 X6.31 Y113.208 E0.03724
G1 X6.989 Y113.765 E0.03616
G1 X7.761 Y114.182 E0.03616
G1 X8.593 Y114.444 E0.03594
G1 X9.465 Y114.544 E0.03616
G1 X76.89 Y114.538 E2.77761
G1 X113.747 Y114.328 E1.51838
G1 X114.601 Y114.214 E0.03551
G1 X115.414 Y113.944 E0.03529
G1 X116.167 Y113.525 E0.03551
G1 X116.825 Y112.977 E0.03529
G1 X117.385 Y112.294 E0.03638
G1 X117.804 Y111.516 E0.03638
G1 X118.066 Y110.673 E0.03638
G1 X118.162 Y109.795 E0.03638
G1 X118.16 Y9.7 E4.12349
G1 X118.049 Y8.824 E0.03638
G1 X117.773 Y7.985 E0.03638
G1 X117.341 Y7.215 E0.03638
G1 X116.77 Y6.542 E0.03638
G1 X116.08 Y5.99 E0.03638
G1 X115.298 Y5.581 E0.03638
G1 X114.452 Y5.328 E0.03638
G1 X113.573 Y5.242 E0.03638
G1 X83.66 Y5.242 E1.2323
G1 X9.482 Y5.456 E3.05582
G1 X8.604 Y5.554 E0.03638
G1 X7.757 Y5.82 E0.03659
G1 X6.976 Y6.244 E0.03659
G1 X6.348 Y6.764 E0.03361
G1 X6.599 Y7.068 F27000
G1 F1800
G1 X6.577 Y7.086 E0.00119
G1 X6.063 Y7.711 E0.03331
G1 X5.68 Y8.423 E0.03331
G1 X5.44 Y9.195 E0.03331
G1 X5.352 Y9.999 E0.03331
G1 X5.352 Y109.95 E4.11754
G1 X5.433 Y110.774 E0.03409
G1 X5.673 Y111.562 E0.03394
G1 X6.063 Y112.287 E0.03394
G1 X6.586 Y112.923 E0.03394
G1 X7.207 Y113.434 E0.03311
G1 X7.914 Y113.816 E0.03311
G1 X8.681 Y114.057 E0.03311
M73 P0 R114
G1 X9.479 Y114.148 E0.03311
G1 X76.888 Y114.142 E2.77697
G1 X113.718 Y113.932 E1.51726
G1 X114.5 Y113.83 E0.03248
G1 X115.244 Y113.586 E0.03228
G1 X115.934 Y113.204 E0.03248
G1 X116.541 Y112.701 E0.03248
G1 X117.054 Y112.075 E0.03331
G1 X117.438 Y111.364 E0.03331
G1 X117.678 Y110.591 E0.03331
G1 X117.765 Y109.788 E0.03331
G1 X117.764 Y9.722 E4.12228
G1 X117.664 Y8.919 E0.03331
G1 X117.412 Y8.151 E0.03331
G1 X117.018 Y7.445 E0.03331
G1 X116.495 Y6.828 E0.03331
G1 X115.864 Y6.322 E0.03331
G1 X115.148 Y5.947 E0.03331
G1 X114.372 Y5.717 E0.03331
G1 X113.573 Y5.639 E0.03311
G1 X83.661 Y5.639 E1.23225
G1 X9.496 Y5.852 E3.05529
G1 X8.687 Y5.942 E0.03352
G1 X7.915 Y6.183 E0.03331
G1 X7.204 Y6.568 E0.03331
G1 X6.645 Y7.03 E0.02986
; INIT printing object cube-30x30x3mm.stl id:0 copy 0
G1 E-0.5
G1 Z0.55 F27000
; printing object cube-30x30x3mm.stl id:0 copy 0
G1 X11.189 Y46.689
G1 Z0.25
G1 E0.5 F1800
; custom gcode: feature_gcode
; External perimeter
;Perimeter
SET_VELOCITY_LIMIT ACCEL=800 ACCEL_TO_DECEL=400 SQUARE_CORNER_VELOCITY=8

; Overhang perimeter
; custom gcode end: feature_gcode

;TYPE:Internal perimeter
;WIDTH:0.5
G1 X37.811 Y46.689 E1.11155
G1 X37.811 Y73.311 E1.11155
G1 X11.189 Y73.311 E1.11155
G1 X11.189 Y46.749 E1.10905
G1 X38.257 Y73.757 F27000
G1 F1800
G1 X10.743 Y73.757 E1.14883
G1 X10.743 Y46.243 E1.14883
G1 X38.257 Y46.243 E1.14883
G1 X38.257 Y73.697 E1.14632
G1 X38.704 Y74.204 F27000
G1 F1800
G1 X10.296 Y74.204 E1.1861
M73 P1 R114
G1 X10.296 Y45.796 E1.1861
G1 X38.704 Y45.796 E1.1861
G1 X38.704 Y74.144 E1.1836
G1 X39.15 Y74.65 F27000
; custom gcode: feature_gcode
; External perimeter
;ExternalPerimeter
SET_VELOCITY_LIMIT ACCEL=450 ACCEL_TO_DECEL=250 SQUARE_CORNER_VELOCITY=8

; Perimeter
; custom gcode end: feature_gcode

;TYPE:External perimeter
G1 F1800
G1 X9.85 Y74.65 E1.22337
G1 X9.85 Y45.35 E1.22337
G1 X39.15 Y45.35 E1.22337
G1 X39.15 Y74.59 E1.22087
;WIPE_START
G1 X38.804 Y74.45 F27000
;WIPE_END
G1 X36.842 Y46.756
; custom gcode: feature_gcode
; External perimeter
;SolidInfill
SET_VELOCITY_LIMIT ACCEL=3800 ACCEL_TO_DECEL=2000 SQUARE_CORNER_VELOCITY=8

; Bridge infill
; custom gcode end: feature_gcode

;TYPE:Solid infill
;WIDTH:0.494287
G1 F1800
G1 X37.552 Y47.466 E0.04147
G1 X37.552 Y48.098 E0.02605
G1 X36.402 Y46.948 E0.06711
G1 X35.771 Y46.948 E0.02605
G1 X37.552 Y48.729 E0.10396
G1 X37.552 Y49.36 E0.02605
G1 X35.14 Y46.948 E0.1408
G1 X34.509 Y46.948 E0.02605
G1 X37.552 Y49.991 E0.17765
G1 X37.552 Y50.622 E0.02605
G1 X33.877 Y46.948 E0.2145
G1 X33.246 Y46.948 E0.02605
G1 X37.552 Y51.254 E0.25135
G1 X37.552 Y51.885 E0.02605
G1 X32.615 Y46.948 E0.28819
G1 X31.984 Y46.948 E0.02605
G1 X37.552 Y52.516 E0.32504
G1 X37.552 Y53.147 E0.02605
G1 X31.353 Y46.948 E0.36189
G1 X30.721 Y46.948 E0.02605
G1 X37.552 Y53.779 E0.39874
G1 X37.552 Y54.41 E0.02605
G1 X30.09 Y46.948 E0.43558
G1 X29.459 Y46.948 E0.02605
G1 X37.552 Y55.041 E0.47243
G1 X37.552 Y55.672 E0.02605
G1 X28.828 Y46.948 E0.50928
G1 X28.196 Y46.948 E0.02605
G1 X37.552 Y56.304 E0.54612
G1 X37.552 Y56.935 E0.02605
G1 X27.565 Y46.948 E0.58297
G1 X26.934 Y46.948 E0.02605
G1 X37.552 Y57.566 E0.61982
G1 X37.552 Y58.197 E0.02605
G1 X26.303 Y46.948 E0.65667
G1 X25.671 Y46.948 E0.02605
G1 X37.552 Y58.829 E0.69351
G1 X37.552 Y59.46 E0.02605
G1 X25.04 Y46.948 E0.73036
G1 X24.409 Y46.948 E0.02605
G1 X37.552 Y60.091 E0.76721
G1 X37.552 Y60.722 E0.02605
G1 X23.778 Y46.948 E0.80406
G1 X23.147 Y46.948 E0.02605
G1 X37.552 Y61.353 E0.8409
G1 X37.552 Y61.985 E0.02605
G1 X22.515 Y46.948 E0.87775
G1 X21.884 Y46.948 E0.02605
G1 X37.552 Y62.616 E0.9146
G1 X37.552 Y63.247 E0.02605
G1 X21.253 Y46.948 E0.95144
G1 X20.622 Y46.948 E0.02605
G1 X37.552 Y63.878 E0.98829
G1 X37.552 Y64.51 E0.02605
G1 X19.99 Y46.948 E1.02514
G1 X19.359 Y46.948 E0.02605
G1 X37.552 Y65.141 E1.06199
G1 X37.552 Y65.772 E0.02605
G1 X18.728 Y46.948 E1.09883
G1 X18.097 Y46.948 E0.02605
G1 X37.552 Y66.403 E1.13568
G1 X37.552 Y67.035 E0.02605
G1 X17.465 Y46.948 E1.17253
G1 X16.834 Y46.948 E0.02605
G1 X37.552 Y67.666 E1.20938
G1 X37.552 Y68.297 E0.02605
G1 X16.203 Y46.948 E1.24622
G1 X15.572 Y46.948 E0.02605
G1 X37.552 Y68.928 E1.28307
M73 P1 R113
G1 X37.552 Y69.559 E0.02605
G1 X14.941 Y46.948 E1.31992
G1 X14.309 Y46.948 E0.02605
G1 X37.552 Y70.191 E1.35676
G1 X37.552 Y70.822 E0.02605
G1 X13.678 Y46.948 E1.39361
G1 X13.047 Y46.948 E0.02605
G1 X37.552 Y71.453 E1.43046
G1 X37.552 Y72.084 E0.02605
G1 X12.416 Y46.948 E1.46731
G1 X11.784 Y46.948 E0.02605
G1 X37.552 Y72.716 E1.50415
G1 X37.552 Y73.052 E0.01389
G1 X37.257 Y73.052 E0.01217
G1 X11.448 Y47.243 E1.50659
G1 X11.448 Y47.874 E0.02605
G1 X36.626 Y73.052 E1.46974
G1 X35.995 Y73.052 E0.02605
G1 X11.448 Y48.505 E1.43289
G1 X11.448 Y49.136 E0.02605
G1 X35.364 Y73.052 E1.39604
G1 X34.732 Y73.052 E0.02605
G1 X11.448 Y49.768 E1.3592
G1 X11.448 Y50.399 E0.02605
G1 X34.101 Y73.052 E1.32235
G1 X33.47 Y73.052 E0.02605
G1 X11.448 Y51.03 E1.2855
G1 X11.448 Y51.661 E0.02605
G1 X32.839 Y73.052 E1.24865
G1 X32.207 Y73.052 E0.02605
G1 X11.448 Y52.293 E1.21181
G1 X11.448 Y52.924 E0.02605
G1 X31.576 Y73.052 E1.17496
G1 X30.945 Y73.052 E0.02605
G1 X11.448 Y53.555 E1.13811
G1 X11.448 Y54.186 E0.02605
G1 X30.314 Y73.052 E1.10127
G1 X29.683 Y73.052 E0.02605
G1 X11.448 Y54.817 E1.06442
G1 X11.448 Y55.449 E0.02605
G1 X29.051 Y73.052 E1.02757
G1 X28.42 Y73.052 E0.02605
G1 X11.448 Y56.08 E0.99072
G1 X11.448 Y56.711 E0.02605
G1 X27.789 Y73.052 E0.95388
G1 X27.158 Y73.052 E0.02605
G1 X11.448 Y57.342 E0.91703
G1 X11.448 Y57.974 E0.02605
G1 X26.526 Y73.052 E0.88018
G1 X25.895 Y73.052 E0.02605
G1 X11.448 Y58.605 E0.84333
M73 P2 R113
G1 X11.448 Y59.236 E0.02605
G1 X25.264 Y73.052 E0.80649
G1 X24.633 Y73.052 E0.02605
G1 X11.448 Y59.867 E0.76964
G1 X11.448 Y60.499 E0.02606
G1 X24.001 Y73.052 E0.73279
G1 X23.37 Y73.052 E0.02605
G1 X11.448 Y61.13 E0.69595
G1 X11.448 Y61.761 E0.02605
G1 X22.739 Y73.052 E0.6591
G1 X22.108 Y73.052 E0.02605
G1 X11.448 Y62.392 E0.62225
G1 X11.448 Y63.024 E0.02605
G1 X21.476 Y73.052 E0.5854
G1 X20.845 Y73.052 E0.02605
G1 X11.448 Y63.655 E0.54856
G1 X11.448 Y64.286 E0.02605
G1 X20.214 Y73.052 E0.51171
G1 X19.583 Y73.052 E0.02605
G1 X11.448 Y64.917 E0.47486
G1 X11.448 Y65.548 E0.02605
G1 X18.952 Y73.052 E0.43801
G1 X18.32 Y73.052 E0.02605
G1 X11.448 Y66.18 E0.40117
G1 X11.448 Y66.811 E0.02605
G1 X17.689 Y73.052 E0.36432
G1 X17.058 Y73.052 E0.02605
G1 X11.448 Y67.442 E0.32747
G1 X11.448 Y68.073 E0.02605
G1 X16.427 Y73.052 E0.29062
G1 X15.795 Y73.052 E0.02605
G1 X11.448 Y68.705 E0.25378
G1 X11.448 Y69.336 E0.02605
G1 X15.164 Y73.052 E0.21693
G1 X14.533 Y73.052 E0.02605
G1 X11.448 Y69.967 E0.18008
G1 X11.448 Y70.598 E0.02605
G1 X13.902 Y73.052 E0.14324
G1 X13.27 Y73.052 E0.02605
G1 X11.448 Y71.23 E0.10639
G1 X11.448 Y71.861 E0.02605
G1 X12.639 Y73.052 E0.06954
G1 X12.008 Y73.052 E0.02605
G1 X11.256 Y72.3 E0.0439
; INIT stop printing object cube-30x30x3mm.stl id:0 copy 0
; INIT printing object cube-30x30x3mm.stl id:2 copy 0
G1 E-0.5
G1 Z0.55 F27000
; stop printing object cube-30x30x3mm.stl id:0 copy 0
; printing object cube-30x30x3mm.stl id:2 copy 0
G1 X11.256 Y38.311
G1 Z0.25
G1 E0.5 F1800
; custom gcode: feature_gcode
; External perimeter
;Perimeter
SET_VELOCITY_LIMIT ACCEL=800 ACCEL_TO_DECEL=400 SQUARE_CORNER_VELOCITY=8

; Overhang perimeter
; custom gcode end: feature_gcode

;TYPE:Internal perimeter
;WIDTH:0.5
G1 X11.189 Y38.311 E0.00286
G1 X11.189 Y11.689 E1.13626
G1 X37.811 Y11.689 E1.13626
G1 X37.811 Y38.311 E1.13626
G1 X11.316 Y38.311 E1.13084
G1 X38.257 Y38.757 F27000
G1 F1800
G1 X10.743 Y38.757 E1.17436
G1 X10.743 Y11.243 E1.17436
G1 X38.257 Y11.243 E1.17436
G1 X38.257 Y38.697 E1.1718
G1 X38.704 Y39.204 F27000
G1 F1800
G1 X10.296 Y39.204 E1.21246
G1 X10.296 Y10.796 E1.21246
G1 X38.704 Y10.796 E1.21246
G1 X38.704 Y39.144 E1.2099
M73 P2 R112
G1 X39.15 Y39.65 F27000
; custom gcode: feature_gcode
; External perimeter
;ExternalPerimeter
SET_VELOCITY_LIMIT ACCEL=450 ACCEL_TO_DECEL=250 SQUARE_CORNER_VELOCITY=8

; Perimeter
; custom gcode end: feature_gcode

;TYPE:External perimeter
G1 F1800
G1 X9.85 Y39.65 E1.25056
G1 X9.85 Y10.35 E1.25056
G1 X39.15 Y10.35 E1.25056
G1 X39.15 Y39.59 E1.248
;WIPE_START
G1 X38.804 Y39.45 F27000
;WIPE_END
G1 X36.842 Y11.756
; custom gcode: feature_gcode
; External perimeter
;SolidInfill
SET_VELOCITY_LIMIT ACCEL=3800 ACCEL_TO_DECEL=2000 SQUARE_CORNER_VELOCITY=8

