;FLAVOR:Marlin
;TIME:3171
;Filament used: 0.670295m
;Layer height: 0.1
;MINX:93.81
;MINY:93.81
;MINZ:0.3
;MAXX:126.19
;MAXY:126.19
;MAXZ:51.7
;Generated with Cura_SteamEngine 4.10.0
M140 S57
M105
M190 S57
M104 S195
M105
M109 S195
M82 ;absolute extrusion mode
G28 ;Home
G1 Z15.0 F2000 ;Move the platform
G92 E0
G92 E0
G1 F1500 E-9.5
;LAYER_COUNT:516
;LAYER:0
M107
M204 S1000
G0 F6750 X98.569 Y98.534 Z0.3
;TYPE:SKIRT
G1 F1500 E0
G1 F1350 X99.118 Y98.038 E0.03691
G1 X100.389 Y96.995 E0.11894
G1 X101.024 Y96.526 E0.15832
G1 X101.655 Y96.149 E0.195
G1 X103.108 Y95.371 E0.27722
G1 X103.822 Y95.034 E0.31661
G1 X104.53 Y94.782 E0.35411
G1 X106.102 Y94.306 E0.43605
G1 X106.868 Y94.115 E0.47544
G1 X107.599 Y94.008 E0.5123
G1 X109.237 Y93.847 E0.59441
G1 X110.026 Y93.81 E0.63382
G1 X110.763 Y93.847 E0.67063
G1 X112.401 Y94.008 E0.75275
G1 X113.182 Y94.125 E0.79214
G1 X113.898 Y94.306 E0.82899
G1 X115.47 Y94.782 E0.91093
G1 X116.214 Y95.049 E0.95037
G1 X116.89 Y95.37 E0.9877
G1 X118.344 Y96.148 E1.06998
G1 X119.02 Y96.555 E1.10934
G1 X119.613 Y96.996 E1.14621
G1 X120.881 Y98.037 E1.22806
G1 X121.466 Y98.569 E1.26751
G1 X121.96 Y99.116 E1.30428
G1 X123.003 Y100.386 E1.38627
G1 X123.472 Y101.02 E1.42562
G1 X123.852 Y101.656 E1.46258
G1 X124.63 Y103.11 E1.54485
G1 X124.967 Y103.824 E1.58424
G1 X125.218 Y104.528 E1.62153
G1 X125.694 Y106.099 E1.70343
G1 X125.884 Y106.866 E1.74285
G1 X125.992 Y107.598 E1.77976
G1 X126.153 Y109.235 E1.86183
G1 X126.19 Y110.023 E1.90118
G1 X126.153 Y110.76 E1.938
G1 X125.992 Y112.4 E2.02021
G1 X125.875 Y113.181 E2.05961
G1 X125.694 Y113.898 E2.0965
G1 X125.218 Y115.47 E2.17845
G1 X124.951 Y116.214 E2.21788
G1 X124.63 Y116.89 E2.25522
G1 X123.853 Y118.342 E2.33738
G1 X123.446 Y119.019 E2.37679
G1 X123.006 Y119.61 E2.41355
G1 X121.964 Y120.88 E2.49551
G1 X121.433 Y121.464 E2.53489
G1 X120.884 Y121.96 E2.5718
G1 X119.614 Y123.003 E2.65379
G1 X118.98 Y123.472 E2.69313
G1 X118.34 Y123.854 E2.73032
G1 X116.886 Y124.631 E2.81257
G1 X116.172 Y124.968 E2.85196
G1 X115.475 Y125.216 E2.88886
G1 X113.903 Y125.693 E2.97082
G1 X113.137 Y125.884 E3.01021
G1 X112.401 Y125.992 E3.04732
G1 X110.763 Y126.153 E3.12944
G1 X109.974 Y126.19 E3.16884
G1 X109.237 Y126.153 E3.20566
G1 X107.599 Y125.992 E3.28777
G1 X106.818 Y125.875 E3.32717
G1 X106.097 Y125.693 E3.36427
G1 X104.525 Y125.216 E3.44623
G1 X103.782 Y124.949 E3.48562
G1 X103.112 Y124.63 E3.52264
G1 X101.659 Y123.853 E3.60484
G1 X100.982 Y123.446 E3.64425
G1 X100.389 Y123.005 E3.68112
G1 X99.118 Y121.962 E3.76315
G1 X98.534 Y121.43 E3.80256
G1 X98.036 Y120.88 E3.83958
G1 X96.994 Y119.61 E3.92154
G1 X96.525 Y118.974 E3.96096
G1 X96.145 Y118.338 E3.99792
G1 X95.369 Y116.886 E4.08006
G1 X95.032 Y116.172 E4.11945
G1 X94.784 Y115.475 E4.15636
G1 X94.307 Y113.903 E4.23832
G1 X94.116 Y113.137 E4.2777
G1 X94.008 Y112.402 E4.31477
G1 X93.847 Y110.766 E4.39678
G1 X93.81 Y109.977 E4.43619
G1 X93.847 Y109.24 E4.473
G1 X94.008 Y107.599 E4.55527
G1 X94.125 Y106.818 E4.59467
G1 X94.307 Y106.095 E4.63186
G1 X94.784 Y104.524 E4.71377
G1 X95.052 Y103.781 E4.75318
G1 X95.369 Y103.114 E4.79002
G1 X96.146 Y101.66 E4.87227
G1 X96.553 Y100.983 E4.91168
G1 X96.996 Y100.387 E4.94873
G1 X98.037 Y99.119 E5.03058
G1 X98.569 Y98.534 E5.07003
G0 F6750 X98.865 Y98.804
G1 F1350 X99.372 Y98.348 E5.10405
G1 X100.643 Y97.305 E5.18608
G1 X101.262 Y96.848 E5.22446
G1 X101.844 Y96.501 E5.25827
G1 X103.297 Y95.723 E5.34049
G1 X103.993 Y95.396 E5.37886
G1 X104.645 Y95.165 E5.41337
G1 X106.217 Y94.689 E5.49531
G1 X106.964 Y94.504 E5.53371
G1 X107.638 Y94.406 E5.56769
G1 X109.276 Y94.245 E5.6498
G1 X110.044 Y94.21 E5.68816
G1 X110.724 Y94.245 E5.72213
G1 X112.362 Y94.406 E5.80424
G1 X113.122 Y94.521 E5.84259
G1 X113.783 Y94.689 E5.87661
G1 X115.355 Y95.165 E5.95856
G1 X116.078 Y95.425 E5.99689
G1 X116.701 Y95.722 E6.03132
G1 X118.155 Y96.5 E6.1136
G1 X118.814 Y96.898 E6.152
G1 X119.36 Y97.306 E6.18601
G1 X120.628 Y98.347 E6.26786
G1 X121.196 Y98.865 E6.30621
G1 X121.651 Y99.37 E6.34012
G1 X122.694 Y100.64 E6.42211
G1 X123.15 Y101.258 E6.46043
G1 X123.5 Y101.845 E6.49453
G1 X124.278 Y103.299 E6.5768
G1 X124.605 Y103.995 E6.61516
G1 X124.835 Y104.644 E6.64951
G1 X125.311 Y106.215 E6.73141
G1 X125.496 Y106.962 E6.7698
G1 X125.593 Y107.637 E6.80383
G1 X125.754 Y109.274 E6.88589
G1 X125.79 Y110.042 E6.92425
G1 X125.755 Y110.721 E6.95817
G1 X125.594 Y112.361 E7.04038
G1 X125.479 Y113.122 E7.07878
G1 X125.311 Y113.783 E7.11281
G1 X124.835 Y115.355 E7.19475
G1 X124.575 Y116.078 E7.23308
G1 X124.278 Y116.701 E7.26751
G1 X123.501 Y118.153 E7.34967
G1 X123.103 Y118.812 E7.38808
G1 X122.697 Y119.356 E7.42195
G1 X121.655 Y120.626 E7.50391
G1 X121.137 Y121.194 E7.54226
G1 X120.63 Y121.651 E7.57631
G1 X119.36 Y122.694 E7.6583
G1 X118.742 Y123.15 E7.69662
G1 X118.152 Y123.502 E7.73089
G1 X116.698 Y124.279 E7.81314
G1 X116.001 Y124.605 E7.85153
G1 X115.359 Y124.833 E7.88552
G1 X113.787 Y125.31 E7.96748
G1 X113.04 Y125.495 E8.00587
G1 X112.362 Y125.594 E8.04006
G1 X110.724 Y125.755 E8.12217
G1 X109.956 Y125.79 E8.16053
G1 X109.276 Y125.755 E8.1945
G1 X107.638 Y125.594 E8.27661
G1 X106.878 Y125.479 E8.31496
G1 X106.213 Y125.31 E8.34919
G1 X104.641 Y124.833 E8.43115
G1 X103.918 Y124.572 E8.4695
G1 X103.3 Y124.278 E8.50364
G1 X101.847 Y123.501 E8.58585
G1 X101.189 Y123.103 E8.62421
G1 X100.643 Y122.695 E8.65822
G1 X99.372 Y121.652 E8.74024
G1 X98.803 Y121.134 E8.77863
G1 X98.345 Y120.626 E8.81276
G1 X97.303 Y119.356 E8.89472
G1 X96.847 Y118.737 E8.93307
G1 X96.498 Y118.15 E8.96714
G1 X95.722 Y116.698 E9.04928
G1 X95.395 Y116.002 E9.08764
G1 X95.167 Y115.359 E9.12168
G1 X94.69 Y113.787 E9.20364
G1 X94.505 Y113.04 E9.24203
G1 X94.407 Y112.363 E9.27616
G1 X94.246 Y110.727 E9.35818
G1 X94.21 Y109.958 E9.39658
G1 X94.245 Y109.279 E9.4305
G1 X94.406 Y107.638 E9.51277
G1 X94.521 Y106.878 E9.55111
G1 X94.69 Y106.211 E9.58544
G1 X95.167 Y104.64 E9.66735
G1 X95.429 Y103.917 E9.70572
G1 X95.721 Y103.302 E9.73969
G1 X96.498 Y101.848 E9.82193
G1 X96.896 Y101.19 E9.8603
G1 X97.306 Y100.64 E9.89452
G1 X98.347 Y99.372 E9.97637
G1 X98.865 Y98.804 E10.01473
G0 F6750 X99.161 Y99.074
G1 F1350 X99.625 Y98.657 E10.04585
G1 X100.896 Y97.614 E10.12788
G1 X101.499 Y97.171 E10.16521
G1 X102.033 Y96.854 E10.19619
G1 X103.486 Y96.076 E10.27842
G1 X104.163 Y95.759 E10.31571
G1 X104.761 Y95.547 E10.34737
G1 X106.333 Y95.071 E10.42931
G1 X107.06 Y94.893 E10.46665
G1 X107.677 Y94.805 E10.49774
G1 X109.315 Y94.644 E10.57986
G1 X110.063 Y94.61 E10.61721
G1 X110.685 Y94.644 E10.64829
G1 X112.323 Y94.805 E10.73041
G1 X113.062 Y94.917 E10.7677
G1 X113.667 Y95.071 E10.79884
G1 X115.239 Y95.547 E10.88079
G1 X115.942 Y95.802 E10.9181
G1 X116.512 Y96.075 E10.94963
G1 X117.966 Y96.853 E11.0319
G1 X118.606 Y97.241 E11.06924
G1 X119.106 Y97.615 E11.10039
G1 X120.374 Y98.656 E11.18224
G1 X120.926 Y99.161 E11.21956
G1 X121.342 Y99.623 E11.25058
G1 X122.385 Y100.893 E11.33257
G1 X122.828 Y101.496 E11.3699
G1 X123.147 Y102.034 E11.4011
G1 X123.925 Y103.488 E11.48338
G1 X124.242 Y104.165 E11.52067
G1 X124.452 Y104.76 E11.55215
G1 X124.928 Y106.331 E11.63405
G1 X125.107 Y107.058 E11.6714
G1 X125.195 Y107.676 E11.70254
G1 X125.356 Y109.313 E11.78461
G1 X125.39 Y110.06 E11.82191
G1 X125.357 Y110.682 E11.85299
G1 X125.196 Y112.322 E11.9352
G1 X125.083 Y113.061 E11.9725
G1 X124.929 Y113.667 E12.00369
G1 X124.453 Y115.239 E12.08564
G1 X124.198 Y115.942 E12.12295
G1 X123.925 Y116.513 E12.15452
G1 X123.148 Y117.965 E12.23668
G1 X122.76 Y118.604 E12.27398
G1 X122.388 Y119.102 E12.30499
G1 X121.346 Y120.372 E12.38695
G1 X120.841 Y120.924 E12.42427
G1 X120.377 Y121.342 E12.45543
G1 X119.107 Y122.385 E12.53742
G1 X118.504 Y122.828 E12.57475
G1 X117.963 Y123.149 E12.60613
G1 X116.509 Y123.926 E12.68838
G1 X115.832 Y124.243 E12.72568
G1 X115.243 Y124.45 E12.75683
G1 X113.671 Y124.927 E12.83878
G1 X112.944 Y125.106 E12.87614
G1 X112.323 Y125.195 E12.90744
G1 X110.685 Y125.356 E12.98955
G1 X109.937 Y125.39 E13.02691
G1 X109.315 Y125.356 E13.05798
G1 X107.677 Y125.195 E13.1401
G1 X106.938 Y125.083 E13.17739
G1 X106.329 Y124.927 E13.20875
G1 X104.757 Y124.45 E13.29071
G1 X104.054 Y124.195 E13.32802
G1 X103.489 Y123.925 E13.35926
G1 X102.036 Y123.148 E13.44146
G1 X101.396 Y122.76 E13.4788
G1 X100.896 Y122.386 E13.50996
G1 X99.625 Y121.343 E13.59198
G1 X99.073 Y120.838 E13.62931
G1 X98.654 Y120.372 E13.66057
G1 X97.612 Y119.102 E13.74253
G1 X97.169 Y118.499 E13.77986
G1 X96.85 Y117.961 E13.81107
G1 X96.074 Y116.509 E13.8932
G1 X95.758 Y115.832 E13.93048
G1 X95.55 Y115.243 E13.96164
G1 X95.073 Y113.671 E14.0436
G1 X94.894 Y112.944 E14.08095
G1 X94.805 Y112.324 E14.1122
G1 X94.644 Y110.688 E14.19422
G1 X94.61 Y109.94 E14.23157
G1 X94.643 Y109.319 E14.2626
G1 X94.804 Y107.678 E14.34486
G1 X94.917 Y106.938 E14.38221
G1 X95.073 Y106.327 E14.41367
G1 X95.55 Y104.756 E14.49558
G1 X95.805 Y104.053 E14.53289
G1 X96.074 Y103.491 E14.56397
G1 X96.851 Y102.037 E14.64622
G1 X97.239 Y101.397 E14.68356
G1 X97.615 Y100.894 E14.71489
G1 X98.656 Y99.626 E14.79674
G1 X99.161 Y99.074 E14.83406
G0 F6750 X99.456 Y99.345
G1 F1350 X99.879 Y98.966 E14.8624
G1 X101.15 Y97.923 E14.94443
G1 X101.736 Y97.494 E14.98066
G1 X102.222 Y97.207 E15.00882
G1 X103.675 Y96.429 E15.09105
G1 X104.333 Y96.121 E15.12729
G1 X104.877 Y95.93 E15.15606
G1 X106.449 Y95.454 E15.238
G1 X107.155 Y95.282 E15.27425
G1 X107.716 Y95.203 E15.30252
G1 X109.354 Y95.042 E15.38463
G1 X110.08 Y95.01 E15.42089
G1 X110.646 Y95.042 E15.44917
G1 X112.284 Y95.203 E15.53129
G1 X113.001 Y95.313 E15.56748
G1 X113.551 Y95.454 E15.5958
G1 X115.123 Y95.93 E15.67775
G1 X115.805 Y96.179 E15.71397
G1 X116.324 Y96.428 E15.74269
G1 X117.778 Y97.206 E15.82496
G1 X118.398 Y97.583 E15.86116
G1 X118.852 Y97.924 E15.88949
G1 X120.12 Y98.965 E15.97134
G1 X120.655 Y99.456 E16.00757
G1 X121.032 Y99.877 E16.03576
G1 X122.075 Y101.147 E16.11775
G1 X122.505 Y101.733 E16.15401
G1 X122.794 Y102.222 E16.18235
G1 X123.572 Y103.676 E16.26462
G1 X123.879 Y104.335 E16.30089
G1 X124.069 Y104.876 E16.3295
G1 X124.545 Y106.447 E16.41139
G1 X124.717 Y107.153 E16.44765
G1 X124.797 Y107.715 E16.47597
G1 X124.958 Y109.352 E16.55803
G1 X124.99 Y110.078 E16.59429
G1 X124.958 Y110.643 E16.62252
G1 X124.797 Y112.283 E16.70473
G1 X124.687 Y113.001 E16.74097
G1 X124.546 Y113.551 E16.7693
G1 X124.07 Y115.123 E16.85124
G1 X123.821 Y115.805 E16.88747
G1 X123.572 Y116.324 E16.91619
G1 X122.795 Y117.776 E16.99835
G1 X122.418 Y118.397 E17.03459
G1 X122.078 Y118.848 E17.06277
G1 X121.036 Y120.118 E17.14473
G1 X120.545 Y120.654 E17.18099
G1 X120.123 Y121.032 E17.20926
G1 X118.853 Y122.075 E17.29124
G1 X118.267 Y122.505 E17.32751
G1 X117.775 Y122.796 E17.35602
G1 X116.321 Y123.573 E17.43827
G1 X115.662 Y123.88 E17.47454
G1 X115.126 Y124.068 E17.50288
G1 X113.554 Y124.545 E17.58484
G1 X112.849 Y124.717 E17.62104
G1 X112.284 Y124.797 E17.64951
G1 X110.646 Y124.958 E17.73163
G1 X109.92 Y124.99 E17.76788
G1 X109.354 Y124.958 E17.79617
G1 X107.716 Y124.797 E17.87828
G1 X106.999 Y124.687 E17.91447
G1 X106.446 Y124.545 E17.94295
G1 X104.874 Y124.068 E18.02491
G1 X104.191 Y123.819 E18.06118
G1 X103.678 Y123.572 E18.08959
G1 X102.225 Y122.795 E18.17179
G1 X101.604 Y122.418 E18.20804
G1 X101.15 Y122.077 E18.23636
G1 X99.879 Y121.034 E18.31839
G1 X99.344 Y120.543 E18.35462
G1 X98.964 Y120.118 E18.38306
G1 X97.922 Y118.848 E18.46502
G1 X97.492 Y118.262 E18.50128
G1 X97.203 Y117.773 E18.52962
G1 X96.427 Y116.321 E18.61176
G1 X96.121 Y115.662 E18.64801
G1 X95.932 Y115.126 E18.67636
G1 X95.455 Y113.554 E18.75832
G1 X95.283 Y112.849 E18.79452
G1 X95.203 Y112.284 E18.82299
G1 X95.042 Y110.648 E18.90501
G1 X95.01 Y109.923 E18.94121
G1 X95.042 Y109.358 E18.96945
G1 X95.203 Y107.717 E19.05171
G1 X95.313 Y106.999 E19.08795
G1 X95.456 Y106.443 E19.11659
G1 X95.933 Y104.872 E19.1985
G1 X96.182 Y104.19 E19.23472
G1 X96.427 Y103.679 E19.263
G1 X97.204 Y102.225 E19.34524
G1 X97.581 Y101.605 E19.38145
G1 X97.924 Y101.148 E19.40995
G1 X98.965 Y99.88 E19.4918
G1 X99.456 Y99.345 E19.52803
G0 F6750 X99.751 Y99.616
G1 F1350 X100.133 Y99.275 E19.55358
G1 X101.404 Y98.232 E19.6356
G1 X101.973 Y97.817 E19.67074
G1 X102.41 Y97.559 E19.69606
G1 X103.863 Y96.781 E19.77829
G1 X104.502 Y96.485 E19.81342
G1 X104.993 Y96.313 E19.83938
G1 X106.565 Y95.837 E19.92132
G1 X107.249 Y95.672 E19.95642
G1 X107.756 Y95.601 E19.98197
G1 X109.394 Y95.44 E20.06408
G1 X110.097 Y95.411 E20.09918
G1 X110.606 Y95.44 E20.12462
G1 X112.244 Y95.601 E20.20673
G1 X112.94 Y95.709 E20.24187
G1 X113.435 Y95.837 E20.26738
G1 X115.007 Y96.313 E20.34932
G1 X115.668 Y96.555 E20.38444
G1 X116.135 Y96.78 E20.4103
G1 X117.589 Y97.558 E20.49257
G1 X118.19 Y97.925 E20.52771
G1 X118.598 Y98.233 E20.55321
G1 X119.866 Y99.274 E20.63506
G1 X120.384 Y99.751 E20.67019
G1 X120.723 Y100.131 E20.6956
G1 X121.766 Y101.401 E20.77759
G1 X122.181 Y101.97 E20.81272
G1 X122.442 Y102.411 E20.83829
G1 X123.22 Y103.865 E20.92056
G1 X123.516 Y104.504 E20.95569
G1 X123.687 Y104.992 E20.98149
G1 X124.163 Y106.563 E21.06339
G1 X124.328 Y107.247 E21.09849
G1 X124.399 Y107.754 E21.12403
G1 X124.56 Y109.391 E21.2061
G1 X124.589 Y110.095 E21.24125
G1 X124.56 Y110.604 E21.26668
G1 X124.399 Y112.244 E21.3489
G1 X124.291 Y112.939 E21.38399
G1 X124.163 Y113.435 E21.40954
G1 X123.687 Y115.007 E21.49149
G1 X123.445 Y115.668 E21.52661
G1 X123.22 Y116.135 E21.55247
G1 X122.443 Y117.587 E21.63463
G1 X122.076 Y118.188 E21.66976
G1 X121.769 Y118.595 E21.69519
G1 X120.727 Y119.865 E21.77715
G1 X120.25 Y120.383 E21.81228
G1 X119.869 Y120.723 E21.83776
G1 X118.599 Y121.766 E21.91975
G1 X118.03 Y122.181 E21.95489
G1 X117.586 Y122.443 E21.98061
G1 X116.132 Y123.22 E22.06285
G1 X115.493 Y123.516 E22.09799
G1 X115.01 Y123.685 E22.12352
G1 X113.438 Y124.162 E22.20548
G1 X112.754 Y124.328 E22.24059
G1 X112.244 Y124.399 E22.26628
G1 X110.606 Y124.56 E22.34839
G1 X109.903 Y124.589 E22.3835
G1 X109.394 Y124.56 E22.40893
G1 X107.756 Y124.399 E22.49105
G1 X107.06 Y124.291 E22.52619
G1 X106.562 Y124.162 E22.55185
G1 X104.99 Y123.685 E22.63381
G1 X104.329 Y123.443 E22.66893
G1 X103.866 Y123.219 E22.69459
G1 X102.413 Y122.442 E22.77679
G1 X101.812 Y122.076 E22.8119
G1 X101.404 Y121.768 E22.8374
G1 X100.133 Y120.725 E22.91943
G1 X99.615 Y120.248 E22.95456
G1 X99.273 Y119.865 E22.98018
G1 X98.231 Y118.595 E23.06214
G1 X97.816 Y118.026 E23.09727
G1 X97.556 Y117.584 E23.12286
G1 X96.78 Y116.132 E23.20499
G1 X96.484 Y115.494 E23.24008
G1 X96.315 Y115.01 E23.26566
G1 X95.838 Y113.438 E23.34762
G1 X95.672 Y112.754 E23.38273
G1 X95.601 Y112.245 E23.40837
G1 X95.44 Y110.609 E23.49039
G1 X95.411 Y109.906 E23.52549
G1 X95.44 Y109.397 E23.55092
G1 X95.601 Y107.756 E23.63319
G1 X95.709 Y107.06 E23.66833
G1 X95.838 Y106.56 E23.69409
G1 X96.315 Y104.989 E23.776
G1 X96.558 Y104.328 E23.81113
G1 X96.78 Y103.868 E23.83662
G1 X97.557 Y102.414 E23.91887
G1 X97.923 Y101.813 E23.95397
G1 X98.233 Y101.402 E23.97966
G1 X99.274 Y100.134 E24.0615
G1 X99.751 Y99.616 E24.09664
G0 F6750 X100.045 Y99.888
G1 F1350 X100.387 Y99.584 E24.11946
G1 X101.658 Y98.541 E24.20149
G1 X102.208 Y98.141 E24.23542
G1 X102.599 Y97.912 E24.25803
G1 X104.052 Y97.134 E24.34026
G1 X104.67 Y96.848 E24.37423
G1 X105.109 Y96.696 E24.39741
G1 X106.681 Y96.22 E24.47935
G1 X107.343 Y96.061 E24.51332
G1 X107.795 Y95.999 E24.53608
G1 X109.433 Y95.838 E24.61819
G1 X110.113 Y95.811 E24.65215
G1 X110.567 Y95.838 E24.67484
G1 X112.205 Y95.999 E24.75695
G1 X112.878 Y96.105 E24.79094
G1 X113.319 Y96.22 E24.81368
G1 X114.891 Y96.696 E24.89562
G1 X115.53 Y96.931 E24.92959
G1 X115.946 Y97.133 E24.95266
G1 X117.4 Y97.911 E25.03493
G1 X117.981 Y98.267 E25.06893
G1 X118.344 Y98.542 E25.09165
G1 X119.612 Y99.583 E25.1735
G1 X120.112 Y100.045 E25.20746
G1 X120.414 Y100.385 E25.23015
G1 X121.457 Y101.655 E25.31214
G1 X121.858 Y102.206 E25.34614
G1 X122.089 Y102.6 E25.36892
G1 X122.867 Y104.054 E25.45119
G1 X123.152 Y104.672 E25.48515
G1 X123.304 Y105.108 E25.50818
G1 X123.78 Y106.679 E25.59008
G1 X123.939 Y107.341 E25.62404
G1 X124.001 Y107.793 E25.64681
G1 X124.162 Y109.43 E25.72887
G1 X124.189 Y110.111 E25.76287
G1 X124.162 Y110.565 E25.78556
G1 X124.001 Y112.205 E25.86778
