; generated by SuperSlicer 2.3.57 on 2022-04-06 at 17:53:14 UTC


;
;

;
;
; 

; external perimeters extrusion width = 0.40mm
; perimeters extrusion width = 0.45mm
; infill extrusion width = 0.72mm
; solid infill extrusion width = 0.56mm
; top infill extrusion width = 0.42mm
; first layer extrusion width = 0.50mm

; object:{"name":"ringing_tower","id":"ringing_tower.stl id:0 copy 0","object_center":[58.000000,60.000000,0.000000],"boundingbox_center":[58.000000,60.000000,27.000000],"boundingbox_size":[108.000000,108.000000,54.000000]}
; plater:{"center":[58.000000,60.000000,0.000000],"boundingbox_center":[58.000000,60.000000,27.000000],"boundingbox_size":[108.000000,108.000000,54.000000]}

M73 P0 R38
;TYPE:Custom
; custom gcode: start_gcode
PRINT_START BED=50 HOTEND=200 CHAMBER=0
; custom gcode end: start_gcode
G21 ; set units to millimeters
G90 ; use absolute coordinates
M83 ; use relative distances for extrusion
; custom gcode: start_filament_gcode
; Filament gcode
; custom gcode end: start_filament_gcode
M109 S200 ; set temperature and wait for it to be reached
M190 S50 ; set bed temperature and wait for it to be reached
;LAYER_CHANGE
;Z:0.25
;HEIGHT:0.25
G1 E-2 F1800
G1 Z0.25 F27000
G1 Z0.55
G1 X2.887 Y4.234
G1 Z0.25
G1 E2 F1800
;TYPE:Skirt
;WIDTH:0.45
G1 X2.479 Y4.512 E0.01912
G1 X2.017 Y5.214 E0.03256
G1 X1.852 Y6.039 E0.03256
G1 X1.852 Y113.95 E4.17875
G1 X2.023 Y114.801 E0.03363
G1 X2.512 Y115.521 E0.03368
G1 X3.214 Y115.983 E0.03256
G1 X4.039 Y116.148 E0.03256
G1 X11.294 Y116.143 E0.28094
G1 X12.007 Y115.974 E0.02838
G1 X12.627 Y115.578 E0.02852
G1 X113.521 Y14.688 E5.52522
G1 X113.956 Y14.049 E0.02991
G1 X114.143 Y13.3 E0.02991
G1 X114.126 Y5.737 E0.29286
G1 X113.88 Y4.997 E0.03019
G1 X113.391 Y4.39 E0.03019
G1 X112.721 Y3.991 E0.03019
G1 X111.954 Y3.852 E0.03019
G1 X4.037 Y3.852 E4.17898
G1 X3.192 Y4.026 E0.0334
G1 X2.937 Y4.2 E0.01195
; INIT printing object ringing_tower.stl id:0 copy 0
G1 E-2
G1 Z0.55 F27000
; printing object ringing_tower.stl id:0 copy 0
G1 X10.85 Y12.85
G1 Z0.25
G1 E2 F1800
;TYPE:External perimeter
;WIDTH:0.5
G1 X10.85 Y43.986 E1.35782
G1 X9.5 Y45.541 E0.08978
G1 X9.5 Y50.983 E0.23736
G1 X10.85 Y52.538 E0.08978
G1 X10.85 Y74.662 E0.96483
G1 X9.5 Y76.217 E0.08978
G1 X9.5 Y81.659 E0.23736
G1 X10.85 Y83.214 E0.08978
G1 X10.85 Y113.65 E1.32729
G1 X4.35 Y113.65 E0.28346
G1 X4.35 Y84.556 E1.26877
M73 P1 R38
G1 X8.473 Y87.443 E0.21951
G1 X8.85 Y87.247 E0.01852
G1 X8.85 Y81.015 E0.27175
G1 X8.473 Y80.819 E0.01852
G1 X4.35 Y83.706 E0.21951
G1 X4.35 Y48.833 E1.52081
G1 X8.85 Y45.682 E0.23957
G1 X8.85 Y38.567 E0.31025
G1 X4.35 Y35.416 E0.23957
G1 X4.35 Y6.35 E1.26756
G1 X33.444 Y6.35 E1.26877
G1 X30.557 Y10.473 E0.21951
G1 X30.753 Y10.85 E0.01852
G1 X36.985 Y10.85 E0.27175
G1 X37.181 Y10.473 E0.01852
G1 X34.294 Y6.35 E0.21951
G1 X69.167 Y6.35 E1.52081
G1 X72.318 Y10.85 E0.23957
G1 X79.433 Y10.85 E0.31025
G1 X82.584 Y6.35 E0.23957
G1 X111.65 Y6.35 E1.26756
G1 X111.65 Y12.85 E0.28346
G1 X65.345 Y12.85 E2.01932
G1 X63.995 Y11.5 E0.08326
G1 X59.205 Y11.5 E0.20889
G1 X57.855 Y12.85 E0.08326
G1 X10.91 Y12.85 E2.04723
;WIPE_START
G1 X10.45 Y12.85 F27000
;WIPE_END
G1 E-2 F1800
G1 Z0.55 F27000
G1 X9.165 Y80.907
G1 Z0.25
G1 E2 F1800
;TYPE:Gap fill
;WIDTH:0.269892
G1 X9.175 Y81.048 E0.00297
G1 X9.175 Y81.47 E0.00893
G1 X9.19 Y81.578 E0.00231
;WIDTH:0.22253
G1 X9.204 Y81.687 E0.0018
G1 X8.917 Y82 F27000
;TYPE:Solid infill
;WIDTH:0.485694
G1 F3600
G1 X10.591 Y83.674 E0.1003
G1 X10.591 Y84.305 E0.02674
G1 X9.109 Y82.823 E0.0888
G1 X9.109 Y83.454 E0.02674
G1 X10.591 Y84.936 E0.0888
G1 X10.591 Y85.568 E0.02674
G1 X9.109 Y84.085 E0.0888
G1 X9.109 Y84.717 E0.02674
G1 X10.591 Y86.199 E0.0888
G1 X10.591 Y86.83 E0.02674
G1 X9.109 Y85.348 E0.0888
G1 X9.109 Y85.979 E0.02674
G1 X10.591 Y87.461 E0.0888
G1 X10.591 Y88.092 E0.02674
G1 X9.109 Y86.61 E0.0888
G1 X9.109 Y87.241 E0.02674
G1 X10.591 Y88.724 E0.0888
G1 X10.591 Y89.355 E0.02674
G1 X8.801 Y87.564 E0.10727
G1 X8.453 Y87.745 E0.01658
G1 X8.108 Y87.503 E0.01785
G1 X10.591 Y89.986 E0.14874
G1 X10.591 Y90.617 E0.02674
G1 X6.003 Y86.029 E0.27488
G1 X4.609 Y85.053 E0.07209
G1 X4.609 Y85.266 E0.00904
G1 X10.591 Y91.249 E0.35839
G1 X10.591 Y91.88 E0.02674
G1 X4.609 Y85.898 E0.35839
G1 X4.609 Y86.529 E0.02674
G1 X10.591 Y92.511 E0.35839
G1 X10.591 Y93.142 E0.02674
G1 X4.609 Y87.16 E0.35839
G1 X4.609 Y87.791 E0.02674
G1 X10.591 Y93.774 E0.35839
G1 X10.591 Y94.405 E0.02674
G1 X4.609 Y88.423 E0.35839
G1 X4.609 Y89.054 E0.02674
G1 X10.591 Y95.036 E0.35839
G1 X10.591 Y95.667 E0.02674
G1 X4.609 Y89.685 E0.35839
G1 X4.609 Y90.316 E0.02674
G1 X10.591 Y96.299 E0.35839
G1 X10.591 Y96.93 E0.02674
G1 X4.609 Y90.947 E0.35839
G1 X4.609 Y91.579 E0.02674
G1 X10.591 Y97.561 E0.35839
G1 X10.591 Y98.192 E0.02674
G1 X4.609 Y92.21 E0.35839
G1 X4.609 Y92.841 E0.02674
G1 X10.591 Y98.823 E0.35839
G1 X10.591 Y99.455 E0.02674
G1 X4.609 Y93.472 E0.35839
G1 X4.609 Y94.104 E0.02674
G1 X10.591 Y100.086 E0.35839
G1 X10.591 Y100.717 E0.02674
G1 X4.609 Y94.735 E0.35839
G1 X4.609 Y95.366 E0.02674
G1 X10.591 Y101.348 E0.35839
G1 X10.591 Y101.98 E0.02674
G1 X4.609 Y95.997 E0.35839
G1 X4.609 Y96.629 E0.02674
G1 X10.591 Y102.611 E0.35839
G1 X10.591 Y103.242 E0.02674
G1 X4.609 Y97.26 E0.35839
G1 X4.609 Y97.891 E0.02674
G1 X10.591 Y103.873 E0.35839
G1 X10.591 Y104.505 E0.02674
G1 X4.609 Y98.522 E0.35839
G1 X4.609 Y99.153 E0.02674
G1 X10.591 Y105.136 E0.35839
G1 X10.591 Y105.767 E0.02674
G1 X4.609 Y99.785 E0.35839
G1 X4.609 Y100.416 E0.02674
G1 X10.591 Y106.398 E0.35839
G1 X10.591 Y107.029 E0.02674
G1 X4.609 Y101.047 E0.35839
M73 P2 R38
G1 X4.609 Y101.678 E0.02674
G1 X10.591 Y107.661 E0.35839
G1 X10.591 Y108.292 E0.02674
G1 X4.609 Y102.31 E0.35839
G1 X4.609 Y102.941 E0.02674
G1 X10.591 Y108.923 E0.35839
G1 X10.591 Y109.554 E0.02674
G1 X4.609 Y103.572 E0.35839
G1 X4.609 Y104.203 E0.02674
G1 X10.591 Y110.186 E0.35839
G1 X10.591 Y110.817 E0.02674
G1 X4.609 Y104.835 E0.35839
G1 X4.609 Y105.466 E0.02674
G1 X10.591 Y111.448 E0.35839
G1 X10.591 Y112.079 E0.02674
G1 X4.609 Y106.097 E0.35839
G1 X4.609 Y106.728 E0.02674
G1 X10.591 Y112.711 E0.35839
G1 X10.591 Y113.342 E0.02674
G1 X4.609 Y107.36 E0.35839
G1 X4.609 Y107.991 E0.02674
G1 X10.009 Y113.391 E0.32353
G1 X9.378 Y113.391 E0.02674
G1 X4.609 Y108.622 E0.28571
G1 X4.609 Y109.253 E0.02674
G1 X8.747 Y113.391 E0.2479
G1 X8.116 Y113.391 E0.02674
G1 X4.609 Y109.884 E0.21008
G1 X4.609 Y110.516 E0.02674
G1 X7.484 Y113.391 E0.17226
G1 X6.853 Y113.391 E0.02674
G1 X4.609 Y111.147 E0.13445
G1 X4.609 Y111.778 E0.02674
G1 X6.222 Y113.391 E0.09663
G1 X5.591 Y113.391 E0.02674
G1 X4.609 Y112.409 E0.05882
G1 X4.609 Y113.041 E0.02674
G1 X5.151 Y113.583 E0.0325
G1 E-2 F1800
G1 Z0.55 F27000
G1 X7.88 Y87.439
G1 Z0.25
G1 E2 F1800
;TYPE:Gap fill
;WIDTH:0.273269
G1 X7.8 Y87.372 E0.00225
G1 X7.674 Y87.267 E0.00351
;WIDTH:0.227004
G1 X7.549 Y87.162 E0.00277
;WIDTH:0.190327
G1 X7.424 Y87.056 E0.00218
;WIDTH:0.15365
G1 X7.298 Y86.951 E0.0016
G1 E-2
G1 Z0.55 F27000
G1 X10.401 Y83.11
G1 Z0.25
G1 E2 F1800
G1 X10.099 Y82.786 E0.00432
;WIDTH:0.193762
G1 X9.797 Y82.462 E0.00606
;WIDTH:0.233873
G1 X9.495 Y82.139 E0.00779
;WIDTH:0.273984
G1 X9.194 Y81.815 E0.00953
;WIDTH:0.193365
G1 X9.073 Y81.676 E0.00251
G1 E-2
G1 Z0.55 F27000
G1 X110.681 Y6.417
G1 Z0.25
G1 E2 F1800
;TYPE:Solid infill
;WIDTH:0.48473
G1 F3600
G1 X111.391 Y7.127 E0.04247
G1 X111.391 Y7.759 E0.02669
G1 X110.241 Y6.609 E0.06874
G1 X109.61 Y6.609 E0.02669
G1 X111.391 Y8.39 E0.10648
G1 X111.391 Y9.021 E0.02669
G1 X108.979 Y6.609 E0.14422
G1 X108.348 Y6.609 E0.02669
G1 X111.391 Y9.652 E0.18196
G1 X111.391 Y10.283 E0.02669
G1 X107.717 Y6.609 E0.2197
G1 X107.085 Y6.609 E0.02669
G1 X111.391 Y10.915 E0.25744
G1 X111.391 Y11.546 E0.02669
G1 X106.454 Y6.609 E0.29518
G1 X105.823 Y6.609 E0.02669
G1 X111.391 Y12.177 E0.33292
G1 X111.391 Y12.591 E0.0175
G1 X111.174 Y12.591 E0.00918
G1 X105.192 Y6.609 E0.35768
G1 X104.56 Y6.609 E0.02669
G1 X110.543 Y12.591 E0.35768
G1 X109.911 Y12.591 E0.02669
G1 X103.929 Y6.609 E0.35768
G1 X103.298 Y6.609 E0.02669
G1 X109.28 Y12.591 E0.35768
G1 X108.649 Y12.591 E0.02669
G1 X102.667 Y6.609 E0.35768
G1 X102.035 Y6.609 E0.02669
G1 X108.018 Y12.591 E0.35768
G1 X107.387 Y12.591 E0.02669
G1 X101.404 Y6.609 E0.35768
G1 X100.773 Y6.609 E0.02669
G1 X106.755 Y12.591 E0.35768
G1 X106.124 Y12.591 E0.02669
G1 X100.142 Y6.609 E0.35768
G1 X99.511 Y6.609 E0.02669
G1 X105.493 Y12.591 E0.35768
G1 X104.862 Y12.591 E0.02669
G1 X98.879 Y6.609 E0.35768
G1 X98.248 Y6.609 E0.02669
G1 X104.23 Y12.591 E0.35768
G1 X103.599 Y12.591 E0.02669
G1 X97.617 Y6.609 E0.35768
G1 X96.986 Y6.609 E0.02669
G1 X102.968 Y12.591 E0.35768
M73 P2 R37
G1 X102.337 Y12.591 E0.02669
G1 X96.354 Y6.609 E0.35768
G1 X95.723 Y6.609 E0.02669
G1 X101.705 Y12.591 E0.35768
G1 X101.074 Y12.591 E0.02669
G1 X95.092 Y6.609 E0.35768
G1 X94.461 Y6.609 E0.02669
G1 X100.443 Y12.591 E0.35768
G1 X99.812 Y12.591 E0.02669
G1 X93.829 Y6.609 E0.35768
G1 X93.198 Y6.609 E0.02669
G1 X99.18 Y12.591 E0.35768
G1 X98.549 Y12.591 E0.02669
G1 X92.567 Y6.609 E0.35768
G1 X91.936 Y6.609 E0.02669
G1 X97.918 Y12.591 E0.35768
G1 X97.287 Y12.591 E0.02669
G1 X91.305 Y6.609 E0.35768
G1 X90.673 Y6.609 E0.02669
G1 X96.656 Y12.591 E0.35768
G1 X96.024 Y12.591 E0.02669
G1 X90.042 Y6.609 E0.35768
G1 X89.411 Y6.609 E0.02669
G1 X95.393 Y12.591 E0.35768
G1 X94.762 Y12.591 E0.02669
G1 X88.78 Y6.609 E0.35768
G1 X88.148 Y6.609 E0.02669
G1 X94.131 Y12.591 E0.35768
G1 X93.499 Y12.591 E0.02669
G1 X87.517 Y6.609 E0.35768
G1 X86.886 Y6.609 E0.02669
G1 X92.868 Y12.591 E0.35768
G1 X92.237 Y12.591 E0.02669
G1 X86.255 Y6.609 E0.35768
G1 X85.623 Y6.609 E0.02669
G1 X91.606 Y12.591 E0.35768
G1 X90.974 Y12.591 E0.02669
G1 X84.992 Y6.609 E0.35768
G1 X84.361 Y6.609 E0.02669
G1 X90.343 Y12.591 E0.35768
G1 X89.712 Y12.591 E0.02669
G1 X83.73 Y6.609 E0.35768
G1 X83.098 Y6.609 E0.02669
G1 X89.081 Y12.591 E0.35768
G1 X88.45 Y12.591 E0.02669
G1 X82.615 Y6.757 E0.34884
G1 X82.355 Y7.128 E0.01916
G1 X87.818 Y12.591 E0.32664
G1 X87.187 Y12.591 E0.02669
G1 X82.095 Y7.499 E0.30445
G1 X81.835 Y7.87 E0.01916
G1 X86.556 Y12.591 E0.28225
G1 X85.925 Y12.591 E0.02669
G1 X81.575 Y8.242 E0.26005
G1 X81.315 Y8.613 E0.01916
G1 X85.293 Y12.591 E0.23785
G1 X84.662 Y12.591 E0.02669
G1 X81.055 Y8.984 E0.21566
G1 X80.795 Y9.355 E0.01916
G1 X84.031 Y12.591 E0.19346
G1 X83.4 Y12.591 E0.02669
G1 X80.535 Y9.727 E0.17126
G1 X80.275 Y10.098 E0.01916
G1 X82.768 Y12.591 E0.14906
G1 X82.137 Y12.591 E0.02669
G1 X80.015 Y10.469 E0.12686
G1 X79.755 Y10.841 E0.01916
G1 X81.506 Y12.591 E0.10467
G1 X80.875 Y12.591 E0.02669
G1 X79.392 Y11.109 E0.08863
G1 X78.761 Y11.109 E0.02669
G1 X80.244 Y12.591 E0.08863
G1 X79.612 Y12.591 E0.02669
G1 X78.13 Y11.109 E0.08863
G1 X77.499 Y11.109 E0.02669
G1 X78.981 Y12.591 E0.08863
G1 X78.35 Y12.591 E0.02669
G1 X76.868 Y11.109 E0.08863
G1 X76.236 Y11.109 E0.02669
G1 X77.719 Y12.591 E0.08863
G1 X77.087 Y12.591 E0.02669
G1 X75.605 Y11.109 E0.08863
G1 X74.974 Y11.109 E0.02669
G1 X76.456 Y12.591 E0.08863
G1 X75.825 Y12.591 E0.02669
G1 X74.343 Y11.109 E0.08863
G1 X73.711 Y11.109 E0.02669
G1 X75.194 Y12.591 E0.08863
G1 X74.562 Y12.591 E0.02669
G1 X72.888 Y10.917 E0.1001
G1 E-2 F1800
G1 Z0.55 F27000
G1 X70.871 Y8.9
G1 Z0.25
G1 E2 F1800
G1 F3600
G1 X68.58 Y6.609 E0.13698
G1 X67.949 Y6.609 E0.02669
G1 X73.931 Y12.591 E0.35768
G1 X73.3 Y12.591 E0.02669
G1 X67.318 Y6.609 E0.35768
G1 X66.686 Y6.609 E0.02669
G1 X72.669 Y12.591 E0.35768
G1 X72.037 Y12.591 E0.02669
G1 X66.055 Y6.609 E0.35768
G1 X65.424 Y6.609 E0.02669
G1 X71.406 Y12.591 E0.35768
G1 X70.775 Y12.591 E0.02669
G1 X64.793 Y6.609 E0.35768
G1 X64.162 Y6.609 E0.02669
G1 X70.144 Y12.591 E0.35768
G1 X69.513 Y12.591 E0.02669
G1 X63.53 Y6.609 E0.35768
G1 X62.899 Y6.609 E0.02669
G1 X68.881 Y12.591 E0.35768
G1 X68.25 Y12.591 E0.02669
G1 X62.268 Y6.609 E0.35768
G1 X61.637 Y6.609 E0.02669
G1 X67.619 Y12.591 E0.35768
G1 X66.988 Y12.591 E0.02669
G1 X61.005 Y6.609 E0.35768
G1 X60.374 Y6.609 E0.02669
G1 X66.356 Y12.591 E0.35768
G1 X65.725 Y12.591 E0.02669
G1 X59.743 Y6.609 E0.35768
G1 X59.112 Y6.609 E0.02669
G1 X63.744 Y11.241 E0.27696
G1 X63.113 Y11.241 E0.02669
G1 X58.48 Y6.609 E0.27696
G1 X57.849 Y6.609 E0.02669
G1 X62.481 Y11.241 E0.27696
G1 X61.85 Y11.241 E0.02669
G1 X57.218 Y6.609 E0.27696
G1 X56.587 Y6.609 E0.02669
G1 X61.219 Y11.241 E0.27696
G1 X60.588 Y11.241 E0.02669
G1 X55.955 Y6.609 E0.27696
G1 X55.324 Y6.609 E0.02669
G1 X59.957 Y11.241 E0.27696
G1 X59.325 Y11.241 E0.02669
G1 X54.693 Y6.609 E0.27696
G1 X54.062 Y6.609 E0.02669
G1 X58.896 Y11.443 E0.28903
G1 X58.58 Y11.759 E0.01887
G1 X53.431 Y6.609 E0.3079
G1 X52.799 Y6.609 E0.02669
G1 X58.265 Y12.074 E0.32677
G1 X57.949 Y12.39 E0.01887
G1 X52.168 Y6.609 E0.34564
G1 X51.537 Y6.609 E0.02669
G1 X57.519 Y12.591 E0.35767
G1 X56.888 Y12.591 E0.02669
G1 X50.906 Y6.609 E0.35767
G1 X50.274 Y6.609 E0.02669
G1 X56.257 Y12.591 E0.35767
G1 X55.625 Y12.591 E0.02669
G1 X49.643 Y6.609 E0.35767
G1 X49.012 Y6.609 E0.02669
G1 X54.994 Y12.591 E0.35767
G1 X54.363 Y12.591 E0.02669
G1 X48.381 Y6.609 E0.35767
M73 P3 R37
G1 X47.749 Y6.609 E0.02669
G1 X53.732 Y12.591 E0.35767
G1 X53.101 Y12.591 E0.02669
G1 X47.118 Y6.609 E0.35767
G1 X46.487 Y6.609 E0.02669
G1 X52.469 Y12.591 E0.35767
G1 X51.838 Y12.591 E0.02669
G1 X45.856 Y6.609 E0.35767
G1 X45.225 Y6.609 E0.02669
G1 X51.207 Y12.591 E0.35767
G1 X50.576 Y12.591 E0.02669
G1 X44.593 Y6.609 E0.35767
G1 X43.962 Y6.609 E0.02669
G1 X49.944 Y12.591 E0.35767
G1 X49.313 Y12.591 E0.02669
G1 X43.331 Y6.609 E0.35767
G1 X42.7 Y6.609 E0.02669
G1 X48.682 Y12.591 E0.35767
G1 X48.051 Y12.591 E0.02669
G1 X42.068 Y6.609 E0.35767
G1 X41.437 Y6.609 E0.02669
G1 X47.419 Y12.591 E0.35767
G1 X46.788 Y12.591 E0.02669
G1 X40.806 Y6.609 E0.35767
G1 X40.175 Y6.609 E0.02669
G1 X46.157 Y12.591 E0.35767
G1 X45.526 Y12.591 E0.02669
G1 X39.543 Y6.609 E0.35767
G1 X38.912 Y6.609 E0.02669
G1 X44.894 Y12.591 E0.35767
G1 X44.263 Y12.591 E0.02669
G1 X38.281 Y6.609 E0.35767
G1 X37.65 Y6.609 E0.02669
G1 X43.632 Y12.591 E0.35767
G1 X43.001 Y12.591 E0.02669
G1 X37.019 Y6.609 E0.35767
G1 X36.387 Y6.609 E0.02669
G1 X42.37 Y12.591 E0.35767
G1 X41.738 Y12.591 E0.02669
G1 X35.756 Y6.609 E0.35767
G1 X35.125 Y6.609 E0.02669
G1 X41.107 Y12.591 E0.35767
G1 X40.476 Y12.591 E0.02669
G1 X35.486 Y7.601 E0.29836
G1 X36.96 Y9.707 E0.10867
G1 X39.845 Y12.591 E0.17247
G1 X39.213 Y12.591 E0.02669
G1 X37.344 Y10.721 E0.1118
G1 X37.142 Y11.109 E0.01847
G1 X37.1 Y11.109 E0.00177
G1 X38.582 Y12.591 E0.08863
G1 X37.951 Y12.591 E0.02669
G1 X36.469 Y11.109 E0.08863
G1 X35.837 Y11.109 E0.02669
G1 X37.32 Y12.591 E0.08863
G1 X36.688 Y12.591 E0.02669
G1 X35.206 Y11.109 E0.08863
G1 X34.575 Y11.109 E0.02669
G1 X36.057 Y12.591 E0.08863
G1 X35.426 Y12.591 E0.02669
G1 X33.944 Y11.109 E0.08863
G1 X33.312 Y11.109 E0.02669
G1 X34.795 Y12.591 E0.08863
G1 X34.164 Y12.591 E0.02669
G1 X32.681 Y11.109 E0.08863
G1 X32.05 Y11.109 E0.02669
G1 X33.532 Y12.591 E0.08863
G1 X32.901 Y12.591 E0.02669
G1 X31.227 Y10.917 E0.1001
G1 E-2 F1800
G1 Z0.55 F27000
G1 X32.942 Y6.951
G1 Z0.25
G1 E2 F1800
G1 F3600
G1 X32.6 Y6.609 E0.02044
G1 X31.969 Y6.609 E0.02669
G1 X32.544 Y7.184 E0.0344
G1 X32.284 Y7.556 E0.01916
G1 X31.337 Y6.609 E0.0566
G1 X30.706 Y6.609 E0.02669
G1 X32.024 Y7.927 E0.0788
G1 X31.764 Y8.298 E0.01916
G1 X30.075 Y6.609 E0.101
G1 X29.444 Y6.609 E0.02669
G1 X31.504 Y8.669 E0.12319
G1 X31.244 Y9.041 E0.01916
G1 X28.812 Y6.609 E0.14539
G1 X28.181 Y6.609 E0.02669
G1 X30.984 Y9.412 E0.16759
G1 X30.724 Y9.783 E0.01916
G1 X27.55 Y6.609 E0.18979
G1 X26.919 Y6.609 E0.02669
G1 X30.602 Y10.292 E0.22023
G1 E-2 F1800
G1 Z0.55 F27000
G1 X32.462 Y12.783
G1 Z0.25
G1 E2 F1800
G1 F3600
G1 X26.288 Y6.609 E0.36915
G1 X25.656 Y6.609 E0.02669
G1 X31.639 Y12.591 E0.35767
G1 X31.007 Y12.591 E0.02669
G1 X25.025 Y6.609 E0.35767
G1 X24.394 Y6.609 E0.02669
G1 X30.376 Y12.591 E0.35767
G1 X29.745 Y12.591 E0.02669
G1 X23.763 Y6.609 E0.35767
G1 X23.131 Y6.609 E0.02669
G1 X29.114 Y12.591 E0.35767
G1 X28.482 Y12.591 E0.02669
G1 X22.5 Y6.609 E0.35767
G1 X21.869 Y6.609 E0.02669
G1 X27.851 Y12.591 E0.35767
G1 X27.22 Y12.591 E0.02669
G1 X21.238 Y6.609 E0.35767
G1 X20.606 Y6.609 E0.02669
G1 X26.589 Y12.591 E0.35767
