;FLAVOR:Marlin
;TIME:4545
;Filament used: 2.88226m
;Layer height: 0.15
;MINX:84.569
;MINY:84.569
;MINZ:0.3
;MAXX:135.431
;MAXY:135.431
;MAXZ:63.75
;Generated with Cura_SteamEngine 4.10.0
M140 S70
M105
M190 S70
M104 S225
M105
M109 S225
M82 ;absolute extrusion mode
G28 ;Home
G1 Z15.0 F2000 ;Move the platform
G92 E0
G92 E0
G1 F2400 E-9
;LAYER_COUNT:427
;LAYER:0
M106 S25.5
M204 S1000
G0 F7500 X91.146 Y92.925 Z0.3
;TYPE:SKIRT
G1 F2400 E0.41575
G1 F1500 X92.925 Y91.146 E0.55006
G1 X93.766 Y90.417 E0.60947
G1 X95.782 Y88.908 E0.7439
G1 X96.719 Y88.306 E0.80335
G1 X98.932 Y87.098 E0.93794
G1 X99.942 Y86.636 E0.99723
G1 X102.298 Y85.757 E1.13147
G1 X103.367 Y85.443 E1.19094
G1 X105.831 Y84.907 E1.32555
G1 X106.931 Y84.749 E1.38488
G1 X109.442 Y84.569 E1.51927
G1 X110.558 Y84.569 E1.57884
G1 X113.069 Y84.749 E1.71323
G1 X114.169 Y84.907 E1.77255
G1 X116.633 Y85.443 E1.90716
G1 X117.702 Y85.757 E1.96664
G1 X120.058 Y86.636 E2.10088
G1 X121.068 Y87.098 E2.16017
G1 X123.281 Y88.306 E2.29476
G1 X124.218 Y88.908 E2.35421
G1 X126.234 Y90.417 E2.48864
G1 X127.075 Y91.146 E2.54805
G1 X128.854 Y92.925 E2.68235
G1 X129.583 Y93.766 E2.74177
G1 X131.092 Y95.782 E2.8762
G1 X131.694 Y96.719 E2.93565
G1 X132.902 Y98.932 E3.07024
G1 X133.364 Y99.942 E3.12953
G1 X134.243 Y102.298 E3.26377
G1 X134.557 Y103.367 E3.32324
G1 X135.093 Y105.831 E3.45785
G1 X135.251 Y106.931 E3.51718
G1 X135.431 Y109.441 E3.65151
G1 X135.431 Y110.556 E3.71103
G1 X135.251 Y113.068 E3.84547
G1 X135.093 Y114.168 E3.9048
G1 X134.558 Y116.629 E4.03924
G1 X134.244 Y117.698 E4.09872
G1 X133.364 Y120.057 E4.23312
G1 X132.902 Y121.068 E4.29246
G1 X131.694 Y123.281 E4.42705
G1 X131.092 Y124.218 E4.4865
G1 X129.583 Y126.234 E4.62093
G1 X128.854 Y127.075 E4.68035
G1 X127.075 Y128.854 E4.81465
G1 X126.234 Y129.583 E4.87406
G1 X124.218 Y131.092 E5.00849
G1 X123.28 Y131.695 E5.06802
G1 X121.066 Y132.903 E5.20265
G1 X120.058 Y133.364 E5.26182
G1 X117.703 Y134.243 E5.39601
G1 X116.633 Y134.557 E5.45554
G1 X114.169 Y135.093 E5.59015
G1 X113.069 Y135.251 E5.64947
G1 X110.558 Y135.431 E5.78386
G1 X109.442 Y135.431 E5.84344
G1 X106.931 Y135.251 E5.97782
G1 X105.831 Y135.093 E6.03715
G1 X103.367 Y134.557 E6.17176
G1 X102.297 Y134.243 E6.23129
G1 X99.942 Y133.364 E6.36547
G1 X98.934 Y132.903 E6.42464
G1 X96.72 Y131.695 E6.55928
G1 X95.782 Y131.092 E6.61881
G1 X93.766 Y129.583 E6.75324
G1 X92.925 Y128.854 E6.81265
G1 X91.146 Y127.075 E6.94695
G1 X90.417 Y126.234 E7.00637
G1 X88.908 Y124.218 E7.14079
G1 X88.306 Y123.281 E7.20025
G1 X87.098 Y121.068 E7.33484
G1 X86.636 Y120.057 E7.39418
G1 X85.756 Y117.698 E7.52858
G1 X85.442 Y116.629 E7.58806
G1 X84.907 Y114.168 E7.7225
G1 X84.749 Y113.069 E7.78177
G1 X84.569 Y110.559 E7.91611
G1 X84.569 Y109.444 E7.97563
G1 X84.749 Y106.932 E8.11007
G1 X84.907 Y105.832 E8.16939
G1 X85.442 Y103.371 E8.30383
G1 X85.756 Y102.302 E8.36331
G1 X86.636 Y99.943 E8.49772
G1 X87.098 Y98.932 E8.55706
G1 X88.306 Y96.719 E8.69165
G1 X88.908 Y95.782 E8.7511
G1 X90.417 Y93.766 E8.88553
G1 X91.146 Y92.925 E8.94494
G0 F7500 X91.428 Y93.207
G1 F1500 X93.207 Y91.428 E9.07924
G1 X94.006 Y90.737 E9.13564
G1 X96.022 Y89.228 E9.27006
G1 X96.91 Y88.657 E9.32642
G1 X99.123 Y87.449 E9.46101
G1 X100.082 Y87.011 E9.51729
G1 X102.438 Y86.132 E9.65153
G1 X103.452 Y85.834 E9.70795
G1 X105.916 Y85.298 E9.84256
G1 X106.96 Y85.148 E9.89886
G1 X109.471 Y84.968 E10.03325
G1 X110.529 Y84.968 E10.08973
G1 X113.04 Y85.148 E10.22412
G1 X114.084 Y85.298 E10.28042
G1 X116.548 Y85.834 E10.41503
G1 X117.562 Y86.132 E10.47145
G1 X119.918 Y87.011 E10.60569
G1 X120.877 Y87.449 E10.66197
G1 X123.09 Y88.657 E10.79656
G1 X123.978 Y89.228 E10.85292
G1 X125.994 Y90.737 E10.98734
G1 X126.793 Y91.428 E11.04373
G1 X128.572 Y93.207 E11.17804
G1 X129.263 Y94.006 E11.23443
G1 X130.772 Y96.022 E11.36886
G1 X131.343 Y96.91 E11.42522
G1 X132.551 Y99.123 E11.55981
G1 X132.989 Y100.082 E11.61609
G1 X133.868 Y102.438 E11.75032
G1 X134.166 Y103.452 E11.80674
G1 X134.702 Y105.916 E11.94135
G1 X134.852 Y106.96 E11.99766
G1 X135.032 Y109.47 E12.13199
G1 X135.032 Y110.528 E12.18847
G1 X134.852 Y113.04 E12.32291
G1 X134.702 Y114.083 E12.37916
G1 X134.167 Y116.544 E12.5136
G1 X133.869 Y117.558 E12.57002
G1 X132.989 Y119.917 E12.70443
G1 X132.551 Y120.877 E12.76076
G1 X131.343 Y123.09 E12.89535
G1 X130.772 Y123.978 E12.95171
G1 X129.263 Y125.994 E13.08613
G1 X128.572 Y126.793 E13.14252
G1 X126.793 Y128.572 E13.27683
G1 X125.994 Y129.263 E13.33322
G1 X123.978 Y130.772 E13.46765
G1 X123.088 Y131.344 E13.52412
G1 X120.874 Y132.552 E13.65876
G1 X119.918 Y132.989 E13.71487
G1 X117.563 Y133.868 E13.84906
G1 X116.548 Y134.166 E13.90553
G1 X114.084 Y134.702 E14.04014
G1 X113.04 Y134.852 E14.09645
G1 X110.529 Y135.032 E14.23083
G1 X109.471 Y135.032 E14.28731
G1 X106.96 Y134.852 E14.4217
G1 X105.916 Y134.702 E14.478
G1 X103.452 Y134.166 E14.61261
G1 X102.437 Y133.868 E14.66908
G1 X100.082 Y132.989 E14.80327
G1 X99.126 Y132.552 E14.85938
G1 X96.912 Y131.344 E14.99402
G1 X96.022 Y130.772 E15.0505
G1 X94.006 Y129.263 E15.18493
G1 X93.207 Y128.572 E15.24132
G1 X91.428 Y126.793 E15.37562
G1 X90.737 Y125.994 E15.43201
G1 X89.228 Y123.978 E15.56644
G1 X88.657 Y123.09 E15.6228
G1 X87.449 Y120.877 E15.75739
G1 X87.011 Y119.917 E15.81372
G1 X86.131 Y117.558 E15.94812
G1 X85.833 Y116.544 E16.00454
G1 X85.298 Y114.083 E16.13898
G1 X85.148 Y113.04 E16.19524
G1 X84.968 Y110.53 E16.32957
G1 X84.968 Y109.472 E16.38605
G1 X85.148 Y106.96 E16.52049
G1 X85.298 Y105.917 E16.57674
G1 X85.833 Y103.456 E16.71118
G1 X86.131 Y102.442 E16.7676
G1 X87.011 Y100.083 E16.90201
G1 X87.449 Y99.123 E16.95834
G1 X88.657 Y96.91 E17.09293
G1 X89.228 Y96.022 E17.14929
G1 X90.737 Y94.006 E17.28371
G1 X91.428 Y93.207 E17.3401
G0 F7500 X91.711 Y93.49
G1 F1500 X93.49 Y91.711 E17.47441
G1 X94.245 Y91.057 E17.52773
G1 X96.261 Y89.548 E17.66216
G1 X97.102 Y89.008 E17.71551
G1 X99.315 Y87.8 E17.8501
G1 X100.222 Y87.386 E17.90332
G1 X102.578 Y86.507 E18.03756
G1 X103.537 Y86.225 E18.09092
G1 X106.001 Y85.689 E18.22553
G1 X106.988 Y85.547 E18.27876
G1 X109.499 Y85.367 E18.41315
G1 X110.501 Y85.367 E18.46664
G1 X113.012 Y85.547 E18.60103
G1 X113.999 Y85.689 E18.65426
G1 X116.463 Y86.225 E18.78887
G1 X117.422 Y86.507 E18.84223
G1 X119.778 Y87.386 E18.97647
G1 X120.685 Y87.8 E19.02969
G1 X122.898 Y89.008 E19.16428
G1 X123.739 Y89.548 E19.21764
G1 X125.755 Y91.057 E19.35206
G1 X126.51 Y91.711 E19.40539
G1 X128.289 Y93.49 E19.53969
G1 X128.943 Y94.245 E19.59301
G1 X130.452 Y96.261 E19.72744
G1 X130.992 Y97.102 E19.78079
G1 X132.2 Y99.315 E19.91538
G1 X132.614 Y100.222 E19.96861
G1 X133.493 Y102.578 E20.10284
G1 X133.775 Y103.537 E20.1562
G1 X134.311 Y106.001 E20.29081
G1 X134.453 Y106.988 E20.34405
G1 X134.633 Y109.498 E20.47838
G1 X134.633 Y110.499 E20.53182
G1 X134.453 Y113.011 E20.66626
G1 X134.311 Y113.998 E20.71949
G1 X133.776 Y116.459 E20.85393
G1 X133.495 Y117.419 E20.90733
G1 X132.615 Y119.778 E21.04173
G1 X132.2 Y120.685 E21.09498
G1 X130.992 Y122.898 E21.22957
G1 X130.452 Y123.739 E21.28292
G1 X128.943 Y125.755 E21.41735
G1 X128.289 Y126.51 E21.47067
G1 X126.51 Y128.289 E21.60498
G1 X125.755 Y128.943 E21.6583
G1 X123.739 Y130.452 E21.79273
G1 X122.897 Y130.993 E21.84615
G1 X120.683 Y132.201 E21.98079
G1 X119.778 Y132.614 E22.03389
G1 X117.423 Y133.493 E22.16808
G1 X116.463 Y133.775 E22.22149
G1 X113.999 Y134.311 E22.3561
G1 X113.012 Y134.453 E22.40934
G1 X110.501 Y134.633 E22.54372
G1 X109.499 Y134.633 E22.59721
G1 X106.988 Y134.453 E22.7316
G1 X106.001 Y134.311 E22.78483
G1 X103.537 Y133.775 E22.91944
G1 X102.577 Y133.493 E22.97285
G1 X100.222 Y132.614 E23.10704
G1 X99.317 Y132.201 E23.16015
G1 X97.103 Y130.993 E23.29478
G1 X96.261 Y130.452 E23.34821
G1 X94.245 Y128.943 E23.48264
G1 X93.49 Y128.289 E23.53596
G1 X91.711 Y126.51 E23.67026
G1 X91.057 Y125.755 E23.72359
G1 X89.548 Y123.739 E23.85801
G1 X89.008 Y122.898 E23.91137
G1 X87.8 Y120.685 E24.04596
G1 X87.385 Y119.778 E24.0992
G1 X86.505 Y117.419 E24.23361
G1 X86.224 Y116.459 E24.28701
G1 X85.689 Y113.998 E24.42145
G1 X85.547 Y113.012 E24.47463
G1 X85.367 Y110.502 E24.60896
G1 X85.367 Y109.501 E24.6624
G1 X85.547 Y106.989 E24.79684
G1 X85.689 Y106.002 E24.85007
G1 X86.224 Y103.541 E24.98451
G1 X86.505 Y102.581 E25.03791
G1 X87.385 Y100.222 E25.17231
G1 X87.8 Y99.315 E25.22556
G1 X89.008 Y97.102 E25.36015
G1 X89.548 Y96.261 E25.4135
G1 X91.057 Y94.245 E25.54793
G1 X91.711 Y93.49 E25.60125
G0 F7500 X91.994 Y93.773
G1 F1500 X93.773 Y91.994 E25.73556
G1 X94.485 Y91.377 E25.78585
G1 X96.501 Y89.868 E25.92028
G1 X97.294 Y89.359 E25.97058
G1 X99.507 Y88.151 E26.10517
G1 X100.362 Y87.76 E26.15536
G1 X102.718 Y86.881 E26.2896
G1 X103.622 Y86.616 E26.33989
G1 X106.086 Y86.08 E26.4745
G1 X107.017 Y85.946 E26.52471
G1 X109.528 Y85.766 E26.65909
G1 X110.472 Y85.766 E26.70949
G1 X112.983 Y85.946 E26.84388
G1 X113.914 Y86.08 E26.89409
G1 X116.378 Y86.616 E27.0287
G1 X117.282 Y86.881 E27.07899
G1 X119.638 Y87.76 E27.21322
G1 X120.493 Y88.151 E27.26341
G1 X122.706 Y89.359 E27.398
G1 X123.499 Y89.868 E27.4483
G1 X125.515 Y91.377 E27.58273
G1 X126.227 Y91.994 E27.63303
G1 X128.006 Y93.773 E27.76733
G1 X128.623 Y94.485 E27.81762
G1 X130.132 Y96.501 E27.95205
G1 X130.641 Y97.294 E28.00235
G1 X131.849 Y99.507 E28.13694
G1 X132.24 Y100.362 E28.18713
G1 X133.119 Y102.718 E28.32137
G1 X133.384 Y103.622 E28.37166
G1 X133.92 Y106.086 E28.50627
G1 X134.054 Y107.017 E28.55648
G1 X134.234 Y109.527 E28.69081
G1 X134.234 Y110.471 E28.74121
G1 X134.054 Y112.983 E28.87565
G1 X133.92 Y113.913 E28.92581
G1 X133.385 Y116.374 E29.06025
G1 X133.12 Y117.279 E29.11059
G1 X132.24 Y119.638 E29.245
G1 X131.849 Y120.493 E29.29518
G1 X130.641 Y122.706 E29.42977
G1 X130.132 Y123.499 E29.48008
G1 X128.623 Y125.515 E29.6145
G1 X128.006 Y126.227 E29.6648
G1 X126.227 Y128.006 E29.7991
G1 X125.515 Y128.623 E29.8494
G1 X123.499 Y130.132 E29.98382
G1 X122.705 Y130.642 E30.0342
G1 X120.491 Y131.85 E30.16884
G1 X119.638 Y132.239 E30.21888
G1 X117.283 Y133.118 E30.35307
G1 X116.378 Y133.384 E30.40343
G1 X113.914 Y133.92 E30.53804
G1 X112.983 Y134.054 E30.58825
G1 X110.472 Y134.234 E30.72264
G1 X109.528 Y134.234 E30.77303
G1 X107.017 Y134.054 E30.90742
G1 X106.086 Y133.92 E30.95763
G1 X103.622 Y133.384 E31.09224
G1 X102.717 Y133.118 E31.14259
G1 X100.362 Y132.239 E31.27678
G1 X99.509 Y131.85 E31.32683
G1 X97.295 Y130.642 E31.46146
G1 X96.501 Y130.132 E31.51184
G1 X94.485 Y128.623 E31.64627
G1 X93.773 Y128.006 E31.69656
G1 X91.994 Y126.227 E31.83087
G1 X91.377 Y125.515 E31.88116
G1 X89.868 Y123.499 E32.01559
G1 X89.359 Y122.706 E32.06589
G1 X88.151 Y120.493 E32.20048
G1 X87.76 Y119.638 E32.25067
G1 X86.88 Y117.279 E32.38507
G1 X86.615 Y116.374 E32.43541
G1 X86.08 Y113.913 E32.56986
G1 X85.946 Y112.983 E32.62002
G1 X85.766 Y110.473 E32.75435
G1 X85.766 Y109.529 E32.80474
G1 X85.946 Y107.017 E32.93918
G1 X86.08 Y106.087 E32.98934
G1 X86.615 Y103.626 E33.12378
G1 X86.88 Y102.721 E33.17412
G1 X87.76 Y100.362 E33.30853
G1 X88.151 Y99.507 E33.35872
G1 X89.359 Y97.294 E33.49331
G1 X89.868 Y96.501 E33.54361
G1 X91.377 Y94.485 E33.67804
G1 X91.994 Y93.773 E33.72833
G0 F7500 X92.277 Y94.056
G1 F1500 X94.056 Y92.277 E33.86264
G1 X94.725 Y91.697 E33.9099
G1 X96.741 Y90.188 E34.04433
G1 X97.485 Y89.71 E34.09154
G1 X99.698 Y88.502 E34.22613
G1 X100.502 Y88.135 E34.27331
G1 X102.858 Y87.256 E34.40755
G1 X103.707 Y87.007 E34.45478
G1 X106.171 Y86.471 E34.58939
G1 X107.046 Y86.345 E34.63658
G1 X109.557 Y86.165 E34.77097
G1 X110.443 Y86.165 E34.81826
G1 X112.954 Y86.345 E34.95265
G1 X113.829 Y86.471 E34.99984
G1 X116.293 Y87.007 E35.13445
G1 X117.142 Y87.256 E35.18168
G1 X119.498 Y88.135 E35.31592
G1 X120.302 Y88.502 E35.3631
G1 X122.515 Y89.71 E35.49769
G1 X123.259 Y90.188 E35.5449
G1 X125.275 Y91.697 E35.67932
G1 X125.944 Y92.277 E35.72659
G1 X127.723 Y94.056 E35.86089
G1 X128.303 Y94.725 E35.90816
G1 X129.812 Y96.741 E36.04259
G1 X130.29 Y97.485 E36.0898
G1 X131.498 Y99.698 E36.22439
G1 X131.865 Y100.502 E36.27157
G1 X132.744 Y102.858 E36.4058
G1 X132.993 Y103.707 E36.45303
G1 X133.529 Y106.171 E36.58764
G1 X133.655 Y107.046 E36.63484
G1 X133.835 Y109.556 E36.76917
G1 X133.835 Y110.442 E36.81647
G1 X133.655 Y112.954 E36.95091
G1 X133.529 Y113.828 E36.99805
G1 X132.994 Y116.289 E37.13249
G1 X132.745 Y117.139 E37.17977
G1 X131.865 Y119.498 E37.31418
G1 X131.498 Y120.302 E37.36136
G1 X130.29 Y122.515 E37.49595
G1 X129.812 Y123.259 E37.54315
G1 X128.303 Y125.275 E37.67758
G1 X127.723 Y125.944 E37.72485
G1 X125.944 Y127.723 E37.85915
G1 X125.275 Y128.303 E37.90642
G1 X123.259 Y129.812 E38.04085
G1 X122.514 Y130.291 E38.08813
G1 X120.3 Y131.499 E38.22276
G1 X119.498 Y131.865 E38.26982
G1 X117.143 Y132.744 E38.40401
G1 X116.293 Y132.993 E38.45129
G1 X113.829 Y133.529 E38.5859
G1 X112.954 Y133.655 E38.63309
G1 X110.443 Y133.835 E38.76748
G1 X109.557 Y133.835 E38.81478
G1 X107.046 Y133.655 E38.94917
G1 X106.171 Y133.529 E38.99636
G1 X103.707 Y132.993 E39.13097
G1 X102.857 Y132.744 E39.17825
G1 X100.502 Y131.865 E39.31244
G1 X99.7 Y131.499 E39.3595
G1 X97.486 Y130.291 E39.49414
G1 X96.741 Y129.812 E39.54142
G1 X94.725 Y128.303 E39.67584
G1 X94.056 Y127.723 E39.72311
G1 X92.277 Y125.944 E39.85741
G1 X91.697 Y125.275 E39.90468
G1 X90.188 Y123.259 E40.03911
G1 X89.71 Y122.515 E40.08632
G1 X88.502 Y120.302 E40.22091
G1 X88.135 Y119.498 E40.26808
G1 X87.255 Y117.139 E40.40249
G1 X87.006 Y116.289 E40.44977
G1 X86.471 Y113.828 E40.58422
G1 X86.345 Y112.954 E40.63135
G1 X86.165 Y110.444 E40.76569
G1 X86.165 Y109.558 E40.81299
G1 X86.345 Y107.046 E40.94743
G1 X86.471 Y106.172 E40.99456
G1 X87.006 Y103.711 E41.12901
G1 X87.255 Y102.861 E41.17629
G1 X88.135 Y100.502 E41.3107
G1 X88.502 Y99.698 E41.35788
G1 X89.71 Y97.485 E41.49247
G1 X90.188 Y96.741 E41.53967
G1 X91.697 Y94.725 E41.6741
G1 X92.277 Y94.056 E41.72137
G0 F7500 X92.56 Y94.339
G1 F1500 X94.339 Y92.56 E41.85567
G1 X94.964 Y92.018 E41.89983
G1 X96.98 Y90.509 E42.03426
G1 X97.677 Y90.061 E42.07849
G1 X99.89 Y88.853 E42.21308
G1 X100.642 Y88.51 E42.2572
G1 X102.998 Y87.631 E42.39144
G1 X103.792 Y87.398 E42.43561
G1 X106.256 Y86.862 E42.57022
G1 X107.074 Y86.744 E42.61434
G1 X109.585 Y86.564 E42.74873
G1 X110.415 Y86.564 E42.79304
G1 X112.926 Y86.744 E42.92743
G1 X113.744 Y86.862 E42.97154
G1 X116.208 Y87.398 E43.10616
G1 X117.002 Y87.631 E43.15033
G1 X119.358 Y88.51 E43.28457
G1 X120.11 Y88.853 E43.32869
G1 X122.323 Y90.061 E43.46328
G1 X123.02 Y90.509 E43.50751
G1 X125.036 Y92.018 E43.64194
G1 X125.661 Y92.56 E43.6861
G1 X127.44 Y94.339 E43.8204
G1 X127.982 Y94.964 E43.86457
G1 X129.491 Y96.98 E43.99899
G1 X129.939 Y97.677 E44.04322
G1 X131.147 Y99.89 E44.17781
G1 X131.49 Y100.642 E44.22194
G1 X132.369 Y102.998 E44.35617
G1 X132.602 Y103.792 E44.40035
G1 X133.138 Y106.256 E44.53496
G1 X133.256 Y107.074 E44.57908
G1 X133.436 Y109.584 E44.71341
G1 X133.436 Y110.414 E44.75772
G1 X133.256 Y112.926 E44.89216
G1 X133.139 Y113.743 E44.93622
G1 X132.604 Y116.204 E45.07066
G1 X132.37 Y116.999 E45.1149
G1 X131.49 Y119.358 E45.24931
G1 X131.147 Y120.11 E45.29343
G1 X129.939 Y122.323 E45.42802
G1 X129.491 Y123.02 E45.47225
G1 X127.982 Y125.036 E45.60668
G1 X127.44 Y125.661 E45.65084
G1 X125.661 Y127.44 E45.78514
G1 X125.036 Y127.982 E45.8293
G1 X123.02 Y129.491 E45.96373
G1 X122.322 Y129.939 E46.00801
G1 X120.108 Y131.147 E46.14265
G1 X119.358 Y131.49 E46.18667
G1 X117.003 Y132.369 E46.32086
G1 X116.208 Y132.602 E46.36508
G1 X113.744 Y133.138 E46.49969
G1 X112.926 Y133.256 E46.54381
G1 X110.415 Y133.436 E46.6782
G1 X109.585 Y133.436 E46.72251
G1 X107.074 Y133.256 E46.85689
G1 X106.256 Y133.138 E46.90101
G1 X103.792 Y132.602 E47.03562
G1 X102.997 Y132.369 E47.07985
G1 X100.642 Y131.49 E47.21404
G1 X99.892 Y131.147 E47.25806
G1 X97.678 Y129.939 E47.3927
G1 X96.98 Y129.491 E47.43697
G1 X94.964 Y127.982 E47.5714
G1 X94.339 Y127.44 E47.61556
G1 X92.56 Y125.661 E47.74987
G1 X92.018 Y125.036 E47.79403
G1 X90.509 Y123.02 E47.92846
G1 X90.061 Y122.323 E47.97269
G1 X88.853 Y120.11 E48.10728
G1 X88.51 Y119.358 E48.1514
G1 X87.63 Y116.999 E48.28581
G1 X87.396 Y116.204 E48.33005
G1 X86.861 Y113.743 E48.46449
G1 X86.744 Y112.926 E48.50855
