;FLAVOR:Marlin
;TIME:3778
;Filament used: 1.98471m
;Layer height: 0.15
;MINX:91.201
;MINY:91.238
;MINZ:0.3
;MAXX:128.799
;MAXY:128.762
;MAXZ:73.2
;Generated with Cura_SteamEngine 4.10.0
M140 S75
M105
M190 S75
M104 S230
M105
M109 S230
M82 ;absolute extrusion mode
G28 ;Home
G1 Z15.0 F2000 ;Move the platform
G92 E0
G92 E0
G1 F1680 E-6
;LAYER_COUNT:493
;LAYER:0
M106 S25.5
M204 S1000
G0 F7500 X96.811 Y96.624 Z0.3
;TYPE:SKIRT
G1 F1680 E0
G1 F1500 X97.375 Y96.071 E0.04138
G1 X97.762 Y95.75 E0.06772
G1 X99.194 Y94.636 E0.16276
G1 X99.841 Y94.183 E0.20413
G1 X100.27 Y93.932 E0.23017
G1 X101.87 Y93.066 E0.32547
G1 X102.583 Y92.726 E0.36685
G1 X103.053 Y92.548 E0.39318
G1 X104.768 Y91.96 E0.48815
G1 X105.527 Y91.742 E0.52952
G1 X106.012 Y91.645 E0.55543
G1 X107.807 Y91.345 E0.65077
G1 X108.592 Y91.254 E0.69216
G1 X109.093 Y91.238 E0.71842
G1 X110.907 Y91.238 E0.81345
G1 X111.696 Y91.278 E0.85483
G1 X112.193 Y91.345 E0.8811
G1 X113.988 Y91.645 E0.97644
G1 X114.759 Y91.814 E1.01779
G1 X115.232 Y91.96 E1.04372
G1 X116.947 Y92.548 E1.13869
G1 X117.68 Y92.841 E1.18004
G1 X118.13 Y93.066 E1.2064
G1 X119.73 Y93.932 E1.3017
G1 X120.404 Y94.343 E1.34306
G1 X120.806 Y94.636 E1.36912
G1 X122.238 Y95.75 E1.46416
G1 X122.836 Y96.265 E1.5055
G1 X123.189 Y96.624 E1.53187
G1 X124.422 Y97.964 E1.62726
G1 X124.926 Y98.572 E1.66863
G1 X125.212 Y98.98 E1.69473
G1 X126.205 Y100.5 E1.78984
G1 X126.603 Y101.182 E1.83121
G1 X126.817 Y101.63 E1.85722
G1 X127.546 Y103.29 E1.95219
G1 X127.826 Y104.028 E1.99354
G1 X127.966 Y104.512 E2.01993
G1 X128.412 Y106.274 E2.11515
G1 X128.566 Y107.048 E2.15649
G1 X128.623 Y107.544 E2.18264
G1 X128.773 Y109.354 E2.27778
G1 X128.799 Y110.143 E2.31914
G1 X128.773 Y110.641 E2.34526
G1 X128.623 Y112.455 E2.44061
G1 X128.519 Y113.237 E2.48194
G1 X128.412 Y113.725 E2.50811
G1 X127.967 Y115.484 E2.60315
G1 X127.735 Y116.239 E2.64453
G1 X127.547 Y116.706 E2.6709
G1 X126.817 Y118.369 E2.76604
G1 X126.464 Y119.075 E2.80739
G1 X126.205 Y119.5 E2.83346
G1 X125.212 Y121.02 E2.92857
G1 X124.747 Y121.658 E2.96993
G1 X124.422 Y122.036 E2.99604
G1 X123.189 Y123.376 E3.09143
G1 X122.625 Y123.929 E3.13281
G1 X122.238 Y124.25 E3.15915
G1 X120.806 Y125.364 E3.25419
G1 X120.159 Y125.817 E3.29557
G1 X119.73 Y126.068 E3.3216
G1 X118.13 Y126.934 E3.41691
G1 X117.417 Y127.274 E3.45829
G1 X116.947 Y127.452 E3.48461
G1 X115.232 Y128.04 E3.57959
G1 X114.473 Y128.258 E3.62095
G1 X113.988 Y128.355 E3.64686
G1 X112.193 Y128.655 E3.7422
G1 X111.408 Y128.746 E3.7836
G1 X110.907 Y128.762 E3.80985
G1 X109.093 Y128.762 E3.90488
G1 X108.304 Y128.722 E3.94627
G1 X107.807 Y128.655 E3.97254
G1 X106.012 Y128.355 E4.06787
G1 X105.241 Y128.186 E4.10922
G1 X104.768 Y128.04 E4.13515
G1 X103.053 Y127.452 E4.23012
G1 X102.32 Y127.159 E4.27148
G1 X101.87 Y126.934 E4.29783
G1 X100.27 Y126.068 E4.39314
G1 X99.596 Y125.657 E4.43449
G1 X99.194 Y125.364 E4.46055
G1 X97.762 Y124.25 E4.55559
G1 X97.164 Y123.735 E4.59693
G1 X96.811 Y123.376 E4.62331
G1 X95.578 Y122.036 E4.7187
G1 X95.074 Y121.428 E4.76007
G1 X94.788 Y121.02 E4.78617
G1 X93.795 Y119.5 E4.88128
G1 X93.397 Y118.818 E4.92264
G1 X93.183 Y118.369 E4.9487
G1 X92.453 Y116.706 E5.04384
G1 X92.172 Y115.968 E5.0852
G1 X92.033 Y115.484 E5.11158
G1 X91.588 Y113.725 E5.20663
G1 X91.434 Y112.951 E5.24797
G1 X91.377 Y112.456 E5.27407
G1 X91.227 Y110.646 E5.36922
G1 X91.201 Y109.857 E5.41057
G1 X91.227 Y109.359 E5.43669
G1 X91.377 Y107.545 E5.53204
G1 X91.481 Y106.763 E5.57337
G1 X91.588 Y106.275 E5.59954
G1 X92.033 Y104.516 E5.69459
G1 X92.265 Y103.761 E5.73596
G1 X92.453 Y103.294 E5.76233
G1 X93.183 Y101.631 E5.85747
G1 X93.536 Y100.925 E5.89882
G1 X93.795 Y100.5 E5.92489
G1 X94.788 Y98.98 E6.02
G1 X95.253 Y98.342 E6.06136
G1 X95.578 Y97.964 E6.08748
G1 X96.811 Y96.624 E6.18287
G0 F7500 X97.106 Y96.895
G1 F1500 X97.655 Y96.357 E6.22313
G1 X98.007 Y96.065 E6.24709
G1 X99.439 Y94.951 E6.34213
G1 X100.07 Y94.511 E6.38243
G1 X100.461 Y94.284 E6.40611
G1 X102.061 Y93.418 E6.50142
G1 X102.755 Y93.088 E6.54167
G1 X103.183 Y92.926 E6.56565
G1 X104.898 Y92.338 E6.66062
G1 X105.638 Y92.127 E6.70093
G1 X106.078 Y92.039 E6.72443
G1 X107.873 Y91.739 E6.81977
G1 X108.637 Y91.652 E6.86005
G1 X109.093 Y91.638 E6.88395
G1 X110.907 Y91.638 E6.97897
G1 X111.675 Y91.678 E7.01926
G1 X112.127 Y91.739 E7.04315
G1 X113.922 Y92.039 E7.13849
G1 X114.673 Y92.205 E7.17878
G1 X115.102 Y92.338 E7.20231
G1 X116.817 Y92.926 E7.29728
G1 X117.531 Y93.213 E7.33759
G1 X117.939 Y93.418 E7.36151
G1 X119.539 Y94.284 E7.45682
G1 X120.196 Y94.685 E7.49714
G1 X120.561 Y94.951 E7.5208
G1 X121.993 Y96.065 E7.61584
G1 X122.574 Y96.568 E7.65609
G1 X122.894 Y96.895 E7.68006
G1 X124.127 Y98.235 E7.77545
G1 X124.618 Y98.828 E7.81578
G1 X124.877 Y99.199 E7.83948
G1 X125.87 Y100.719 E7.93459
G1 X126.257 Y101.384 E7.9749
G1 X126.45 Y101.791 E7.9985
G1 X127.179 Y103.451 E8.09347
G1 X127.452 Y104.17 E8.13376
G1 X127.578 Y104.61 E8.15773
G1 X128.024 Y106.372 E8.25295
G1 X128.173 Y107.127 E8.29326
G1 X128.225 Y107.577 E8.31699
G1 X128.375 Y109.387 E8.41213
G1 X128.398 Y110.156 E8.45243
G1 X128.375 Y110.608 E8.47614
G1 X128.225 Y112.422 E8.57149
G1 X128.122 Y113.184 E8.61177
G1 X128.024 Y113.627 E8.63554
G1 X127.579 Y115.386 E8.73059
G1 X127.352 Y116.121 E8.77088
G1 X127.181 Y116.545 E8.79483
G1 X126.451 Y118.208 E8.88997
G1 X126.106 Y118.896 E8.93029
G1 X125.87 Y119.281 E8.95395
G1 X124.877 Y120.801 E9.04906
G1 X124.424 Y121.422 E9.08932
G1 X124.127 Y121.765 E9.11309
G1 X122.894 Y123.105 E9.20848
G1 X122.345 Y123.643 E9.24875
G1 X121.993 Y123.935 E9.27271
G1 X120.561 Y125.049 E9.36775
G1 X119.93 Y125.489 E9.40804
G1 X119.539 Y125.716 E9.43173
G1 X117.939 Y126.582 E9.52703
G1 X117.245 Y126.912 E9.56729
G1 X116.817 Y127.074 E9.59126
G1 X115.102 Y127.662 E9.68624
G1 X114.362 Y127.873 E9.72655
G1 X113.922 Y127.961 E9.75005
G1 X112.127 Y128.261 E9.84539
G1 X111.363 Y128.348 E9.88567
G1 X110.907 Y128.362 E9.90957
G1 X109.093 Y128.362 E10.00459
G1 X108.325 Y128.322 E10.04488
G1 X107.873 Y128.261 E10.06877
G1 X106.078 Y127.961 E10.1641
G1 X105.327 Y127.795 E10.2044
G1 X104.898 Y127.662 E10.22792
G1 X103.183 Y127.074 E10.3229
G1 X102.469 Y126.787 E10.36321
G1 X102.061 Y126.582 E10.38713
G1 X100.461 Y125.716 E10.48243
G1 X99.804 Y125.315 E10.52275
G1 X99.439 Y125.049 E10.54641
G1 X98.007 Y123.935 E10.64145
G1 X97.426 Y123.432 E10.68171
G1 X97.106 Y123.105 E10.70568
G1 X95.873 Y121.765 E10.80107
G1 X95.382 Y121.172 E10.8414
G1 X95.123 Y120.801 E10.8651
G1 X94.13 Y119.281 E10.96021
G1 X93.743 Y118.616 E11.00052
G1 X93.549 Y118.208 E11.02418
G1 X92.819 Y116.545 E11.11932
G1 X92.547 Y115.826 E11.15959
G1 X92.421 Y115.386 E11.18357
G1 X91.976 Y113.627 E11.27861
G1 X91.826 Y112.872 E11.31894
G1 X91.775 Y112.423 E11.34261
G1 X91.625 Y110.613 E11.43775
G1 X91.602 Y109.844 E11.47805
G1 X91.625 Y109.392 E11.50176
G1 X91.775 Y107.578 E11.59711
G1 X91.878 Y106.816 E11.63739
G1 X91.976 Y106.373 E11.66116
G1 X92.421 Y104.614 E11.75621
G1 X92.648 Y103.879 E11.7965
G1 X92.819 Y103.455 E11.82045
G1 X93.549 Y101.792 E11.91559
G1 X93.894 Y101.104 E11.95591
G1 X94.13 Y100.719 E11.97957
G1 X95.123 Y99.199 E12.07468
G1 X95.576 Y98.578 E12.11494
G1 X95.873 Y98.235 E12.13871
G1 X97.106 Y96.895 E12.2341
G0 F7500 X97.4 Y97.166
G1 F1500 X97.935 Y96.644 E12.27326
G1 X98.253 Y96.381 E12.29488
G1 X99.685 Y95.267 E12.38992
G1 X100.299 Y94.84 E12.42909
G1 X100.651 Y94.636 E12.45041
G1 X102.251 Y93.77 E12.54571
G1 X102.927 Y93.449 E12.58491
G1 X103.313 Y93.304 E12.60651
G1 X105.028 Y92.716 E12.70149
G1 X105.747 Y92.512 E12.74064
G1 X106.144 Y92.434 E12.76183
G1 X107.939 Y92.134 E12.85717
G1 X108.682 Y92.05 E12.89634
G1 X109.093 Y92.038 E12.91788
G1 X110.907 Y92.038 E13.0129
G1 X111.654 Y92.078 E13.05209
G1 X112.061 Y92.134 E13.07361
G1 X113.856 Y92.434 E13.16895
G1 X114.586 Y92.596 E13.20812
G1 X114.972 Y92.716 E13.22929
G1 X116.687 Y93.304 E13.32426
G1 X117.381 Y93.584 E13.36347
G1 X117.749 Y93.77 E13.38507
G1 X119.349 Y94.636 E13.48037
G1 X119.987 Y95.027 E13.51957
G1 X120.315 Y95.267 E13.54086
G1 X121.747 Y96.381 E13.6359
G1 X122.312 Y96.871 E13.67508
G1 X122.6 Y97.166 E13.69668
G1 X123.833 Y98.506 E13.79207
G1 X124.31 Y99.083 E13.83128
G1 X124.542 Y99.418 E13.85263
G1 X125.535 Y100.938 E13.94774
G1 X125.91 Y101.585 E13.98691
G1 X126.084 Y101.951 E14.00814
G1 X126.813 Y103.611 E14.10312
G1 X127.077 Y104.311 E14.14231
G1 X127.19 Y104.708 E14.16393
G1 X127.636 Y106.47 E14.25914
G1 X127.781 Y107.204 E14.29834
G1 X127.826 Y107.61 E14.31974
G1 X127.976 Y109.42 E14.41488
G1 X127.998 Y110.168 E14.45408
G1 X127.976 Y110.575 E14.47543
G1 X127.826 Y112.389 E14.57078
G1 X127.725 Y113.13 E14.60996
G1 X127.636 Y113.529 E14.63137
G1 X127.191 Y115.288 E14.72642
G1 X126.969 Y116.002 E14.76559
G1 X126.815 Y116.385 E14.78721
G1 X126.085 Y118.048 E14.88235
G1 X125.748 Y118.716 E14.92155
G1 X125.535 Y119.062 E14.94283
G1 X124.542 Y120.582 E15.03794
G1 X124.1 Y121.186 E15.07715
G1 X123.833 Y121.494 E15.0985
G1 X122.6 Y122.834 E15.19389
G1 X122.065 Y123.356 E15.23305
G1 X121.747 Y123.619 E15.25466
G1 X120.315 Y124.733 E15.34971
G1 X119.701 Y125.16 E15.38888
G1 X119.349 Y125.364 E15.4102
G1 X117.749 Y126.23 E15.5055
G1 X117.073 Y126.551 E15.5447
G1 X116.687 Y126.696 E15.5663
G1 X114.972 Y127.284 E15.66128
G1 X114.253 Y127.488 E15.70043
G1 X113.856 Y127.566 E15.72162
G1 X112.061 Y127.866 E15.81696
G1 X111.318 Y127.95 E15.85613
G1 X110.907 Y127.962 E15.87767
G1 X109.093 Y127.962 E15.97269
G1 X108.346 Y127.922 E16.01188
G1 X107.939 Y127.866 E16.0334
G1 X106.144 Y127.566 E16.12873
G1 X105.414 Y127.404 E16.16791
G1 X105.028 Y127.284 E16.18908
G1 X103.313 Y126.696 E16.28405
G1 X102.619 Y126.416 E16.32326
G1 X102.251 Y126.23 E16.34486
G1 X100.651 Y125.364 E16.44016
G1 X100.013 Y124.973 E16.47936
G1 X99.685 Y124.733 E16.50065
G1 X98.253 Y123.619 E16.59569
G1 X97.688 Y123.129 E16.63487
G1 X97.4 Y122.834 E16.65647
G1 X96.167 Y121.494 E16.75186
G1 X95.69 Y120.917 E16.79107
G1 X95.458 Y120.582 E16.81242
G1 X94.465 Y119.062 E16.90753
G1 X94.09 Y118.415 E16.9467
G1 X93.915 Y118.048 E16.968
G1 X93.185 Y116.385 E17.06314
G1 X92.922 Y115.685 E17.10231
G1 X92.809 Y115.288 E17.12394
G1 X92.364 Y113.529 E17.21899
G1 X92.219 Y112.795 E17.25818
G1 X92.174 Y112.39 E17.27953
G1 X92.024 Y110.58 E17.37467
G1 X92.002 Y109.832 E17.41387
G1 X92.024 Y109.425 E17.43522
G1 X92.174 Y107.611 E17.53057
G1 X92.275 Y106.87 E17.56975
G1 X92.364 Y106.471 E17.59116
G1 X92.809 Y104.712 E17.68621
G1 X93.031 Y103.998 E17.72538
G1 X93.185 Y103.615 E17.747
G1 X93.915 Y101.952 E17.84214
G1 X94.252 Y101.284 E17.88133
G1 X94.465 Y100.938 E17.90262
G1 X95.458 Y99.418 E17.99773
G1 X95.9 Y98.814 E18.03694
G1 X96.167 Y98.506 E18.05829
G1 X97.4 Y97.166 E18.15368
G0 F7500 X97.694 Y97.437
G1 F1500 X98.215 Y96.93 E18.19176
G1 X98.498 Y96.697 E18.21097
G1 X99.93 Y95.583 E18.30601
G1 X100.841 Y94.988 E18.36301
G1 X102.441 Y94.122 E18.45831
G1 X103.098 Y93.812 E18.49637
G1 X103.442 Y93.683 E18.51561
G1 X105.157 Y93.095 E18.61059
G1 X106.21 Y92.828 E18.66749
G1 X108.005 Y92.528 E18.76283
G1 X108.727 Y92.448 E18.80088
G1 X109.093 Y92.438 E18.82006
G1 X110.907 Y92.438 E18.91509
G1 X111.632 Y92.478 E18.95312
G1 X111.995 Y92.528 E18.97232
G1 X113.79 Y92.828 E19.06765
G1 X114.843 Y93.095 E19.12456
G1 X116.558 Y93.683 E19.21953
G1 X117.231 Y93.956 E19.25758
G1 X117.559 Y94.122 E19.27684
G1 X119.159 Y94.988 E19.37214
G1 X120.07 Y95.583 E19.42914
G1 X121.502 Y96.697 E19.52418
G1 X122.049 Y97.174 E19.5622
G1 X122.306 Y97.437 E19.58146
G1 X123.539 Y98.777 E19.67685
G1 X124.207 Y99.636 E19.73386
G1 X125.2 Y101.156 E19.82897
G1 X125.718 Y102.112 E19.88592
G1 X126.447 Y103.772 E19.9809
G1 X126.702 Y104.452 E20.01894
G1 X126.802 Y104.806 E20.03821
G1 X127.248 Y106.568 E20.13343
G1 X127.387 Y107.281 E20.17148
G1 X127.427 Y107.643 E20.19056
G1 X127.577 Y109.453 E20.2857
G1 X127.598 Y110.179 E20.32375
G1 X127.578 Y110.542 E20.34279
G1 X127.428 Y112.356 E20.43814
G1 X127.328 Y113.075 E20.47617
G1 X127.248 Y113.431 E20.49528
G1 X126.803 Y115.19 E20.59033
G1 X126.587 Y115.883 E20.62836
G1 X126.448 Y116.224 E20.64765
G1 X125.718 Y117.887 E20.74279
G1 X125.2 Y118.844 E20.79979
G1 X124.207 Y120.364 E20.8949
G1 X123.539 Y121.223 E20.9519
G1 X122.306 Y122.563 E21.04729
G1 X121.785 Y123.07 E21.08538
G1 X121.502 Y123.303 E21.10458
G1 X120.07 Y124.417 E21.19962
G1 X119.159 Y125.012 E21.25662
G1 X117.559 Y125.878 E21.35192
G1 X116.902 Y126.188 E21.38998
G1 X116.558 Y126.317 E21.40923
G1 X114.843 Y126.905 E21.5042
G1 X113.79 Y127.172 E21.56111
G1 X111.995 Y127.472 E21.65644
G1 X111.273 Y127.552 E21.69449
G1 X110.907 Y127.562 E21.71367
G1 X109.093 Y127.562 E21.8087
G1 X108.368 Y127.522 E21.84674
G1 X108.005 Y127.472 E21.86593
G1 X106.21 Y127.172 E21.96127
G1 X105.157 Y126.905 E22.01817
G1 X103.442 Y126.317 E22.11315
G1 X102.769 Y126.044 E22.15119
G1 X102.441 Y125.878 E22.17045
G1 X100.841 Y125.012 E22.26575
G1 X99.93 Y124.417 E22.32275
G1 X98.498 Y123.303 E22.41779
G1 X97.951 Y122.826 E22.45581
G1 X97.694 Y122.563 E22.47508
G1 X96.461 Y121.223 E22.57047
G1 X95.793 Y120.364 E22.62747
G1 X94.8 Y118.844 E22.72258
G1 X94.282 Y117.887 E22.77959
G1 X93.552 Y116.224 E22.87472
G1 X93.297 Y115.544 E22.91277
G1 X93.197 Y115.19 E22.93204
G1 X92.752 Y113.431 E23.02709
G1 X92.573 Y112.357 E23.08412
G1 X92.423 Y110.547 E23.17926
G1 X92.402 Y109.821 E23.21731
G1 X92.422 Y109.458 E23.23636
G1 X92.572 Y107.644 E23.33171
G1 X92.672 Y106.925 E23.36973
G1 X92.752 Y106.569 E23.38885
G1 X93.197 Y104.81 E23.4839
G1 X93.413 Y104.117 E23.52192
G1 X93.552 Y103.776 E23.54121
G1 X94.282 Y102.113 E23.63635
G1 X94.8 Y101.156 E23.69336
G1 X95.793 Y99.636 E23.78847
G1 X96.461 Y98.777 E23.84547
G1 X97.694 Y97.437 E23.94086
G0 F7500 X97.989 Y97.708
G1 F1500 X98.744 Y97.012 E23.99465
G1 X100.176 Y95.898 E24.08969
G1 X101.032 Y95.339 E24.14325
G1 X102.632 Y94.473 E24.23855
G1 X103.572 Y94.061 E24.29232
G1 X105.287 Y93.473 E24.38729
G1 X106.276 Y93.223 E24.44073
G1 X108.071 Y92.923 E24.53606
G1 X109.093 Y92.838 E24.58978
G1 X110.907 Y92.838 E24.68481
G1 X111.929 Y92.923 E24.73853
G1 X113.724 Y93.223 E24.83387
G1 X114.713 Y93.473 E24.88731
G1 X116.428 Y94.061 E24.98228
G1 X117.368 Y94.473 E25.03604
G1 X118.968 Y95.339 E25.13135
G1 X119.824 Y95.898 E25.1849
G1 X121.256 Y97.012 E25.27994
G1 X122.011 Y97.708 E25.33374
G1 X123.244 Y99.048 E25.42913
G1 X123.873 Y99.855 E25.48273
G1 X124.866 Y101.375 E25.57784
G1 X125.352 Y102.273 E25.63132
G1 X126.081 Y103.933 E25.7263
G1 X126.414 Y104.905 E25.78012
G1 X126.86 Y106.667 E25.87533
G1 X127.029 Y107.676 E25.92893
G1 X127.179 Y109.486 E26.02407
G1 X127.179 Y110.509 E26.07766
G1 X127.029 Y112.323 E26.17301
G1 X126.861 Y113.333 E26.22664
G1 X126.416 Y115.092 E26.32169
G1 X126.082 Y116.063 E26.37548
G1 X125.352 Y117.726 E26.47062
G1 X124.866 Y118.625 E26.52416
G1 X123.873 Y120.145 E26.61927
G1 X123.244 Y120.952 E26.67287
G1 X122.011 Y122.292 E26.76826
G1 X121.256 Y122.988 E26.82205
G1 X119.824 Y124.102 E26.91709
G1 X118.968 Y124.661 E26.97064
G1 X117.368 Y125.527 E27.06595
G1 X116.428 Y125.939 E27.11971
G1 X114.713 Y126.527 E27.21469
G1 X113.724 Y126.777 E27.26812
G1 X111.929 Y127.077 E27.36346
G1 X110.907 Y127.162 E27.41718
G1 X109.093 Y127.162 E27.51221
G1 X108.071 Y127.077 E27.56593
G1 X106.276 Y126.777 E27.66126
G1 X105.287 Y126.527 E27.7147
G1 X103.572 Y125.939 E27.80968
G1 X102.632 Y125.527 E27.86344
G1 X101.032 Y124.661 E27.95874
G1 X100.176 Y124.102 E28.0123
G1 X98.744 Y122.988 E28.10734
G1 X97.989 Y122.292 E28.16113
G1 X96.756 Y120.952 E28.25652
G1 X96.127 Y120.145 E28.31012
G1 X95.134 Y118.625 E28.40523
G1 X94.648 Y117.726 E28.45877
G1 X93.918 Y116.063 E28.55391
G1 X93.584 Y115.092 E28.6077
G1 X93.139 Y113.333 E28.70275
G1 X92.971 Y112.324 E28.75633
G1 X92.821 Y110.514 E28.85147
G1 X92.821 Y109.491 E28.90506
G1 X92.971 Y107.677 E29.00041
G1 X93.139 Y106.667 E29.05405
G1 X93.584 Y104.908 E29.14909
G1 X93.918 Y103.937 E29.20288
G1 X94.648 Y102.274 E29.29802
G1 X95.134 Y101.375 E29.35156
G1 X96.127 Y99.855 E29.44667
G1 X96.756 Y99.048 E29.50027
G1 X97.989 Y97.708 E29.59566
G0 F7500 X98.283 Y97.979
G1 F1500 X98.99 Y97.328 E29.646
G1 X100.422 Y96.214 E29.74104
G1 X101.222 Y95.691 E29.79111
