; generated by SuperSlicer 2.3.57 on 2022-04-12 at 10:59:53 UTC


;
;

;
;
; 

; external perimeters extrusion width = 0.40mm
; perimeters extrusion width = 0.45mm
; infill extrusion width = 0.72mm
; solid infill extrusion width = 0.56mm
; top infill extrusion width = 0.40mm
; first layer extrusion width = 0.52mm

; object:{"name":"middle_wallet-m3-v2","id":"middle_wallet-m3-v2.stl id:0 copy 0","object_center":[59.891308,74.767197,0.000000],"boundingbox_center":[59.891308,74.767197,3.000000],"boundingbox_size":[102.000000,71.000000,6.000000]}
; plater:{"center":[59.891308,74.767197,0.000000],"boundingbox_center":[59.891308,74.767197,3.000000],"boundingbox_size":[102.000000,71.000000,6.000000]}

M73 P0 R88
;TYPE:Custom
; custom gcode: start_gcode
PRINT_START BED=110 HOTEND=260 CHAMBER=45
; custom gcode end: start_gcode
G21 ; set units to millimeters
G90 ; use absolute coordinates
M83 ; use relative distances for extrusion
; custom gcode: start_filament_gcode
; Filament gcode
; custom gcode end: start_filament_gcode
M104 S260 ; set temperature
M109 S260 ; set temperature and wait for it to be reached
M190 S110 ; set bed temperature and wait for it to be reached
;LAYER_CHANGE
;Z:0.11875
;HEIGHT:0.11875
G1 E-2 F1800
G1 Z0.11875 F27000
G1 X13.03 Y34.489
G1 E2 F1800
; custom gcode: feature_gcode
; External perimeter
;Skirt
SET_VELOCITY_LIMIT ACCEL=5000 ACCEL_TO_DECEL=2500 SQUARE_CORNER_VELOCITY=8

; Support material
; custom gcode end: feature_gcode

;TYPE:Skirt
;WIDTH:0.52
G1 X12.167 Y34.922 E0.02239
G1 X11.402 Y35.501 E0.02226
G1 X6.033 Y40.882 E0.17632
G1 X5.583 Y41.484 E0.01742
G1 X5.224 Y42.144 E0.01742
G1 X4.626 Y43.674 E0.0381
G1 X4.406 Y44.462 E0.01897
G1 X4.259 Y45.727 E0.02956
G1 X4.782 Y105.753 E1.39227
G1 X4.911 Y106.493 E0.01742
G1 X5.145 Y107.207 E0.01742
G1 X5.478 Y107.88 E0.01742
G1 X5.905 Y108.499 E0.01742
G1 X11.454 Y114.08 E0.18256
G1 X12.203 Y114.635 E0.02161
G1 X13.038 Y115.048 E0.02161
G1 X13.933 Y115.306 E0.02161
G1 X14.859 Y115.402 E0.02161
G1 X106.123 Y115.396 E2.11676
G1 X106.919 Y115.293 E0.0186
G1 X107.684 Y115.071 E0.01847
G1 X108.406 Y114.736 E0.01847
G1 X109.069 Y114.296 E0.01847
G1 X114.704 Y108.704 E0.18412
G1 X115.253 Y107.965 E0.02134
G1 X115.664 Y107.142 E0.02134
G1 X115.924 Y106.259 E0.02134
G1 X116.026 Y105.344 E0.02134
G1 X116.01 Y50.883 E1.26317
G1 X115.89 Y50.118 E0.01795
G1 X115.661 Y49.385 E0.01782
G1 X115.327 Y48.693 E0.01782
G1 X114.896 Y48.058 E0.01782
G1 X109.329 Y42.455 E0.18319
G1 X108.681 Y41.963 E0.01886
G1 X107.965 Y41.578 E0.01886
G1 X107.203 Y41.31 E0.01873
G1 X106.404 Y41.161 E0.01886
G1 X30.856 Y34.132 E1.75982
G1 X14.829 Y34.133 E0.37172
G1 X13.914 Y34.232 E0.02134
G1 X13.088 Y34.473 E0.01995
G1 X13.238 Y34.939 F27000
G1 F1800
G1 X12.439 Y35.335 E0.02068
G1 X11.728 Y35.873 E0.02068
G1 X6.408 Y41.204 E0.17467
G1 X5.669 Y42.36 E0.03183
G1 X5.091 Y43.841 E0.03687
G1 X4.885 Y44.583 E0.01785
G1 X4.753 Y45.724 E0.02664
G1 X5.273 Y105.694 E1.39099
G1 X5.607 Y107.031 E0.03195
G1 X6.311 Y108.215 E0.03195
G1 X11.793 Y113.72 E0.18018
G1 X12.467 Y114.217 E0.01944
G1 X13.224 Y114.59 E0.01956
G1 X14.034 Y114.823 E0.01956
G1 X14.874 Y114.908 E0.01956
G1 X106.098 Y114.902 E2.11585
G1 X106.828 Y114.806 E0.01708
G1 X107.53 Y114.601 E0.01695
G1 X108.191 Y114.29 E0.01695
G1 X108.797 Y113.881 E0.01695
G1 X114.344 Y108.366 E0.18142
G1 X114.838 Y107.696 E0.01931
G1 X115.208 Y106.95 E0.01931
G1 X115.442 Y106.15 E0.01931
G1 X115.532 Y105.323 E0.01931
G1 X115.517 Y50.926 E1.26167
G1 X115.407 Y50.225 E0.01645
G1 X115.196 Y49.553 E0.01633
G1 X114.887 Y48.921 E0.01633
G1 X114.485 Y48.336 E0.01645
G1 X108.99 Y42.815 E0.18067
G1 X108.402 Y42.371 E0.01708
G1 X107.758 Y42.027 E0.01695
G1 X107.068 Y41.785 E0.01695
G1 X106.344 Y41.652 E0.01708
G1 X30.855 Y34.626 E1.75844
G1 X14.851 Y34.627 E0.3712
G1 X14.033 Y34.712 E0.01907
G1 X13.295 Y34.923 E0.0178
G1 X13.437 Y35.392 F27000
G1 F1800
G1 X12.703 Y35.753 E0.01898
G1 X12.054 Y36.244 E0.01887
G1 X6.782 Y41.526 E0.1731
G1 X6.112 Y42.579 E0.02894
G1 X5.364 Y44.706 E0.05229
G1 X5.248 Y45.725 E0.0238
G1 X5.765 Y105.643 E1.38978
G1 X6.071 Y106.859 E0.02906
G1 X6.714 Y107.928 E0.02894
G1 X12.131 Y113.359 E0.17791
G1 X12.738 Y113.803 E0.01745
G1 X13.414 Y114.134 E0.01745
G1 X14.138 Y114.339 E0.01745
G1 X14.887 Y114.414 E0.01745
G1 X106.07 Y114.409 E2.11487
G1 X106.73 Y114.322 E0.01545
G1 X107.369 Y114.133 E0.01545
G1 X108.516 Y113.473 E0.0307
G1 X113.983 Y108.028 E0.17896
G1 X114.425 Y107.425 E0.01734
G1 X114.752 Y106.759 E0.01722
G1 X114.96 Y106.04 E0.01734
G1 X115.038 Y105.302 E0.01722
G1 X115.024 Y50.962 E1.26035
G1 X114.729 Y49.718 E0.02965
G1 X114.078 Y48.619 E0.02965
G1 X108.65 Y43.174 E0.1783
G1 X107.55 Y42.475 E0.03023
G1 X106.285 Y42.142 E0.03035
G1 X30.855 Y35.12 E1.75708
G1 X14.866 Y35.121 E0.37085
G1 X14.137 Y35.195 E0.01698
G1 X13.495 Y35.376 E0.01547
; INIT printing object middle_wallet-m3-v2.stl id:0 copy 0
G1 E-2
; printing object middle_wallet-m3-v2.stl id:0 copy 0
G1 X97.092 Y60.066 F27000
G1 E2 F1800
; custom gcode: feature_gcode
; External perimeter
;Perimeter
SET_VELOCITY_LIMIT ACCEL=800 ACCEL_TO_DECEL=400 SQUARE_CORNER_VELOCITY=8

; Overhang perimeter
; custom gcode end: feature_gcode

;TYPE:Internal perimeter
G1 X103.419 Y60.066 E0.14673
G1 X103.903 Y60.047 E0.01123
G1 X104.411 Y59.984 E0.01187
G1 X104.912 Y59.881 E0.01187
G1 X105.403 Y59.738 E0.01187
G1 X105.881 Y59.555 E0.01187
G1 X106.342 Y59.333 E0.01187
G1 X106.784 Y59.076 E0.01187
G1 X107.204 Y58.783 E0.01187
G1 X107.598 Y58.457 E0.01187
G1 X107.965 Y58.1 E0.01187
G1 X108.302 Y57.714 E0.01187
G1 X108.606 Y57.303 E0.01187
G1 X108.876 Y56.868 E0.01187
G1 X109.183 Y56.269 E0.01561
G1 X109.542 Y56.356 E0.00858
G1 X109.542 Y104.708 E1.12148
G1 X105.333 Y108.918 E0.13808
G1 X102.153 Y108.918 E0.07373
G1 X102.871 Y108.321 E0.02166
G1 X103.149 Y108.011 E0.00966
G1 X103.379 Y107.663 E0.00966
G1 X103.556 Y107.286 E0.00966
G1 X103.676 Y106.887 E0.00966
G1 X103.736 Y106.475 E0.00966
G1 X103.736 Y106.059 E0.00966
G1 X103.676 Y105.647 E0.00966
G1 X103.556 Y105.248 E0.00966
G1 X103.379 Y104.871 E0.00966
G1 X103.149 Y104.524 E0.00966
G1 X102.871 Y104.214 E0.00966
G1 X102.551 Y103.947 E0.00966
G1 X102.196 Y103.73 E0.00966
G1 X101.812 Y103.567 E0.00966
G1 X101.409 Y103.462 E0.00966
G1 X100.995 Y103.416 E0.00966
G1 X100.579 Y103.432 E0.00966
G1 X100.17 Y103.507 E0.00966
G1 X99.776 Y103.642 E0.00966
G1 X99.405 Y103.832 E0.00966
G1 X99.067 Y104.075 E0.00966
G1 X98.767 Y104.364 E0.00966
G1 X98.512 Y104.693 E0.00966
G1 X98.308 Y105.056 E0.00966
G1 X98.16 Y105.445 E0.00966
G1 X98.069 Y105.852 E0.00966
G1 X98.039 Y106.267 E0.00966
G1 X98.069 Y106.683 E0.00966
G1 X98.16 Y107.089 E0.00966
G1 X98.308 Y107.478 E0.00966
G1 X98.512 Y107.841 E0.00966
G1 X98.767 Y108.171 E0.00966
G1 X99.452 Y108.832 E0.02209
G1 X98.682 Y108.789 E0.0179
G1 X97.389 Y108.689 E0.03008
G1 X96.098 Y108.56 E0.03008
G1 X94.811 Y108.403 E0.03008
G1 X93.528 Y108.217 E0.03008
G1 X92.249 Y108.003 E0.03008
G1 X90.975 Y107.761 E0.03008
G1 X89.707 Y107.49 E0.03008
G1 X88.445 Y107.192 E0.03008
G1 X87.19 Y106.866 E0.03008
G1 X85.942 Y106.512 E0.03008
G1 X84.703 Y106.131 E0.03007
G1 X82.064 Y105.254 E0.0645
G1 X80.646 Y104.816 E0.03441
G1 X79.219 Y104.408 E0.03442
G1 X77.779 Y104.03 E0.03454
G1 X75.377 Y103.476 E0.05717
M73 P1 R88
G1 X73.438 Y103.087 E0.04587
G1 X71.973 Y102.834 E0.03449
G1 X70.505 Y102.612 E0.03442
G1 X69.03 Y102.422 E0.03449
G1 X67.063 Y102.221 E0.04587
M73 P1 R87
G1 X64.605 Y102.042 E0.05717
G1 X63.117 Y101.978 E0.03454
G1 X61.63 Y101.947 E0.03449
G1 X59.652 Y101.957 E0.04587
G1 X57.183 Y102.042 E0.05729
G1 X54.72 Y102.221 E0.05729
G1 X52.752 Y102.422 E0.04587
G1 X51.277 Y102.612 E0.03449
G1 X49.81 Y102.834 E0.03442
G1 X48.348 Y103.087 E0.03442
G1 X46.888 Y103.371 E0.03449
G1 X44.958 Y103.801 E0.04587
G1 X42.568 Y104.407 E0.05717
G1 X41.136 Y104.816 E0.03454
G1 X39.719 Y105.254 E0.03441
G1 X37.08 Y106.131 E0.0645
G1 X35.841 Y106.512 E0.03007
G1 X34.593 Y106.866 E0.03008
G1 X33.338 Y107.192 E0.03008
G1 X32.076 Y107.49 E0.03008
G1 X30.808 Y107.761 E0.03008
G1 X29.534 Y108.003 E0.03008
G1 X28.255 Y108.217 E0.03008
G1 X26.971 Y108.403 E0.03008
G1 X25.684 Y108.56 E0.03008
G1 X24.394 Y108.689 E0.03008
G1 X23.101 Y108.789 E0.03008
G1 X21.806 Y108.861 E0.03008
G1 X20.51 Y108.904 E0.03008
G1 X19.206 Y108.918 E0.03025
G1 X18.153 Y108.918 E0.02441
G1 X18.871 Y108.321 E0.02166
G1 X19.149 Y108.011 E0.00966
G1 X19.379 Y107.663 E0.00966
G1 X19.556 Y107.286 E0.00966
G1 X19.676 Y106.887 E0.00966
G1 X19.736 Y106.475 E0.00966
G1 X19.736 Y106.059 E0.00966
G1 X19.676 Y105.647 E0.00966
G1 X19.556 Y105.248 E0.00966
G1 X19.379 Y104.871 E0.00966
G1 X19.149 Y104.524 E0.00966
G1 X18.871 Y104.214 E0.00966
G1 X18.551 Y103.947 E0.00966
G1 X18.196 Y103.73 E0.00966
G1 X17.812 Y103.567 E0.00966
G1 X17.409 Y103.462 E0.00966
G1 X16.995 Y103.416 E0.00966
G1 X16.579 Y103.432 E0.00966
G1 X16.17 Y103.507 E0.00966
G1 X15.776 Y103.642 E0.00966
G1 X15.405 Y103.832 E0.00966
G1 X15.067 Y104.075 E0.00966
G1 X14.767 Y104.364 E0.00966
G1 X14.512 Y104.693 E0.00966
G1 X14.308 Y105.056 E0.00966
G1 X14.16 Y105.445 E0.00966
G1 X14.069 Y105.852 E0.00966
G1 X14.039 Y106.267 E0.00966
G1 X14.069 Y106.683 E0.00966
G1 X14.177 Y107.166 E0.01149
G1 X13.868 Y107.336 E0.00818
G1 X11.24 Y104.708 E0.08618
G1 X11.24 Y46.996 E1.33858
G1 X11.162 Y46.461 E0.01252
G1 X11.026 Y46.102 E0.00892
G1 X10.841 Y45.767 E0.00887
G1 X11.048 Y45.393 E0.00992
G1 X11.207 Y44.859 E0.01291
G1 X13.868 Y42.199 E0.08728
G1 X14.177 Y42.368 E0.00818
G1 X14.069 Y42.852 E0.01149
G1 X14.039 Y43.267 E0.00966
G1 X14.069 Y43.683 E0.00966
G1 X14.16 Y44.089 E0.00966
G1 X14.308 Y44.478 E0.00966
G1 X14.512 Y44.841 E0.00966
G1 X14.767 Y45.171 E0.00966
G1 X15.067 Y45.46 E0.00966
G1 X15.405 Y45.702 E0.00966
G1 X15.776 Y45.893 E0.00966
G1 X16.17 Y46.027 E0.00966
G1 X16.579 Y46.103 E0.00966
G1 X16.995 Y46.118 E0.00966
G1 X17.409 Y46.072 E0.00966
G1 X17.812 Y45.967 E0.00966
G1 X18.196 Y45.804 E0.00966
G1 X18.551 Y45.587 E0.00966
G1 X18.871 Y45.321 E0.00966
G1 X19.149 Y45.011 E0.00966
G1 X19.379 Y44.663 E0.00966
G1 X19.556 Y44.286 E0.00966
G1 X19.676 Y43.887 E0.00966
G1 X19.736 Y43.475 E0.00966
G1 X19.736 Y43.059 E0.00966
G1 X19.676 Y42.647 E0.00966
G1 X19.556 Y42.248 E0.00966
G1 X19.379 Y41.871 E0.00966
G1 X19.149 Y41.524 E0.00966
G1 X18.871 Y41.214 E0.00966
G1 X18.153 Y40.616 E0.02166
G1 X30.333 Y40.616 E0.28248
G1 X36.587 Y46.871 E0.20517
G1 X37.333 Y47.616 E0.02444
G1 X100.803 Y47.616 E1.47211
G1 X100.889 Y47.976 E0.00858
G1 X100.291 Y48.283 E0.01561
G1 X99.856 Y48.553 E0.01187
G1 X99.444 Y48.857 E0.01187
G1 X99.059 Y49.193 E0.01187
G1 X98.702 Y49.56 E0.01187
G1 X98.376 Y49.955 E0.01187
G1 X98.083 Y50.374 E0.01187
G1 X97.825 Y50.816 E0.01187
G1 X97.604 Y51.278 E0.01187
G1 X97.421 Y51.756 E0.01187
G1 X97.277 Y52.247 E0.01187
G1 X97.174 Y52.748 E0.01187
G1 X97.112 Y53.256 E0.01187
G1 X97.092 Y53.74 E0.01123
G1 X97.092 Y60.006 E0.14534
G1 X19.192 Y43.78 F27000
G1 F1800
G1 X19.242 Y43.439 E0.00798
G1 X19.242 Y43.095 E0.00798
G1 X19.192 Y42.755 E0.00798
G1 X19.093 Y42.425 E0.00798
G1 X18.947 Y42.114 E0.00798
G1 X18.757 Y41.827 E0.00798
G1 X18.527 Y41.571 E0.00798
G1 X18.263 Y41.35 E0.00798
G1 X17.969 Y41.171 E0.00798
G1 X17.652 Y41.037 E0.00798
G1 X17.319 Y40.95 E0.00798
G1 X16.977 Y40.912 E0.00798
G1 X16.634 Y40.925 E0.00798
G1 X16.295 Y40.987 E0.00798
G1 X15.97 Y41.098 E0.00798
G1 X15.664 Y41.255 E0.00798
G1 X15.384 Y41.456 E0.00798
G1 X15.136 Y41.694 E0.00798
G1 X14.926 Y41.967 E0.00798
G1 X14.757 Y42.267 E0.00798
G1 X14.634 Y42.588 E0.00798
G1 X14.56 Y42.924 E0.00798
G1 X14.535 Y43.267 E0.00798
G1 X14.56 Y43.61 E0.00798
G1 X14.634 Y43.946 E0.00798
G1 X14.757 Y44.268 E0.00798
G1 X14.926 Y44.568 E0.00798
G1 X15.136 Y44.84 E0.00798
G1 X15.384 Y45.079 E0.00798
G1 X15.664 Y45.279 E0.00798
G1 X15.97 Y45.436 E0.00798
G1 X16.295 Y45.547 E0.00798
G1 X16.634 Y45.61 E0.00798
G1 X16.977 Y45.622 E0.00798
G1 X17.319 Y45.585 E0.00798
G1 X17.652 Y45.498 E0.00798
G1 X17.969 Y45.363 E0.00798
G1 X18.263 Y45.184 E0.00798
G1 X18.527 Y44.964 E0.00798
G1 X18.757 Y44.708 E0.00798
G1 X18.947 Y44.421 E0.00798
G1 X19.093 Y44.109 E0.00798
G1 X19.174 Y43.837 E0.00659
G1 X18.701 Y43.695 F27000
; custom gcode: feature_gcode
; External perimeter
;ExternalPerimeter
SET_VELOCITY_LIMIT ACCEL=450 ACCEL_TO_DECEL=250 SQUARE_CORNER_VELOCITY=8

; Perimeter
; custom gcode end: feature_gcode

;TYPE:External perimeter
G1 F1800
G1 X18.708 Y43.672 E0.00055
G1 X18.747 Y43.403 E0.0063
G1 X18.747 Y43.131 E0.0063
G1 X18.708 Y42.863 E0.0063
G1 X18.629 Y42.602 E0.0063
G1 X18.514 Y42.356 E0.0063
G1 X18.364 Y42.13 E0.0063
G1 X18.183 Y41.927 E0.0063
G1 X17.974 Y41.754 E0.0063
G1 X17.742 Y41.612 E0.0063
G1 X17.492 Y41.506 E0.0063
G1 X17.229 Y41.437 E0.0063
G1 X16.959 Y41.407 E0.0063
G1 X16.688 Y41.417 E0.0063
G1 X16.421 Y41.467 E0.0063
G1 X16.163 Y41.554 E0.0063
G1 X15.922 Y41.679 E0.0063
G1 X15.701 Y41.837 E0.0063
G1 X15.505 Y42.025 E0.0063
G1 X15.339 Y42.24 E0.0063
G1 X15.206 Y42.477 E0.0063
G1 X15.109 Y42.731 E0.0063
G1 X15.05 Y42.996 E0.0063
G1 X15.03 Y43.267 E0.0063
G1 X15.05 Y43.538 E0.0063
G1 X15.109 Y43.803 E0.0063
G1 X15.206 Y44.057 E0.0063
G1 X15.339 Y44.294 E0.0063
G1 X15.505 Y44.509 E0.0063
G1 X15.701 Y44.698 E0.0063
G1 X15.922 Y44.856 E0.0063
G1 X16.163 Y44.98 E0.0063
G1 X16.421 Y45.068 E0.0063
G1 X16.688 Y45.117 E0.0063
G1 X16.959 Y45.127 E0.0063
G1 X17.229 Y45.097 E0.0063
G1 X17.492 Y45.028 E0.0063
G1 X17.742 Y44.922 E0.0063
G1 X17.974 Y44.781 E0.0063
G1 X18.183 Y44.607 E0.0063
G1 X18.364 Y44.405 E0.0063
G1 X18.514 Y44.178 E0.0063
G1 X18.629 Y43.932 E0.0063
G1 X18.684 Y43.752 E0.00436
;WIPE_START
G1 X18.724 Y43.689 F27000
;WIPE_END
G1 X16.977 Y103.912
; custom gcode: feature_gcode
; External perimeter
;Perimeter
SET_VELOCITY_LIMIT ACCEL=800 ACCEL_TO_DECEL=400 SQUARE_CORNER_VELOCITY=8

; Overhang perimeter
; custom gcode end: feature_gcode

;TYPE:Internal perimeter
G1 F1800
G1 X16.634 Y103.925 E0.00798
G1 X16.295 Y103.987 E0.00798
G1 X15.97 Y104.098 E0.00798
G1 X15.664 Y104.255 E0.00798
G1 X15.384 Y104.456 E0.00798
G1 X15.136 Y104.694 E0.00798
G1 X14.926 Y104.967 E0.00798
G1 X14.757 Y105.267 E0.00798
G1 X14.634 Y105.588 E0.00798
G1 X14.56 Y105.924 E0.00798
G1 X14.535 Y106.267 E0.00798
G1 X14.56 Y106.61 E0.00798
G1 X14.634 Y106.946 E0.00798
G1 X14.757 Y107.268 E0.00798
G1 X14.926 Y107.568 E0.00798
G1 X15.136 Y107.84 E0.00798
G1 X15.384 Y108.079 E0.00798
G1 X15.664 Y108.279 E0.00798
G1 X15.97 Y108.436 E0.00798
G1 X16.295 Y108.547 E0.00798
G1 X16.634 Y108.61 E0.00798
G1 X16.977 Y108.622 E0.00798
G1 X17.319 Y108.585 E0.00798
G1 X17.652 Y108.498 E0.00798
G1 X17.969 Y108.363 E0.00798
G1 X18.263 Y108.184 E0.00798
G1 X18.527 Y107.964 E0.00798
G1 X18.757 Y107.708 E0.00798
G1 X18.947 Y107.421 E0.00798
G1 X19.093 Y107.109 E0.00798
G1 X19.192 Y106.78 E0.00798
G1 X19.242 Y106.439 E0.00798
G1 X19.242 Y106.095 E0.00798
G1 X19.192 Y105.755 E0.00798
G1 X19.093 Y105.425 E0.00798
G1 X18.947 Y105.114 E0.00798
G1 X18.757 Y104.827 E0.00798
G1 X18.527 Y104.571 E0.00798
G1 X18.263 Y104.35 E0.00798
G1 X17.969 Y104.171 E0.00798
G1 X17.652 Y104.037 E0.00798
G1 X17.319 Y103.95 E0.00798
G1 X17.037 Y103.919 E0.00659
G1 X16.983 Y104.41 F27000
; custom gcode: feature_gcode
; External perimeter
;ExternalPerimeter
SET_VELOCITY_LIMIT ACCEL=450 ACCEL_TO_DECEL=250 SQUARE_CORNER_VELOCITY=8

; Perimeter
; custom gcode end: feature_gcode

;TYPE:External perimeter
G1 F1800
G1 X16.959 Y104.407 E0.00055
G1 X16.688 Y104.417 E0.0063
G1 X16.421 Y104.467 E0.0063
G1 X16.163 Y104.554 E0.0063
G1 X15.922 Y104.679 E0.0063
G1 X15.701 Y104.837 E0.0063
G1 X15.505 Y105.025 E0.0063
G1 X15.339 Y105.24 E0.0063
G1 X15.206 Y105.477 E0.0063
G1 X15.109 Y105.731 E0.0063
G1 X15.05 Y105.996 E0.0063
G1 X15.03 Y106.267 E0.0063
G1 X15.05 Y106.538 E0.0063
G1 X15.109 Y106.803 E0.0063
G1 X15.206 Y107.057 E0.0063
G1 X15.339 Y107.294 E0.0063
G1 X15.505 Y107.509 E0.0063
G1 X15.701 Y107.698 E0.0063
G1 X15.922 Y107.856 E0.0063
G1 X16.163 Y107.98 E0.0063
G1 X16.421 Y108.068 E0.0063
G1 X16.688 Y108.117 E0.0063
G1 X16.959 Y108.127 E0.0063
G1 X17.229 Y108.097 E0.0063
G1 X17.492 Y108.028 E0.0063
G1 X17.742 Y107.922 E0.0063
