;FLAVOR:Marlin
;TIME:7221
;Filament used: 1.74185m
;Layer height: 0.06
;MINX:63.667
;MINY:83.063
;MINZ:0.3
;MAXX:145.667
;MAXY:136.935
;MAXZ:4.98
;Generated with Cura_SteamEngine 4.10.0
M140 S55
M105
M190 S55
M104 S196
M105
M109 S196
M82 ;absolute extrusion mode
G28 ;Home
G1 Z15.0 F2000 ;Move the platform
G92 E0
G92 E0
G1 F1500 E-6
;LAYER_COUNT:79
;LAYER:0
M107
M204 S1400
G0 F9000 X84.382 Y102.562 Z0.3
;TYPE:SKIRT
G1 F1500 E0
G1 F1800 X84.239 Y102.995 E0.02412
G1 X84.124 Y103.267 E0.03973
G1 X83.823 Y103.877 E0.0757
G1 X83.703 Y104.062 E0.08737
G1 X83.983 Y104.496 E0.11468
G1 X84.282 Y105.108 E0.1507
G1 X84.515 Y105.778 E0.18821
G1 X85.591 Y109.609 E0.39865
G1 X86.012 Y109.68 E0.42123
G1 X86.264 Y109.728 E0.4348
G1 X87.196 Y109.927 E0.48519
G1 X87.457 Y109.989 E0.49938
G1 X88.379 Y110.231 E0.54979
G1 X88.612 Y110.297 E0.5626
G1 X89.519 Y110.576 E0.61278
G1 X89.772 Y110.661 E0.6269
G1 X90.002 Y110.744 E0.63983
G1 X105.225 Y109.923 E1.44604
G1 X105.562 Y109.871 E1.46408
G1 X105.621 Y109.641 E1.47663
G1 X105.728 Y109.126 E1.50445
G1 X105.804 Y108.604 E1.53235
G1 X105.86 Y108.077 E1.56037
G1 X105.891 Y107.52 E1.58987
G1 X105.896 Y107.003 E1.61722
G1 X105.874 Y106.445 E1.64675
G1 X105.827 Y105.908 E1.67526
G1 X105.671 Y104.743 E1.73742
G1 X105.455 Y103.532 E1.80247
G1 X105.238 Y102.563 E1.85498
G1 X84.382 Y102.562 E2.95792
G0 F9000 X84.097 Y102.162
G1 F1800 X83.871 Y102.839 E2.99567
G1 X83.756 Y103.111 E3.01128
G1 X83.464 Y103.699 E3.046
G1 X83.298 Y103.951 E3.06196
G1 X83.298 Y104.183 E3.07423
G1 X83.397 Y104.311 E3.08279
G1 X83.733 Y104.875 E3.11751
G1 X83.997 Y105.477 E3.15227
G1 X84.13 Y105.886 E3.17501
G1 X85.274 Y109.961 E3.39884
G1 X85.946 Y110.074 E3.43488
G1 X86.181 Y110.119 E3.44753
G1 X87.113 Y110.318 E3.49793
G1 X87.356 Y110.376 E3.51114
G1 X88.278 Y110.618 E3.56155
G1 X88.495 Y110.68 E3.57349
G1 X89.402 Y110.959 E3.62367
G1 X89.637 Y111.037 E3.63677
G1 X89.946 Y111.148 E3.65413
G1 X105.259 Y110.323 E4.46511
G1 X105.525 Y110.285 E4.47932
G1 X105.887 Y110.217 E4.4988
G1 X106.014 Y109.718 E4.52603
G1 X106.122 Y109.197 E4.55417
G1 X106.202 Y108.654 E4.58319
G1 X106.258 Y108.121 E4.61154
G1 X106.291 Y107.524 E4.64316
G1 X106.296 Y106.991 E4.67134
G1 X106.274 Y106.437 E4.70067
G1 X106.223 Y105.853 E4.73167
G1 X106.064 Y104.667 E4.79495
G1 X105.849 Y103.462 E4.85968
G1 X105.575 Y102.241 E4.92586
G1 X105.554 Y102.163 E4.93013
G1 X84.097 Y102.162 E6.06485
G0 F9000 X83.733 Y102.004
G1 F1800 X83.502 Y102.683 E6.10278
G1 X83.387 Y102.955 E6.1184
G1 X83.105 Y103.521 E6.15184
G1 X82.898 Y103.83 E6.17151
G1 X82.898 Y104.316 E6.19721
G1 X83.171 Y104.696 E6.22195
G1 X83.471 Y105.252 E6.25536
G1 X83.745 Y105.994 E6.29719
G1 X84.958 Y110.314 E6.53449
G1 X85.88 Y110.469 E6.58393
G1 X86.097 Y110.51 E6.59561
G1 X87.029 Y110.709 E6.64601
G1 X87.254 Y110.763 E6.65824
G1 X88.176 Y111.005 E6.70865
G1 X88.377 Y111.062 E6.7197
G1 X89.284 Y111.341 E6.76989
G1 X89.502 Y111.414 E6.78204
G1 X89.885 Y111.551 E6.80355
G1 X105.301 Y110.721 E7.61999
G1 X105.608 Y110.677 E7.63639
G1 X106.017 Y110.601 E7.65839
G1 X106.205 Y110.558 E7.66859
G1 X106.258 Y110.383 E7.67826
G1 X106.401 Y109.822 E7.70887
G1 X106.513 Y109.282 E7.73804
G1 X106.601 Y108.685 E7.76995
G1 X106.658 Y108.145 E7.79867
G1 X106.691 Y107.55 E7.83018
G1 X106.696 Y106.97 E7.86086
G1 X106.674 Y106.407 E7.89065
G1 X106.624 Y105.84 E7.92075
G1 X106.456 Y104.587 E7.98761
G1 X106.24 Y103.377 E8.05261
G1 X105.969 Y102.163 E8.11839
G1 X105.86 Y101.763 E8.14032
G1 X83.781 Y101.762 E9.30793
G1 X83.733 Y102.004 E9.32098
G0 F9000 X83.334 Y101.951
G1 F1800 X83.134 Y102.527 E9.35323
G1 X83.019 Y102.799 E9.36884
G1 X82.746 Y103.341 E9.40094
G1 X82.498 Y103.705 E9.42423
G1 X82.498 Y104.453 E9.46379
G1 X82.6 Y104.571 E9.47203
G1 X82.933 Y105.078 E9.50411
G1 X83.197 Y105.624 E9.53618
G1 X83.36 Y106.102 E9.56289
G1 X84.644 Y110.673 E9.81398
G1 X84.878 Y110.706 E9.82648
G1 X85.814 Y110.863 E9.87667
G1 X86.014 Y110.901 E9.88743
G1 X86.946 Y111.1 E9.93783
G1 X87.153 Y111.15 E9.94909
G1 X88.075 Y111.392 E9.9995
G1 X88.259 Y111.444 E10.00962
G1 X89.166 Y111.723 E10.0598
G1 X89.367 Y111.79 E10.071
G1 X89.828 Y111.955 E10.0969
G1 X105.335 Y111.12 E10.91815
G1 X105.664 Y111.073 E10.93573
G1 X106.1 Y110.992 E10.95918
G1 X106.52 Y110.896 E10.98196
G1 X106.639 Y110.506 E11.00353
G1 X106.795 Y109.895 E11.03687
G1 X106.907 Y109.353 E11.06614
G1 X106.994 Y108.759 E11.09789
G1 X107.057 Y108.169 E11.12927
G1 X107.091 Y107.554 E11.16184
G1 X107.096 Y106.966 E11.19294
G1 X107.074 Y106.396 E11.22311
G1 X107.02 Y105.775 E11.25607
G1 X106.852 Y104.527 E11.32266
G1 X106.635 Y103.311 E11.38799
G1 X106.356 Y102.063 E11.45561
G1 X106.166 Y101.363 E11.49397
G1 X83.454 Y101.362 E12.69506
G1 X83.334 Y101.951 E12.72685
G0 F9000 X82.934 Y101.895
G1 F1800 X82.765 Y102.372 E12.75362
G1 X82.65 Y102.644 E12.76923
G1 X82.389 Y103.16 E12.79981
G1 X82.098 Y103.578 E12.82675
G1 X82.098 Y104.597 E12.88064
G1 X82.387 Y104.959 E12.90513
G1 X82.682 Y105.457 E12.93574
G1 X82.975 Y106.21 E12.97847
G1 X84.331 Y111.037 E13.24362
G1 X84.629 Y111.074 E13.2595
G1 X84.812 Y111.101 E13.26928
G1 X85.748 Y111.258 E13.31948
G1 X85.93 Y111.293 E13.32928
G1 X86.862 Y111.492 E13.37967
G1 X87.051 Y111.537 E13.38995
G1 X87.973 Y111.779 E13.44036
G1 X88.142 Y111.827 E13.44965
G1 X89.049 Y112.106 E13.49983
G1 X89.232 Y112.167 E13.51004
G1 X89.767 Y112.359 E13.54009
G1 X105.378 Y111.518 E14.36686
G1 X105.724 Y111.469 E14.38534
G1 X106.188 Y111.382 E14.4103
G1 X106.671 Y111.272 E14.4365
G1 X106.841 Y111.218 E14.44593
G1 X107.023 Y110.62 E14.47899
G1 X107.181 Y109.999 E14.51288
G1 X107.303 Y109.41 E14.54469
G1 X107.391 Y108.81 E14.57676
G1 X107.454 Y108.214 E14.60845
G1 X107.491 Y107.558 E14.6432
G1 X107.496 Y106.975 E14.67403
G1 X107.472 Y106.349 E14.70716
G1 X107.419 Y105.747 E14.73912
G1 X107.249 Y104.482 E14.80662
G1 X107.025 Y103.222 E14.8743
G1 X106.741 Y101.958 E14.94281
G1 X106.472 Y100.963 E14.99732
G1 X83.082 Y100.962 E16.23426
G1 X83.055 Y101.328 E16.25367
G1 X82.934 Y101.895 E16.28433
G0 F9000 X82.534 Y101.836
G1 F1800 X82.397 Y102.216 E16.30569
G1 X82.282 Y102.488 E16.32131
G1 X82.031 Y102.978 E16.35042
G1 X81.712 Y103.428 E16.3796
G1 X81.698 Y103.443 E16.38068
G1 X81.698 Y104.755 E16.45006
G1 X81.837 Y104.898 E16.46061
G1 X82.161 Y105.344 E16.48976
G1 X82.416 Y105.832 E16.51888
G1 X82.589 Y106.319 E16.54621
G1 X84.016 Y111.402 E16.82541
G1 X84.58 Y111.471 E16.85546
G1 X84.746 Y111.495 E16.86433
G1 X85.682 Y111.652 E16.91452
G1 X85.846 Y111.684 E16.92336
G1 X86.778 Y111.883 E16.97376
G1 X86.95 Y111.923 E16.98309
G1 X87.872 Y112.165 E17.0335
G1 X88.024 Y112.209 E17.04187
G1 X88.931 Y112.488 E17.09206
G1 X89.097 Y112.543 E17.1013
G1 X89.711 Y112.763 E17.1358
G1 X105.409 Y111.917 E17.96717
G1 X105.788 Y111.863 E17.98741
G1 X106.272 Y111.773 E18.01345
G1 X106.768 Y111.66 E18.04035
G1 X107.145 Y111.558 E18.061
G1 X107.222 Y111.342 E18.07313
G1 X107.41 Y110.722 E18.10739
G1 X107.57 Y110.093 E18.14172
G1 X107.698 Y109.478 E18.17494
G1 X107.788 Y108.864 E18.20775
G1 X107.854 Y108.237 E18.2411
G1 X107.891 Y107.585 E18.27563
G1 X107.896 Y106.963 E18.30853
G1 X107.872 Y106.34 E18.3415
G1 X107.814 Y105.675 E18.3768
G1 X107.646 Y104.428 E18.44334
G1 X107.413 Y103.121 E18.51355
G1 X107.135 Y101.882 E18.5807
G1 X106.794 Y100.622 E18.64973
G1 X106.775 Y100.563 E18.65301
G1 X82.698 Y100.562 E19.92629
G1 X82.697 Y100.749 E19.93618
G1 X82.655 Y101.299 E19.96535
G1 X82.534 Y101.836 E19.99446
G0 F9000 X82.135 Y101.774
G1 F1800 X82.029 Y102.06 E20.01059
G1 X81.914 Y102.332 E20.02621
G1 X81.674 Y102.795 E20.05378
G1 X81.367 Y103.216 E20.08134
G1 X81.298 Y103.285 E20.0865
G1 X81.298 Y104.906 E20.17222
G1 X81.637 Y105.288 E20.19923
G1 X81.92 Y105.726 E20.22681
G1 X82.204 Y106.427 E20.26681
G1 X83.703 Y111.766 E20.56007
G1 X84.532 Y111.868 E20.60424
G1 X84.679 Y111.89 E20.6121
G1 X85.615 Y112.047 E20.66229
G1 X85.763 Y112.075 E20.67026
G1 X86.695 Y112.274 E20.72066
G1 X86.848 Y112.31 E20.72897
G1 X87.77 Y112.552 E20.77938
G1 X87.907 Y112.591 E20.78691
G1 X88.814 Y112.87 E20.8371
G1 X88.962 Y112.92 E20.84536
G1 X89.65 Y113.167 E20.88402
G1 X105.454 Y112.315 E21.721
G1 X105.867 Y112.256 E21.74306
G1 X106.337 Y112.169 E21.76834
G1 X106.866 Y112.048 E21.79704
G1 X107.363 Y111.913 E21.82428
G1 X107.454 Y111.883 E21.82934
G1 X107.595 Y111.485 E21.85167
G1 X107.796 Y110.824 E21.88821
G1 X107.964 Y110.165 E21.92417
G1 X108.088 Y109.566 E21.95652
G1 X108.188 Y108.891 E21.99261
G1 X108.252 Y108.281 E22.02504
G1 X108.291 Y107.589 E22.0617
G1 X108.296 Y106.951 E22.09544
G1 X108.271 Y106.311 E22.12931
G1 X108.215 Y105.66 E22.16386
G1 X108.037 Y104.337 E22.23446
G1 X107.81 Y103.069 E22.30258
G1 X107.521 Y101.777 E22.3726
G1 X107.18 Y100.516 E22.44168
G1 X107.068 Y100.163 E22.46126
G1 X82.282 Y100.162 E23.77204
G1 X82.298 Y100.459 E23.78777
G1 X82.297 Y100.748 E23.80305
G1 X82.255 Y101.267 E23.83059
G1 X82.135 Y101.774 E23.85814
G0 F9000 X81.66 Y101.904
G1 F1800 X81.545 Y102.176 E23.87376
G1 X81.318 Y102.61 E23.89966
G1 X81.024 Y103.001 E23.92553
G1 X80.898 Y103.115 E23.93451
G1 X80.898 Y105.093 E24.03912
G1 X81.118 Y105.292 E24.0548
G1 X81.423 Y105.675 E24.0807
G1 X81.661 Y106.103 E24.1066
G1 X81.819 Y106.535 E24.13092
G1 X83.392 Y112.135 E24.43853
G1 X83.539 Y112.149 E24.44634
G1 X84.483 Y112.265 E24.49664
G1 X84.613 Y112.284 E24.50359
G1 X85.549 Y112.441 E24.55378
G1 X85.679 Y112.466 E24.56078
G1 X86.611 Y112.665 E24.61118
G1 X86.747 Y112.697 E24.61856
G1 X87.669 Y112.939 E24.66897
G1 X87.789 Y112.974 E24.67558
G1 X88.696 Y113.253 E24.72577
G1 X88.827 Y113.296 E24.73306
G1 X89.591 Y113.57 E24.77598
G1 X105.497 Y112.713 E25.61837
G1 X105.927 Y112.652 E25.64134
G1 X106.42 Y112.56 E25.66786
G1 X106.974 Y112.434 E25.6979
G1 X107.459 Y112.301 E25.7245
G1 X107.763 Y112.203 E25.74139
G1 X107.775 Y112.175 E25.743
G1 X107.978 Y111.603 E25.7751
G1 X108.182 Y110.933 E25.81214
G1 X108.348 Y110.279 E25.84782
G1 X108.485 Y109.62 E25.88342
G1 X108.585 Y108.941 E25.91971
G1 X108.652 Y108.305 E25.95353
G1 X108.691 Y107.614 E25.99013
G1 X108.696 Y106.943 E26.02562
G1 X108.67 Y106.282 E26.0606
G1 X108.61 Y105.593 E26.09718
G1 X108.436 Y104.294 E26.16649
G1 X108.204 Y102.999 E26.23606
G1 X107.91 Y101.683 E26.30737
G1 X107.564 Y100.404 E26.37744
G1 X107.361 Y99.763 E26.413
G1 X81.828 Y99.762 E27.76327
G1 X81.892 Y100.245 E27.78904
G1 X81.898 Y100.457 E27.80026
G1 X81.897 Y100.746 E27.81554
G1 X81.855 Y101.234 E27.84144
G1 X81.66 Y101.904 E27.87834
G0 F9000 X81.292 Y101.748
G1 F1800 X81.177 Y102.02 E27.89396
G1 X80.963 Y102.423 E27.91809
G1 X80.683 Y102.782 E27.94217
G1 X80.498 Y102.944 E27.95517
G1 X80.498 Y105.282 E28.07882
G1 X80.61 Y105.361 E28.08606
G1 X80.931 Y105.684 E28.11015
G1 X81.19 Y106.059 E28.13425
G1 X81.434 Y106.643 E28.16772
G1 X83.082 Y112.512 E28.4901
G1 X83.49 Y112.546 E28.51175
G1 X84.434 Y112.662 E28.56205
G1 X84.547 Y112.679 E28.56809
G1 X85.483 Y112.836 E28.61828
G1 X85.596 Y112.857 E28.62436
G1 X86.528 Y113.056 E28.67476
G1 X86.645 Y113.084 E28.68112
G1 X87.567 Y113.326 E28.73153
G1 X87.671 Y113.356 E28.73725
G1 X88.578 Y113.635 E28.78744
G1 X88.692 Y113.673 E28.79379
G1 X89.532 Y113.974 E28.84098
G1 X105.529 Y113.112 E29.68819
G1 X105.991 Y113.046 E29.71287
G1 X106.504 Y112.951 E29.74046
G1 X107.071 Y112.822 E29.77121
G1 X107.587 Y112.681 E29.7995
G1 X108.062 Y112.526 E29.82592
G1 X108.15 Y112.315 E29.83801
G1 X108.359 Y111.726 E29.87106
G1 X108.561 Y111.061 E29.90781
G1 X108.743 Y110.346 E29.94683
G1 X108.879 Y109.688 E29.98237
G1 X108.978 Y109.019 E30.01813
G1 X109.051 Y108.33 E30.05477
G1 X109.091 Y107.618 E30.09248
G1 X109.096 Y106.947 E30.12797
G1 X109.069 Y106.252 E30.16475
G1 X109.01 Y105.57 E30.20095
G1 X108.832 Y104.24 E30.27191
G1 X108.59 Y102.887 E30.3446
G1 X108.302 Y101.599 E30.4144
G1 X107.949 Y100.297 E30.48574
G1 X107.653 Y99.363 E30.53755
G1 X81.287 Y99.362 E31.93188
G1 X81.308 Y99.414 E31.93485
G1 X81.44 Y99.85 E31.95894
G1 X81.492 Y100.263 E31.98095
G1 X81.498 Y100.456 E31.99116
G1 X81.497 Y100.745 E32.00645
G1 X81.455 Y101.199 E32.03056
G1 X81.292 Y101.748 E32.06084
G0 F9000 X80.923 Y101.593
G1 F1800 X80.808 Y101.865 E32.07646
G1 X80.609 Y102.233 E32.09859
G1 X80.344 Y102.558 E32.12076
G1 X80.098 Y102.767 E32.13783
G1 X80.098 Y105.485 E32.28157
G1 X80.122 Y105.497 E32.28299
G1 X80.451 Y105.756 E32.30513
G1 X80.725 Y106.073 E32.32729
G1 X80.934 Y106.436 E32.34944
G1 X81.049 Y106.751 E32.36718
G1 X82.773 Y112.889 E32.70434
G1 X83.441 Y112.943 E32.73978
G1 X84.385 Y113.059 E32.79007
G1 X84.481 Y113.073 E32.79521
G1 X85.417 Y113.23 E32.8454
G1 X85.512 Y113.248 E32.85051
G1 X86.444 Y113.447 E32.90091
G1 X86.544 Y113.471 E32.90635
G1 X87.466 Y113.713 E32.95676
G1 X87.554 Y113.738 E32.96159
G1 X88.461 Y114.017 E33.01178
G1 X88.557 Y114.049 E33.01713
G1 X89.443 Y114.367 E33.06691
G1 X89.498 Y114.376 E33.06986
G1 X105.574 Y113.51 E33.92125
G1 X106.048 Y113.443 E33.94656
G1 X106.592 Y113.341 E33.97583
G1 X107.168 Y113.21 E34.00707
G1 X107.688 Y113.068 E34.03558
G1 X108.187 Y112.906 E34.06332
G1 X108.364 Y112.841 E34.0733
G1 X108.519 Y112.471 E34.09451
G1 X108.735 Y111.864 E34.12858
G1 X108.952 Y111.149 E34.1681
G1 X109.133 Y110.439 E34.20685
G1 X109.274 Y109.759 E34.24357
G1 X109.375 Y109.07 E34.2804
G1 X109.449 Y108.373 E34.31746
G1 X109.491 Y107.624 E34.35714
G1 X109.497 Y106.935 E34.39357
G1 X109.469 Y106.244 E34.43015
G1 X109.405 Y105.505 E34.46937
G1 X109.228 Y104.187 E34.5397
G1 X108.984 Y102.817 E34.61329
G1 X108.689 Y101.499 E34.68472
G1 X108.329 Y100.17 E34.75753
G1 X107.946 Y98.963 E34.8245
G1 X80.651 Y98.962 E36.26796
G1 X80.708 Y99.044 E36.27324
G1 X80.836 Y99.311 E36.2889
G1 X80.937 Y99.563 E36.30325
G1 X81.055 Y99.965 E36.32541
G1 X81.093 Y100.281 E36.34224
G1 X81.098 Y100.455 E36.35145
G1 X81.097 Y100.744 E36.36673
G1 X81.056 Y101.161 E36.38889
G1 X80.923 Y101.593 E36.41279
G0 F9000 X80.555 Y101.437
G1 F1800 X80.44 Y101.709 E36.42841
G1 X80.256 Y102.041 E36.44848
G1 X80.008 Y102.326 E36.46846
G1 X79.698 Y102.567 E36.48923
G1 X79.698 Y105.721 E36.65602
G1 X79.995 Y105.894 E36.6742
G1 X80.276 Y106.149 E36.69427
G1 X80.496 Y106.458 E36.71433
G1 X80.664 Y106.859 E36.73732
G1 X82.463 Y113.266 E37.08925
G1 X83.313 Y113.332 E37.13433
G1 X83.393 Y113.34 E37.13859
G1 X84.337 Y113.456 E37.18888
G1 X85.351 Y113.625 E37.24325
G1 X85.429 Y113.64 E37.24745
G1 X86.361 Y113.839 E37.29785
G1 X86.442 Y113.858 E37.30225
G1 X87.364 Y114.1 E37.35266
G1 X88.343 Y114.4 E37.40681
G1 X88.422 Y114.426 E37.4112
G1 X89.324 Y114.749 E37.46187
G1 X89.521 Y114.776 E37.47239
G1 X105.606 Y113.909 E38.32425
G1 X106.108 Y113.838 E38.35107
G1 X106.681 Y113.731 E38.38189
G1 X107.243 Y113.603 E38.41237
G1 X107.835 Y113.442 E38.44482
G1 X108.291 Y113.294 E38.47017
G1 X108.666 Y113.156 E38.4913
G1 X108.892 Y112.616 E38.52226
G1 X109.117 Y111.981 E38.55789
G1 X109.339 Y111.252 E38.59819
G1 X109.517 Y110.554 E38.63628
G1 X109.667 Y109.83 E38.67538
G1 X109.775 Y109.096 E38.71462
G1 X109.849 Y108.397 E38.75179
G1 X109.89 Y107.649 E38.79141
G1 X109.897 Y106.944 E38.82869
G1 X109.867 Y106.194 E38.86838
G1 X109.805 Y105.478 E38.90639
G1 X109.62 Y104.102 E38.97981
G1 X109.38 Y102.756 E39.05212
G1 X109.071 Y101.377 E39.12685
G1 X108.721 Y100.085 E39.19764
G1 X108.271 Y98.663 E39.27652
G1 X108.237 Y98.563 E39.2821
G1 X79.71 Y98.562 E40.79071
G1 X79.917 Y98.722 E40.80455
G1 X80.186 Y98.988 E40.82456
G1 X80.465 Y99.459 E40.85351
G1 X80.566 Y99.711 E40.86786
G1 X80.669 Y100.076 E40.88792
G1 X80.696 Y100.365 E40.90327
G1 X80.698 Y100.453 E40.90792
G1 X80.697 Y100.742 E40.92321
G1 X80.656 Y101.119 E40.94326
G1 X80.555 Y101.437 E40.96091
G0 F9000 X80.256 Y101.072
G1 F1800 X80.186 Y101.281 E40.97256
G1 X80.071 Y101.553 E40.98818
G1 X79.906 Y101.843 E41.00582
G1 X79.599 Y102.145 E41.0286
G1 X79.298 Y102.343 E41.04765
G1 X79.298 Y105.999 E41.24099
G1 X79.575 Y106.103 E41.25664
G1 X79.852 Y106.291 E41.27435
G1 X80.075 Y106.539 E41.29198
G1 X80.279 Y106.967 E41.31706
G1 X82.156 Y113.65 E41.68415
G1 X82.333 Y113.657 E41.69352
G1 X83.344 Y113.737 E41.74715
G1 X84.349 Y113.862 E41.80071
G1 X85.285 Y114.019 E41.8509
G1 X86.277 Y114.23 E41.90454
G1 X87.262 Y114.487 E41.95837
