;FLAVOR:Marlin
;TIME:5564
;Filament used: 1.1619m
;Layer height: 0.06
;MINX:61.669
;MINY:85.851
;MINZ:0.3
;MAXX:133.269
;MAXY:134.134
;MAXZ:4.02
;Generated with Cura_SteamEngine 4.10.0
M140 S57
M105
M190 S57
M104 S196
M105
M109 S196
M82 ;absolute extrusion mode
G28 ;Home
G1 Z15.0 F2000 ;Move the platform
G92 E0
G92 E0
G1 F1500 E-7
;LAYER_COUNT:63
;LAYER:0
M107
M204 S1000
G0 F6750 X65.081 Y87.48 Z0.3
;TYPE:SKIRT
G1 F1500 E0
G1 F1350 X65.744 Y87.051 E0.0394
G1 X66.509 Y86.663 E0.08219
G1 X66.839 Y86.518 E0.10018
G1 X67.577 Y86.237 E0.13957
G1 X68.34 Y86.033 E0.17898
G1 X68.813 Y85.946 E0.20297
G1 X68.866 Y85.938 E0.20564
G1 X70.03 Y85.851 E0.26388
G1 X124.907 Y85.851 E3.0017
G1 X125.696 Y85.891 E3.04112
G1 X126.476 Y86.01 E3.08048
G1 X127.07 Y86.157 E3.11101
G1 X127.361 Y86.241 E3.12612
G1 X128.108 Y86.498 E3.16553
G1 X128.825 Y86.829 E3.20493
G1 X129.504 Y87.232 E3.24432
G1 X130.356 Y87.884 E3.29785
G1 X130.508 Y88.018 E3.30796
G1 X131.073 Y88.57 E3.34737
G1 X131.58 Y89.175 E3.38675
G1 X132.137 Y90.025 E3.43745
G1 X132.218 Y90.168 E3.44565
G1 X132.572 Y90.874 E3.48505
G1 X132.853 Y91.612 E3.52445
G1 X133.095 Y92.563 E3.5734
G1 X133.133 Y92.764 E3.58361
G1 X133.24 Y93.546 E3.62299
G1 X133.269 Y94.213 E3.6563
G1 X133.269 Y99.089 E3.89956
G1 X133.229 Y99.878 E3.93897
G1 X133.126 Y100.575 E3.97413
G1 X133.113 Y100.642 E3.97753
G1 X132.881 Y101.547 E4.02414
G1 X132.805 Y101.783 E4.03651
G1 X132.525 Y102.521 E4.07589
G1 X132.241 Y103.103 E4.1082
G1 X131.832 Y103.778 E4.14758
G1 X131.356 Y104.409 E4.18701
G1 X130.834 Y104.974 E4.22539
G1 X130.68 Y105.125 E4.23615
G1 X130.089 Y105.649 E4.27555
G1 X129.448 Y106.11 E4.31494
G1 X129.075 Y106.336 E4.3367
G1 X128.37 Y106.693 E4.37613
G1 X127.594 Y106.989 E4.41756
G1 X127.165 Y107.114 E4.43985
G1 X127.248 Y107.775 E4.47309
G1 X127.269 Y108.352 E4.5019
G1 X127.269 Y124.55 E5.31002
G1 X127.229 Y125.339 E5.34943
G1 X127.152 Y125.895 E5.37744
G1 X127.068 Y126.375 E5.40175
G1 X126.885 Y127.173 E5.44259
G1 X126.819 Y127.404 E5.45458
G1 X126.564 Y128.151 E5.49396
G1 X126.175 Y128.981 E5.53969
G1 X126.022 Y129.263 E5.5557
G1 X125.42 Y130.204 E5.61143
G1 X125.3 Y130.365 E5.62145
G1 X124.574 Y131.207 E5.67691
G1 X124.354 Y131.428 E5.69247
G1 X123.5 Y132.17 E5.74891
G1 X123.341 Y132.289 E5.75882
G1 X122.392 Y132.897 E5.81505
G1 X122.116 Y133.047 E5.83072
G1 X121.13 Y133.497 E5.88479
G1 X120.946 Y133.566 E5.8946
G1 X119.907 Y133.876 E5.94869
G1 X119.598 Y133.945 E5.96449
G1 X118.515 Y134.108 E6.01913
G1 X118.326 Y134.123 E6.02859
G1 X117.265 Y134.134 E6.08152
G1 X116.967 Y134.117 E6.09641
G1 X116.182 Y134.033 E6.1358
G1 X115.626 Y133.923 E6.16408
G1 X115.409 Y133.872 E6.1752
G1 X114.486 Y133.594 E6.22329
G1 X114.151 Y133.47 E6.24111
G1 X113.426 Y133.159 E6.28047
G1 X112.671 Y132.736 E6.32365
G1 X112.462 Y132.603 E6.33601
G1 X111.663 Y132.019 E6.38538
G1 X111.366 Y131.772 E6.40465
G1 X110.884 Y131.328 E6.43735
G1 X109.907 Y131.49 E6.48676
G1 X108.337 Y131.636 E6.56542
G1 X108.044 Y131.658 E6.58008
G1 X107.917 Y131.665 E6.58643
G1 X106.996 Y131.661 E6.63237
G1 X105.188 Y131.546 E6.72276
G1 X104.933 Y131.525 E6.73552
G1 X104.653 Y131.497 E6.74956
G1 X102.633 Y131.257 E6.85105
G1 X102.332 Y131.215 E6.86621
G1 X101.978 Y131.158 E6.8841
G1 X100.422 Y130.889 E6.96288
G1 X98.406 Y130.502 E7.0653
G1 X96.209 Y130.099 E7.17673
G1 X93.25 Y129.589 E7.32654
G1 X90.608 Y129.167 E7.46002
G1 X87.767 Y128.751 E7.60327
G1 X86.09 Y128.52 E7.68772
G1 X85.134 Y128.433 E7.73561
G1 X84.691 Y128.426 E7.75772
G1 X84.599 Y128.467 E7.76274
G1 X84.046 Y128.685 E7.7924
G1 X83.476 Y128.885 E7.82254
G1 X83.179 Y129.366 E7.85074
G1 X82.699 Y129.993 E7.89013
G1 X82.157 Y130.567 E7.92952
G1 X81.56 Y131.084 E7.96892
G1 X80.914 Y131.538 E8.00831
G1 X80.225 Y131.925 E8.04774
G1 X79.501 Y132.239 E8.08711
G1 X78.748 Y132.479 E8.12654
G1 X77.976 Y132.642 E8.1659
G1 X77.19 Y132.725 E8.20534
G1 X76.759 Y132.737 E8.22685
G1 X74.059 Y132.737 E8.36155
G1 X73.27 Y132.697 E8.40096
G1 X72.49 Y132.578 E8.44033
G1 X71.725 Y132.38 E8.47975
G1 X70.985 Y132.106 E8.51912
G1 X70.276 Y131.758 E8.55852
G1 X69.605 Y131.34 E8.59796
G1 X68.981 Y130.857 E8.63733
G1 X68.408 Y130.314 E8.67672
G1 X67.893 Y129.715 E8.71613
G1 X67.442 Y129.067 E8.75552
G1 X67.058 Y128.376 E8.79495
G1 X66.746 Y127.651 E8.83433
G1 X66.509 Y126.898 E8.87372
G1 X66.35 Y126.124 E8.91314
G1 X66.269 Y125.339 E8.95251
G1 X66.259 Y124.937 E8.97257
G1 X66.259 Y108.438 E9.79571
G1 X66.299 Y107.649 E9.83512
G1 X66.418 Y106.869 E9.87449
G1 X66.475 Y106.647 E9.88592
G1 X65.82 Y106.313 E9.92261
G1 X65.157 Y105.884 E9.962
G1 X64.541 Y105.391 E10.00137
G1 X64.22 Y105.09 E10.02332
G1 X64.071 Y104.942 E10.0338
G1 X63.54 Y104.358 E10.07318
G1 X62.944 Y103.526 E10.12424
G1 X62.56 Y102.836 E10.16363
G1 X62.13 Y101.773 E10.22084
G1 X62.055 Y101.539 E10.2331
G1 X61.839 Y100.709 E10.27589
G1 X61.825 Y100.64 E10.2794
G1 X61.707 Y99.859 E10.31881
G1 X61.669 Y99.089 E10.35727
G1 X61.669 Y94.212 E10.60058
G1 X61.709 Y93.423 E10.64
G1 X61.842 Y92.578 E10.68267
G1 X61.893 Y92.34 E10.69482
G1 X62.097 Y91.577 E10.73422
G1 X62.378 Y90.839 E10.77362
G1 X62.732 Y90.133 E10.81302
G1 X63.271 Y89.306 E10.86227
G1 X63.398 Y89.136 E10.87286
G1 X63.902 Y88.528 E10.91226
G1 X64.465 Y87.974 E10.95166
G1 X65.081 Y87.48 E10.99106
G0 F6750 X65.364 Y87.769
G1 F1350 X66.014 Y87.357 E11.02945
G1 X66.67 Y87.029 E11.06604
G1 X67 Y86.884 E11.08402
G1 X67.719 Y86.612 E11.12238
G1 X68.463 Y86.415 E11.16077
G1 X68.926 Y86.334 E11.18422
G1 X70.03 Y86.251 E11.23946
G1 X124.907 Y86.251 E13.97728
G1 X125.675 Y86.291 E14.01565
G1 X126.435 Y86.41 E14.05403
G1 X126.959 Y86.541 E14.08098
G1 X127.25 Y86.625 E14.09609
G1 X127.977 Y86.877 E14.13447
G1 X128.674 Y87.202 E14.17284
G1 X129.333 Y87.598 E14.2112
G1 X130.092 Y88.184 E14.25904
G1 X130.244 Y88.318 E14.26915
G1 X130.793 Y88.856 E14.3075
G1 X131.284 Y89.448 E14.34587
G1 X131.789 Y90.222 E14.39198
G1 X131.87 Y90.365 E14.40017
G1 X132.214 Y91.053 E14.43855
G1 X132.484 Y91.773 E14.47691
G1 X132.702 Y92.637 E14.52137
G1 X132.74 Y92.838 E14.53158
G1 X132.844 Y93.601 E14.56999
G1 X132.869 Y94.213 E14.60055
G1 X132.869 Y99.089 E14.84382
G1 X132.829 Y99.857 E14.88218
G1 X132.734 Y100.499 E14.91456
G1 X132.721 Y100.566 E14.91797
G1 X132.5 Y101.424 E14.96217
G1 X132.424 Y101.66 E14.97454
G1 X132.15 Y102.379 E15.01293
G1 X131.888 Y102.913 E15.0426
G1 X131.489 Y103.571 E15.08099
G1 X131.024 Y104.183 E15.11934
G1 X130.554 Y104.689 E15.1538
G1 X130.4 Y104.84 E15.16456
G1 X129.823 Y105.349 E15.20294
G1 X128.876 Y105.989 E15.25997
G1 X128.19 Y106.335 E15.2983
G1 X127.471 Y106.608 E15.33667
G1 X127.241 Y106.682 E15.34872
G1 X126.713 Y106.817 E15.37591
G1 X126.756 Y107.061 E15.38827
G1 X126.85 Y107.824 E15.42663
G1 X126.869 Y108.352 E15.45298
G1 X126.869 Y124.55 E16.26111
G1 X126.829 Y125.318 E16.29947
G1 X126.758 Y125.826 E16.32506
G1 X126.674 Y126.306 E16.34938
G1 X126.5 Y127.063 E16.38813
G1 X126.434 Y127.294 E16.40011
G1 X126.185 Y128.022 E16.4385
G1 X125.823 Y128.79 E16.48086
G1 X125.67 Y129.072 E16.49686
G1 X125.099 Y129.965 E16.54975
G1 X124.979 Y130.126 E16.55976
G1 X124.29 Y130.925 E16.6124
G1 X124.07 Y131.146 E16.62796
G1 X123.26 Y131.849 E16.68147
G1 X123.101 Y131.968 E16.69137
G1 X122.201 Y132.546 E16.74474
G1 X121.925 Y132.696 E16.76041
G1 X120.989 Y133.123 E16.81174
G1 X120.805 Y133.192 E16.82154
G1 X119.82 Y133.485 E16.87281
G1 X119.511 Y133.554 E16.88861
G1 X118.483 Y133.709 E16.94047
G1 X118.294 Y133.724 E16.94993
G1 X117.288 Y133.735 E17.00012
G1 X116.99 Y133.718 E17.01502
G1 X116.225 Y133.634 E17.05341
G1 X115.718 Y133.534 E17.07919
G1 X115.501 Y133.483 E17.09031
G1 X114.625 Y133.219 E17.13596
G1 X114.29 Y133.095 E17.15378
G1 X113.584 Y132.791 E17.19213
G1 X112.886 Y132.398 E17.23209
G1 X112.677 Y132.265 E17.24445
G1 X111.918 Y131.712 E17.2913
G1 X111.621 Y131.465 E17.31058
G1 X111.056 Y130.943 E17.34895
G1 X111.014 Y130.895 E17.35213
G1 X110.92 Y130.918 E17.35696
G1 X109.87 Y131.092 E17.41006
G1 X108.3 Y131.238 E17.48873
G1 X108.022 Y131.259 E17.50264
G1 X107.895 Y131.266 E17.50898
G1 X107.021 Y131.262 E17.55259
G1 X105.221 Y131.147 E17.64257
G1 X104.966 Y131.126 E17.65534
G1 X104.7 Y131.099 E17.66868
G1 X102.68 Y130.859 E17.77016
G1 X102.394 Y130.82 E17.78456
G1 X102.046 Y130.764 E17.80215
G1 X100.352 Y130.47 E17.88793
G1 X98.443 Y130.103 E17.98491
G1 X96.199 Y129.691 E18.09874
G1 X93.38 Y129.205 E18.24145
G1 X90.652 Y128.769 E18.37928
G1 X87.887 Y128.364 E18.5187
G1 X86.135 Y128.123 E18.60693
G1 X85.151 Y128.034 E18.65622
G1 X84.611 Y128.025 E18.68316
G1 X84.438 Y128.101 E18.69259
G1 X83.914 Y128.307 E18.72068
G1 X83.213 Y128.553 E18.75775
G1 X82.827 Y129.172 E18.79414
G1 X82.355 Y129.779 E18.8325
G1 X81.822 Y130.334 E18.87089
G1 X81.235 Y130.83 E18.90923
G1 X80.599 Y131.263 E18.94762
G1 X79.921 Y131.627 E18.98601
G1 X79.21 Y131.919 E19.02436
G1 X78.472 Y132.136 E19.06273
G1 X77.715 Y132.275 E19.10113
G1 X76.759 Y132.337 E19.14893
G1 X74.059 Y132.337 E19.28363
G1 X73.291 Y132.297 E19.322
G1 X72.531 Y132.178 E19.36038
G1 X71.788 Y131.98 E19.39874
G1 X71.069 Y131.706 E19.43713
G1 X70.383 Y131.359 E19.47548
G1 X69.736 Y130.943 E19.51386
G1 X69.136 Y130.462 E19.55222
G1 X68.589 Y129.921 E19.5906
G1 X68.101 Y129.326 E19.629
G1 X67.678 Y128.684 E19.66735
G1 X67.323 Y128.001 E19.70576
G1 X67.042 Y127.286 E19.74408
G1 X66.836 Y126.544 E19.7825
G1 X66.708 Y125.786 E19.82085
G1 X66.659 Y124.937 E19.86328
G1 X66.659 Y108.438 E20.68642
G1 X66.699 Y107.67 E20.72479
G1 X66.818 Y106.91 E20.76317
G1 X66.945 Y106.432 E20.78784
G1 X66.935 Y106.403 E20.78937
G1 X66.669 Y106.299 E20.80362
G1 X65.986 Y105.946 E20.84198
G1 X65.343 Y105.525 E20.88032
G1 X64.502 Y104.806 E20.93552
G1 X64.353 Y104.658 E20.946
G1 X63.836 Y104.089 E20.98436
G1 X63.283 Y103.314 E21.03185
G1 X62.91 Y102.641 E21.07024
G1 X62.511 Y101.651 E21.12349
G1 X62.436 Y101.417 E21.13575
G1 X62.231 Y100.629 E21.17638
G1 X62.217 Y100.56 E21.17989
G1 X62.103 Y99.8 E21.21823
G1 X62.069 Y99.089 E21.25374
G1 X62.069 Y94.212 E21.49706
G1 X62.109 Y93.444 E21.53542
G1 X62.233 Y92.661 E21.57498
G1 X62.284 Y92.423 E21.58712
G1 X62.484 Y91.681 E21.62546
G1 X62.76 Y90.963 E21.66383
G1 X63.109 Y90.277 E21.70223
G1 X63.592 Y89.545 E21.74599
G1 X63.719 Y89.375 E21.75657
G1 X64.21 Y88.784 E21.79491
G1 X64.761 Y88.247 E21.83329
G1 X65.364 Y87.769 E21.87168
G0 F6750 X65.646 Y88.06
G1 F1350 X66.282 Y87.666 E21.90901
G1 X66.831 Y87.395 E21.93955
G1 X67.161 Y87.25 E21.95753
G1 X67.861 Y86.986 E21.99486
G1 X68.932 Y86.737 E22.04972
G1 X68.985 Y86.729 E22.05239
G1 X70.03 Y86.651 E22.10467
G1 X124.907 Y86.651 E24.8425
G1 X125.654 Y86.691 E24.87982
G1 X126.392 Y86.81 E24.91711
G1 X126.848 Y86.926 E24.94059
G1 X127.139 Y87.01 E24.9557
G1 X127.846 Y87.255 E24.99303
G1 X128.522 Y87.575 E25.03034
G1 X129.161 Y87.965 E25.06769
G1 X129.827 Y88.484 E25.10981
G1 X129.979 Y88.618 E25.11992
G1 X130.513 Y89.142 E25.15725
G1 X130.988 Y89.72 E25.19457
G1 X131.441 Y90.419 E25.23613
G1 X131.522 Y90.562 E25.24433
G1 X131.855 Y91.232 E25.28166
G1 X132.115 Y91.933 E25.31896
G1 X132.309 Y92.712 E25.35901
G1 X132.347 Y92.913 E25.36921
G1 X132.447 Y93.654 E25.40652
G1 X132.469 Y94.213 E25.43443
G1 X132.469 Y99.089 E25.67769
G1 X132.429 Y99.836 E25.71501
G1 X132.341 Y100.422 E25.74458
G1 X132.328 Y100.489 E25.74798
G1 X132.119 Y101.302 E25.78986
G1 X132.043 Y101.538 E25.80223
G1 X131.776 Y102.237 E25.83956
G1 X131.536 Y102.724 E25.86665
G1 X131.147 Y103.362 E25.90393
G1 X130.692 Y103.956 E25.94126
G1 X130.274 Y104.403 E25.97179
G1 X130.12 Y104.554 E25.98255
G1 X129.558 Y105.049 E26.01991
G1 X128.678 Y105.642 E26.07286
G1 X128.01 Y105.978 E26.11016
G1 X127.349 Y106.228 E26.14542
G1 X127.119 Y106.302 E26.15747
G1 X126.289 Y106.513 E26.2002
G1 X126.248 Y106.521 E26.20228
G1 X126.275 Y106.64 E26.20837
G1 X126.362 Y107.131 E26.23325
G1 X126.453 Y107.873 E26.27054
G1 X126.469 Y108.352 E26.29445
G1 X126.469 Y124.55 E27.10258
G1 X126.429 Y125.297 E27.1399
G1 X126.364 Y125.757 E27.16308
G1 X126.28 Y126.237 E27.18739
G1 X126.116 Y126.953 E27.22403
G1 X126.05 Y127.184 E27.23602
G1 X125.806 Y127.891 E27.27333
G1 X125.472 Y128.599 E27.31239
G1 X125.319 Y128.881 E27.32839
G1 X124.779 Y129.726 E27.37842
G1 X124.659 Y129.887 E27.38844
G1 X124.007 Y130.643 E27.43825
G1 X123.787 Y130.864 E27.45381
G1 X123.02 Y131.529 E27.50445
G1 X122.861 Y131.648 E27.51436
G1 X122.01 Y132.194 E27.5648
G1 X121.734 Y132.344 E27.58048
G1 X120.849 Y132.748 E27.62901
G1 X120.665 Y132.817 E27.63882
G1 X119.733 Y133.095 E27.68734
G1 X119.424 Y133.164 E27.70313
G1 X118.452 Y133.31 E27.75217
G1 X118.263 Y133.325 E27.76163
G1 X117.31 Y133.336 E27.80918
G1 X117.012 Y133.319 E27.82407
G1 X116.269 Y133.236 E27.86137
G1 X115.809 Y133.144 E27.88477
G1 X115.592 Y133.093 E27.89589
G1 X114.764 Y132.844 E27.93903
G1 X114.429 Y132.72 E27.95685
G1 X113.742 Y132.423 E27.99419
G1 X113.101 Y132.061 E28.03092
G1 X112.892 Y131.928 E28.04328
G1 X112.174 Y131.404 E28.08762
G1 X111.877 Y131.157 E28.1069
G1 X111.328 Y130.649 E28.14421
G1 X111.144 Y130.442 E28.15803
G1 X110.826 Y130.529 E28.17448
G1 X109.833 Y130.694 E28.2247
G1 X108.263 Y130.84 E28.30336
G1 X108 Y130.859 E28.31652
G1 X107.873 Y130.866 E28.32287
G1 X107.046 Y130.863 E28.36412
G1 X105.386 Y130.758 E28.44711
G1 X104.998 Y130.727 E28.46653
G1 X104.747 Y130.702 E28.47911
G1 X102.727 Y130.462 E28.5806
G1 X102.457 Y130.425 E28.59419
G1 X102.115 Y130.37 E28.61148
G1 X100.428 Y130.077 E28.6969
G1 X98.49 Y129.704 E28.79536
G1 X96.293 Y129.301 E28.9068
G1 X93.432 Y128.808 E29.05164
G1 X90.695 Y128.37 E29.18993
G1 X87.942 Y127.968 E29.32873
G1 X86.162 Y127.723 E29.41837
G1 X85.18 Y127.634 E29.46757
G1 X84.528 Y127.624 E29.5001
G1 X84.277 Y127.734 E29.51377
G1 X83.781 Y127.93 E29.54038
G1 X82.931 Y128.228 E29.58532
G1 X82.874 Y128.344 E29.59176
G1 X82.476 Y128.977 E29.62907
G1 X82.012 Y129.564 E29.6664
G1 X81.488 Y130.098 E29.70372
G1 X80.911 Y130.573 E29.74101
G1 X80.285 Y130.984 E29.77837
G1 X79.62 Y131.326 E29.81568
G1 X78.922 Y131.594 E29.85298
G1 X78.199 Y131.787 E29.89031
G1 X77.46 Y131.902 E29.92763
G1 X76.759 Y131.937 E29.96264
G1 X74.059 Y131.937 E30.09735
G1 X73.312 Y131.897 E30.13467
G1 X72.574 Y131.778 E30.17196
G1 X71.852 Y131.58 E30.20931
G1 X71.156 Y131.307 E30.24661
G1 X70.493 Y130.96 E30.28395
G1 X69.87 Y130.545 E30.32129
G1 X69.296 Y130.066 E30.35859
G1 X68.775 Y129.529 E30.39592
G1 X68.316 Y128.939 E30.43321
G1 X67.921 Y128.303 E30.47056
G1 X67.597 Y127.629 E30.50787
G1 X67.347 Y126.924 E30.54519
G1 X67.173 Y126.196 E30.58253
G1 X67.078 Y125.454 E30.61986
G1 X67.059 Y124.937 E30.64567
G1 X67.059 Y108.438 E31.4688
G1 X67.099 Y107.691 E31.50613
G1 X67.218 Y106.953 E31.54342
G1 X67.365 Y106.416 E31.5712
G1 X67.249 Y106.097 E31.58813
G1 X66.815 Y105.926 E31.6114
G1 X66.152 Y105.58 E31.64871
G1 X65.529 Y105.165 E31.68606
G1 X64.784 Y104.522 E31.73516
G1 X64.635 Y104.374 E31.74564
G1 X64.133 Y103.82 E31.78293
G1 X63.622 Y103.102 E31.8269
G1 X63.26 Y102.447 E31.86424
G1 X62.892 Y101.529 E31.91358
G1 X62.817 Y101.295 E31.92584
G1 X62.623 Y100.55 E31.96425
G1 X62.609 Y100.481 E31.96776
G1 X62.499 Y99.741 E32.00508
G1 X62.469 Y99.089 E32.03765
G1 X62.469 Y94.212 E32.28096
G1 X62.509 Y93.465 E32.31828
G1 X62.624 Y92.745 E32.35466
G1 X62.675 Y92.507 E32.3668
G1 X62.871 Y91.785 E32.40413
G1 X63.143 Y91.088 E32.44145
G1 X63.487 Y90.424 E32.47876
G1 X63.912 Y89.785 E32.51705
G1 X64.039 Y89.615 E32.52764
G1 X64.518 Y89.04 E32.56497
G1 X65.056 Y88.52 E32.6023
G1 X65.646 Y88.06 E32.63963
G0 F6750 X65.927 Y88.353
G1 F1350 X66.548 Y87.977 E32.67585
G1 X66.992 Y87.762 E32.70046
G1 X67.322 Y87.617 E32.71844
G1 X68.002 Y87.361 E32.75469
G1 X68.992 Y87.133 E32.80537
G1 X69.045 Y87.125 E32.80805
G1 X70.03 Y87.051 E32.85733
G1 X124.907 Y87.051 E35.59515
G1 X125.632 Y87.091 E35.63138
G1 X126.349 Y87.21 E35.66764
G1 X126.737 Y87.31 E35.68763
G1 X127.028 Y87.394 E35.70274
G1 X127.714 Y87.633 E35.73898
G1 X128.369 Y87.947 E35.77522
G1 X128.986 Y88.33 E35.81145
G1 X129.563 Y88.784 E35.84808
G1 X129.715 Y88.918 E35.85819
G1 X130.232 Y89.428 E35.89442
G1 X130.691 Y89.991 E35.93066
G1 X131.093 Y90.616 E35.96774
G1 X131.174 Y90.759 E35.97594
G1 X131.496 Y91.41 E36.01217
