;FLAVOR:Marlin
;TIME:18795
;Filament used: 4.04883m
;Layer height: 0.06
;MINX:53.198
;MINY:73.59
;MINZ:0.3
;MAXX:166.798
;MAXY:146.393
;MAXZ:7.02
;Generated with Cura_SteamEngine 4.10.0
M140 S57
M105
M190 S57
M104 S196
M105
M109 S196
M82 ;absolute extrusion mode
G28 ;Home
G1 Z15.0 F2000 ;Move the platform
G92 E0
G92 E0
G1 F1500 E-7
;LAYER_COUNT:113
;LAYER:0
M107
M204 S1000
G0 F6750 X81.165 Y99.69 Z0.3
;TYPE:SKIRT
G1 F1500 E0
G1 F1350 X81.085 Y99.999 E0.01592
G1 X81.013 Y100.229 E0.02795
G1 X80.739 Y100.97 E0.06736
G1 X80.392 Y101.679 E0.10674
G1 X80.041 Y102.244 E0.13993
G1 X80.041 Y102.66 E0.16068
G1 X80.372 Y103.136 E0.18961
G1 X80.756 Y103.827 E0.22905
G1 X81.068 Y104.552 E0.26843
G1 X81.264 Y105.157 E0.30015
G1 X82.815 Y110.678 E0.58626
G1 X83.086 Y110.722 E0.59996
G1 X83.36 Y110.771 E0.61384
G1 X84.625 Y111.012 E0.67809
G1 X84.991 Y111.089 E0.69675
G1 X85.186 Y111.135 E0.70675
G1 X86.754 Y111.523 E0.78733
G1 X87.076 Y111.613 E0.80401
G1 X88.147 Y111.932 E0.85977
G1 X88.398 Y112.011 E0.87289
G1 X89.399 Y112.347 E0.92557
G1 X110.729 Y111.2 E1.99127
G1 X111.732 Y111.032 E2.042
G1 X111.816 Y110.744 E2.05697
G1 X112.125 Y109.226 E2.13426
G1 X112.297 Y107.362 E2.22765
G1 X112.197 Y104.775 E2.35681
G1 X111.859 Y102.426 E2.47521
G1 X111.428 Y100.321 E2.58241
G1 X111.268 Y99.69 E2.61488
G1 X81.165 Y99.69 E4.11673
G0 F6750 X80.703 Y99.88
G1 F1350 X80.631 Y100.11 E4.12875
G1 X80.363 Y100.831 E4.16713
G1 X80.022 Y101.52 E4.20548
G1 X79.641 Y102.125 E4.24115
G1 X79.641 Y102.789 E4.27428
G1 X79.713 Y102.877 E4.27995
G1 X80.136 Y103.519 E4.31831
G1 X80.491 Y104.202 E4.35671
G1 X80.879 Y105.265 E4.41317
G1 X82.5 Y111.035 E4.71218
G1 X82.82 Y111.083 E4.72832
G1 X83.191 Y111.146 E4.7471
G1 X84.55 Y111.405 E4.81612
G1 X84.906 Y111.48 E4.83427
G1 X85.091 Y111.523 E4.84374
G1 X86.487 Y111.867 E4.91547
G1 X86.782 Y111.945 E4.9307
G1 X86.961 Y111.996 E4.93998
G1 X88.032 Y112.315 E4.99573
G1 X88.271 Y112.39 E5.00823
G1 X89.223 Y112.709 E5.05832
G1 X89.343 Y112.751 E5.06467
G1 X110.773 Y111.598 E6.13536
G1 X112.045 Y111.385 E6.1997
G1 X112.204 Y110.846 E6.22774
G1 X112.52 Y109.288 E6.30705
G1 X112.698 Y107.367 E6.4033
G1 X112.596 Y104.743 E6.53431
G1 X112.251 Y102.343 E6.65528
G1 X111.817 Y100.227 E6.76304
G1 X111.58 Y99.29 E6.81126
G1 X80.858 Y99.29 E8.34399
G1 X80.703 Y99.88 E8.37442
G0 F6750 X80.321 Y99.76
G1 F1350 X80.249 Y99.99 E8.38645
G1 X79.988 Y100.691 E8.42377
G1 X79.653 Y101.36 E8.46109
G1 X79.241 Y102 E8.49907
G1 X79.241 Y102.934 E8.54567
G1 X79.498 Y103.264 E8.56653
G1 X79.893 Y103.9 E8.60388
G1 X80.217 Y104.574 E8.64119
G1 X80.494 Y105.373 E8.68338
G1 X82.185 Y111.393 E8.99535
G1 X82.761 Y111.479 E9.0244
G1 X83.121 Y111.54 E9.04262
G1 X84.475 Y111.798 E9.11139
G1 X84.82 Y111.871 E9.12898
G1 X84.995 Y111.911 E9.13793
G1 X86.391 Y112.255 E9.20966
G1 X86.678 Y112.331 E9.22448
G1 X86.847 Y112.379 E9.23324
G1 X87.918 Y112.698 E9.28899
G1 X88.144 Y112.77 E9.30083
G1 X89.096 Y113.089 E9.35092
G1 X89.282 Y113.155 E9.36076
G1 X110.816 Y111.996 E10.43666
G1 X112.13 Y111.776 E10.50312
G1 X112.364 Y111.718 E10.51515
G1 X112.592 Y110.948 E10.55522
G1 X112.918 Y109.339 E10.63712
G1 X113.098 Y107.389 E10.73482
G1 X112.994 Y104.699 E10.86912
G1 X112.647 Y102.285 E10.9908
G1 X112.218 Y100.185 E11.09773
G1 X111.89 Y98.89 E11.16438
G1 X80.525 Y98.89 E12.72918
G1 X80.482 Y99.154 E12.74253
G1 X80.321 Y99.76 E12.77381
G0 F6750 X79.94 Y99.641
G1 F1350 X79.868 Y99.871 E12.78583
G1 X79.613 Y100.551 E12.82207
G1 X79.285 Y101.199 E12.8583
G1 X78.888 Y101.807 E12.89453
G1 X78.841 Y101.864 E12.89821
G1 X78.841 Y103.06 E12.95788
G1 X79.276 Y103.65 E12.99445
G1 X79.64 Y104.279 E13.03071
G1 X79.933 Y104.944 E13.06697
G1 X80.109 Y105.481 E13.09516
G1 X81.87 Y111.75 E13.42003
G1 X82.876 Y111.903 E13.47079
G1 X83.135 Y111.95 E13.48392
G1 X84.4 Y112.191 E13.54817
G1 X84.734 Y112.261 E13.5652
G1 X84.899 Y112.3 E13.57366
G1 X86.44 Y112.681 E13.65285
G1 X86.733 Y112.763 E13.66803
G1 X87.804 Y113.082 E13.72378
G1 X88.017 Y113.149 E13.73492
G1 X88.969 Y113.468 E13.78501
G1 X89.223 Y113.559 E13.79847
G1 X110.859 Y112.395 E14.87946
G1 X112.205 Y112.169 E14.94755
G1 X112.682 Y112.051 E14.97207
G1 X112.982 Y111.036 E15.02487
G1 X113.314 Y109.401 E15.10811
G1 X113.499 Y107.395 E15.20861
G1 X113.393 Y104.66 E15.34516
G1 X113.042 Y102.218 E15.46825
G1 X112.608 Y100.094 E15.5764
G1 X112.201 Y98.49 E15.65896
G1 X80.185 Y98.49 E17.25625
G1 X80.082 Y99.111 E17.28765
G1 X79.94 Y99.641 E17.31503
G0 F6750 X79.682 Y99.066
G1 F1350 X79.558 Y99.521 E17.33855
G1 X79.486 Y99.751 E17.35058
G1 X79.238 Y100.41 E17.38571
G1 X78.917 Y101.036 E17.42081
G1 X78.526 Y101.622 E17.45595
G1 X78.441 Y101.723 E17.46254
G1 X78.441 Y103.221 E17.53727
G1 X78.646 Y103.455 E17.55279
G1 X79.046 Y104.034 E17.5879
G1 X79.378 Y104.655 E17.62303
G1 X79.724 Y105.589 E17.67273
G1 X81.556 Y112.112 E18.01075
G1 X81.88 Y112.156 E18.02706
G1 X82.642 Y112.27 E18.0655
G1 X82.981 Y112.328 E18.08266
G1 X84.325 Y112.584 E18.15092
G1 X84.648 Y112.652 E18.16739
G1 X84.803 Y112.688 E18.17533
G1 X86.336 Y113.067 E18.25411
G1 X86.619 Y113.146 E18.26877
G1 X87.69 Y113.465 E18.32452
G1 X87.89 Y113.528 E18.33498
G1 X88.842 Y113.847 E18.38507
G1 X89.161 Y113.963 E18.40201
G1 X110.903 Y112.793 E19.48829
G1 X112.29 Y112.56 E19.55846
G1 X113.002 Y112.383 E19.59506
G1 X113.369 Y111.138 E19.65982
G1 X113.709 Y109.462 E19.74514
G1 X113.9 Y107.401 E19.8484
G1 X113.793 Y104.63 E19.98675
G1 X113.439 Y102.166 E20.11094
G1 X112.995 Y99.994 E20.22154
G1 X112.584 Y98.374 E20.30493
G1 X112.501 Y98.09 E20.31969
G1 X79.817 Y98.09 E21.9503
G1 X79.801 Y98.372 E21.96439
G1 X79.682 Y99.066 E21.99952
G0 F6750 X79.282 Y99.019
G1 F1350 X79.176 Y99.402 E22.01935
G1 X79.104 Y99.632 E22.03137
G1 X78.863 Y100.268 E22.0653
G1 X78.549 Y100.873 E22.09931
G1 X78.166 Y101.436 E22.13328
G1 X78.041 Y101.58 E22.14279
G1 X78.041 Y103.364 E22.2318
G1 X78.438 Y103.844 E22.26287
G1 X78.807 Y104.416 E22.29683
G1 X79.106 Y105.028 E22.33082
G1 X79.339 Y105.697 E22.36616
G1 X81.243 Y112.476 E22.71745
G1 X81.542 Y112.513 E22.73248
G1 X81.821 Y112.552 E22.74654
G1 X82.583 Y112.666 E22.78498
G1 X82.912 Y112.722 E22.80163
G1 X84.25 Y112.976 E22.86957
G1 X84.563 Y113.043 E22.88554
G1 X84.708 Y113.076 E22.89296
G1 X86.104 Y113.42 E22.96469
G1 X86.364 Y113.489 E22.97811
G1 X86.505 Y113.529 E22.98542
G1 X87.576 Y113.848 E23.04118
G1 X87.763 Y113.908 E23.05097
G1 X88.715 Y114.227 E23.10106
G1 X89.099 Y114.366 E23.12144
G1 X110.956 Y113.19 E24.21347
G1 X112.365 Y112.954 E24.28474
G1 X113.314 Y112.717 E24.33354
G1 X113.345 Y112.634 E24.33796
G1 X113.757 Y111.239 E24.41053
G1 X114.107 Y109.513 E24.49839
G1 X114.3 Y107.423 E24.60311
G1 X114.19 Y104.587 E24.7447
G1 X113.845 Y102.177 E24.86616
G1 X113.827 Y102.069 E24.87163
G1 X113.372 Y99.85 E24.98463
G1 X112.993 Y98.353 E25.06168
G1 X112.945 Y98.182 E25.07054
G1 X112.8 Y97.69 E25.09613
G1 X79.44 Y97.69 E26.76046
G1 X79.401 Y98.349 E26.7934
G1 X79.282 Y99.019 E26.82735
G0 F6750 X78.794 Y99.282
G1 F1350 X78.722 Y99.512 E26.83937
G1 X78.488 Y100.126 E26.87216
G1 X78.182 Y100.707 E26.90492
G1 X77.806 Y101.246 E26.9377
G1 X77.641 Y101.431 E26.95007
G1 X77.641 Y103.53 E27.05479
G1 X77.82 Y103.711 E27.06749
G1 X78.221 Y104.231 E27.10025
G1 X78.557 Y104.795 E27.133
G1 X78.821 Y105.397 E27.1658
G1 X78.954 Y105.806 E27.18726
G1 X80.931 Y112.843 E27.55193
G1 X81.487 Y112.909 E27.57986
G1 X81.762 Y112.947 E27.59371
G1 X82.524 Y113.061 E27.63215
G1 X82.911 Y113.128 E27.65174
G1 X84.176 Y113.369 E27.71599
G1 X84.477 Y113.433 E27.73134
G1 X86.008 Y113.809 E27.80999
G1 X86.26 Y113.876 E27.823
G1 X86.39 Y113.913 E27.82975
G1 X87.461 Y114.232 E27.8855
G1 X87.636 Y114.287 E27.89465
G1 X88.588 Y114.606 E27.94474
G1 X88.747 Y114.662 E27.95315
G1 X89.04 Y114.77 E27.96873
G1 X110.99 Y113.59 E29.0654
G1 X112.449 Y113.345 E29.13921
G1 X113.462 Y113.092 E29.1913
G1 X113.62 Y113.043 E29.19955
G1 X113.721 Y112.769 E29.21412
G1 X114.147 Y111.327 E29.28914
G1 X114.503 Y109.576 E29.37828
G1 X114.701 Y107.428 E29.4859
G1 X114.59 Y104.551 E29.62954
G1 X114.236 Y102.087 E29.75374
G1 X114.223 Y102.007 E29.75778
G1 X113.774 Y99.811 E29.8696
G1 X113.352 Y98.149 E29.95515
G1 X113.1 Y97.29 E29.99981
G1 X79.04 Y97.29 E31.69908
G1 X79.041 Y97.669 E31.71798
G1 X79.001 Y98.325 E31.75077
G1 X78.794 Y99.282 E31.79962
G0 F6750 X78.413 Y99.163
G1 F1350 X78.341 Y99.393 E31.81165
G1 X78.114 Y99.983 E31.84318
G1 X77.815 Y100.54 E31.87472
G1 X77.448 Y101.054 E31.90623
G1 X77.241 Y101.278 E31.92145
G1 X77.241 Y103.687 E32.04163
G1 X77.626 Y104.102 E32.06988
G1 X77.995 Y104.616 E32.10144
G1 X78.295 Y105.172 E32.13296
G1 X78.569 Y105.914 E32.17243
G1 X80.618 Y113.209 E32.55046
G1 X81.433 Y113.306 E32.59141
G1 X81.703 Y113.343 E32.605
G1 X82.465 Y113.457 E32.64344
G1 X82.836 Y113.521 E32.66222
G1 X84.101 Y113.762 E32.72647
G1 X84.391 Y113.824 E32.74127
G1 X84.516 Y113.853 E32.74767
G1 X85.912 Y114.197 E32.8194
G1 X86.276 Y114.296 E32.83822
G1 X87.347 Y114.615 E32.89397
G1 X87.509 Y114.666 E32.90244
G1 X88.461 Y114.985 E32.95253
G1 X88.608 Y115.037 E32.96031
G1 X88.978 Y115.174 E32.98
G1 X111.042 Y113.987 E34.08237
G1 X112.524 Y113.738 E34.15734
G1 X113.592 Y113.471 E34.21226
G1 X113.926 Y113.366 E34.22973
G1 X114.104 Y112.886 E34.25527
G1 X114.534 Y111.431 E34.33096
G1 X114.899 Y109.635 E34.4224
G1 X115.102 Y107.435 E34.53262
G1 X114.989 Y104.52 E34.67816
G1 X114.617 Y101.94 E34.80821
G1 X114.162 Y99.713 E34.92161
G1 X113.76 Y98.125 E35.00334
G1 X113.716 Y97.968 E35.01147
G1 X113.399 Y96.89 E35.06753
G1 X78.604 Y96.89 E36.80346
G1 X78.641 Y97.302 E36.8241
G1 X78.641 Y97.669 E36.84241
G1 X78.601 Y98.3 E36.87395
G1 X78.413 Y99.163 E36.91802
G0 F6750 X78.031 Y99.043
G1 F1350 X77.959 Y99.273 E36.93004
G1 X77.74 Y99.839 E36.96032
G1 X77.449 Y100.37 E36.99053
G1 X77.09 Y100.859 E37.02079
G1 X76.841 Y101.119 E37.03875
G1 X76.841 Y103.868 E37.1759
G1 X77.027 Y104.033 E37.1883
G1 X77.424 Y104.491 E37.21854
G1 X77.757 Y104.998 E37.24881
G1 X78.021 Y105.544 E37.27906
G1 X78.184 Y106.022 E37.30426
G1 X80.307 Y113.578 E37.69583
G1 X80.495 Y113.597 E37.70525
G1 X81.378 Y113.702 E37.74962
G1 X81.644 Y113.739 E37.76302
G1 X82.406 Y113.853 E37.80145
G1 X82.761 Y113.914 E37.81943
G1 X84.026 Y114.155 E37.88367
G1 X84.306 Y114.215 E37.89796
G1 X85.817 Y114.586 E37.97558
G1 X86.162 Y114.679 E37.99341
G1 X87.233 Y114.998 E38.04916
G1 X87.382 Y115.045 E38.05695
G1 X88.334 Y115.364 E38.10705
G1 X88.918 Y115.578 E38.13808
G1 X111.076 Y114.386 E39.24514
G1 X112.611 Y114.129 E39.32279
G1 X113.669 Y113.865 E39.37719
G1 X114.233 Y113.689 E39.40667
G1 X114.479 Y113.026 E39.44195
G1 X114.924 Y111.519 E39.52034
G1 X115.294 Y109.697 E39.6131
G1 X115.502 Y107.449 E39.72573
G1 X115.387 Y104.476 E39.87416
G1 X115.023 Y101.943 E40.00183
G1 X115.011 Y101.87 E40.00552
G1 X114.558 Y99.652 E40.11847
G1 X114.148 Y98.028 E40.20203
G1 X114.119 Y97.923 E40.20746
G1 X113.759 Y96.697 E40.27121
G1 X113.691 Y96.49 E40.28208
G1 X78.167 Y96.49 E42.05438
G1 X78.174 Y96.517 E42.05577
G1 X78.241 Y97.302 E42.09508
G1 X78.241 Y97.669 E42.11339
G1 X78.201 Y98.274 E42.14364
G1 X78.031 Y99.043 E42.18293
G0 F6750 X77.649 Y98.924
G1 F1350 X77.577 Y99.154 E42.19495
G1 X77.366 Y99.693 E42.22383
G1 X77.083 Y100.199 E42.25276
G1 X76.733 Y100.661 E42.28167
G1 X76.441 Y100.952 E42.30224
G1 X76.441 Y104.038 E42.4562
G1 X76.849 Y104.426 E42.48429
G1 X77.211 Y104.879 E42.51322
G1 X77.506 Y105.377 E42.5421
G1 X77.799 Y106.13 E42.58241
G1 X79.996 Y113.952 E42.98775
G1 X80.448 Y113.995 E43.0104
G1 X81.324 Y114.098 E43.05441
G1 X81.584 Y114.134 E43.0675
G1 X82.458 Y114.266 E43.1116
G1 X82.686 Y114.307 E43.12316
G1 X83.951 Y114.548 E43.18741
G1 X84.325 Y114.63 E43.20651
G1 X85.813 Y114.998 E43.28298
G1 X86.048 Y115.063 E43.29515
G1 X87.119 Y115.382 E43.3509
G1 X87.254 Y115.425 E43.35797
G1 X88.33 Y115.787 E43.41461
G1 X88.821 Y115.969 E43.44073
G1 X88.868 Y115.981 E43.44315
G1 X111.128 Y114.784 E44.55531
G1 X112.695 Y114.521 E44.63458
G1 X113.739 Y114.261 E44.68826
G1 X113.825 Y114.236 E44.69273
G1 X114.54 Y114.012 E44.73011
G1 X114.861 Y113.147 E44.77614
G1 X115.312 Y111.62 E44.85557
G1 X115.692 Y109.748 E44.95087
G1 X115.903 Y107.462 E45.06541
G1 X115.786 Y104.442 E45.21619
G1 X115.416 Y101.863 E45.34617
G1 X115.405 Y101.799 E45.34941
G1 X114.948 Y99.562 E45.46332
G1 X114.536 Y97.928 E45.54739
G1 X114.146 Y96.596 E45.61664
G1 X113.982 Y96.09 E45.64317
G1 X77.659 Y96.09 E47.45534
G1 X77.784 Y96.611 E47.48207
G1 X77.841 Y97.302 E47.51666
G1 X77.841 Y97.669 E47.53497
G1 X77.801 Y98.247 E47.56387
G1 X77.649 Y98.924 E47.59849
G0 F6750 X77.267 Y98.804
G1 F1350 X77.195 Y99.034 E47.61051
G1 X76.993 Y99.547 E47.63802
G1 X76.719 Y100.025 E47.66551
G1 X76.378 Y100.458 E47.69301
G1 X76.041 Y100.778 E47.71619
G1 X76.041 Y104.243 E47.88906
G1 X76.277 Y104.423 E47.90387
G1 X76.661 Y104.818 E47.93135
G1 X76.985 Y105.264 E47.95885
G1 X77.24 Y105.752 E47.98632
G1 X77.413 Y106.238 E48.01206
G1 X79.685 Y114.325 E48.43114
G1 X80.402 Y114.392 E48.46707
G1 X81.269 Y114.494 E48.51062
G1 X81.525 Y114.53 E48.52352
G1 X82.388 Y114.66 E48.56706
G1 X82.611 Y114.7 E48.57837
G1 X83.979 Y114.962 E48.64786
G1 X84.229 Y115.018 E48.66064
G1 X85.709 Y115.384 E48.7367
G1 X85.934 Y115.446 E48.74834
G1 X87.005 Y115.765 E48.8041
G1 X87.127 Y115.804 E48.81049
G1 X88.191 Y116.162 E48.86649
G1 X88.699 Y116.35 E48.89352
G1 X88.848 Y116.382 E48.90112
G1 X111.171 Y115.181 E50.01643
G1 X112.783 Y114.911 E50.09797
G1 X113.855 Y114.644 E50.15309
G1 X113.925 Y114.624 E50.15672
G1 X114.79 Y114.353 E50.20194
G1 X114.862 Y114.294 E50.20659
G1 X115.244 Y113.265 E50.26135
G1 X115.695 Y111.739 E50.34074
G1 X116.088 Y109.81 E50.43895
G1 X116.304 Y107.469 E50.55624
G1 X116.186 Y104.408 E50.70907
G1 X115.819 Y101.856 E50.8377
G1 X115.794 Y101.705 E50.84533
G1 X115.338 Y99.472 E50.95904
G1 X114.917 Y97.809 E51.04462
G1 X114.872 Y97.646 E51.05306
G1 X114.528 Y96.475 E51.11395
G1 X114.273 Y95.69 E51.15513
G1 X77.099 Y95.69 E53.00975
G1 X77.195 Y95.937 E53.02297
G1 X77.267 Y96.167 E53.03499
G1 X77.394 Y96.703 E53.06247
G1 X77.441 Y97.302 E53.09245
G1 X77.441 Y97.669 E53.11076
G1 X77.401 Y98.219 E53.13827
G1 X77.267 Y98.804 E53.16821
G0 F6750 X76.886 Y98.685
G1 F1350 X76.814 Y98.915 E53.18024
G1 X76.62 Y99.399 E53.20625
G1 X76.355 Y99.847 E53.23222
G1 X76.025 Y100.25 E53.2582
G1 X75.641 Y100.594 E53.28393
G1 X75.641 Y104.443 E53.47595
G1 X75.713 Y104.486 E53.48014
G1 X76.115 Y104.818 E53.50615
G1 X76.461 Y105.208 E53.53216
G1 X76.744 Y105.646 E53.55818
G1 X77.028 Y106.347 E53.59591
G1 X79.375 Y114.701 E54.02883
G1 X79.571 Y114.716 E54.03863
G1 X80.355 Y114.789 E54.07792
G1 X81.215 Y114.891 E54.12112
G1 X81.466 Y114.925 E54.13376
G1 X82.318 Y115.054 E54.17675
G1 X82.536 Y115.093 E54.1878
G1 X83.893 Y115.353 E54.25673
G1 X84.133 Y115.407 E54.26901
G1 X85.604 Y115.77 E54.3446
G1 X85.82 Y115.829 E54.35577
G1 X86.891 Y116.148 E54.41152
G1 X87.952 Y116.502 E54.46732
G1 X88.573 Y116.731 E54.50034
G1 X88.862 Y116.783 E54.51499
G1 X111.216 Y115.58 E55.63185
G1 X112.858 Y115.304 E55.71492
G1 X113.972 Y115.027 E55.77219
G1 X114.896 Y114.739 E55.82048
G1 X115.148 Y114.648 E55.83384
G1 X115.227 Y114.46 E55.84402
G1 X115.62 Y113.4 E55.90042
G1 X116.084 Y111.83 E55.9821
G1 X116.094 Y111.791 E55.9841
G1 X116.483 Y109.872 E56.08179
G1 X116.705 Y107.474 E56.20194
G1 X116.585 Y104.374 E56.35671
G1 X116.214 Y101.791 E56.4869
G1 X116.188 Y101.633 E56.49489
G1 X115.728 Y99.38 E56.60961
G1 X115.316 Y97.751 E56.69344
G1 X115.257 Y97.539 E56.70442
G1 X114.916 Y96.375 E56.76494
G1 X114.563 Y95.29 E56.82186
G1 X76.461 Y95.29 E58.72278
G1 X76.683 Y95.707 E58.74634
G1 X76.814 Y96.056 E58.76494
G1 X76.886 Y96.286 E58.77697
G1 X77.003 Y96.794 E58.80297
G1 X77.041 Y97.302 E58.82839
G1 X77.041 Y97.669 E58.8467
G1 X77.001 Y98.189 E58.87272
G1 X76.886 Y98.685 E58.89812
G0 F6750 X76.504 Y98.565
G1 F1350 X76.432 Y98.795 E58.91014
G1 X76.248 Y99.249 E58.93458
G1 X75.993 Y99.667 E58.95901
G1 X75.673 Y100.037 E58.98342
G1 X75.298 Y100.351 E59.00782
G1 X75.241 Y100.387 E59.01118
G1 X75.241 Y104.667 E59.22471
G1 X75.579 Y104.884 E59.24475
G1 X75.942 Y105.212 E59.26916
G1 X76.247 Y105.595 E59.29359
G1 X76.485 Y106.023 E59.31802
