;FLAVOR:Marlin
;TIME:6862
;Filament used: 2.72325m
;Layer height: 0.1
;MINX:61.598
;MINY:78.494
;MINZ:0.3
;MAXX:158.398
;MAXY:141.489
;MAXZ:5.8
;Generated with Cura_SteamEngine 4.10.0
M140 S57
M105
M190 S57
M104 S196
M105
M109 S196
M82 ;absolute extrusion mode
G28 ;Home
G1 Z15.0 F2000 ;Move the platform
G92 E0
G92 E0
G1 F1500 E-9.5
;LAYER_COUNT:56
;LAYER:0
M107
M204 S1000
G0 F6750 X87.05 Y102.794 Z0.3
;TYPE:SKIRT
G1 F1500 E0
G1 F1350 X86.905 Y103.16 E0.01964
G1 X86.783 Y103.414 E0.0337
G1 X86.633 Y103.691 E0.04941
G1 X86.969 Y104.296 E0.08394
G1 X87.281 Y105.021 E0.12332
G1 X87.477 Y105.625 E0.155
G1 X88.536 Y109.393 E0.35027
G1 X89.224 Y109.525 E0.38522
G1 X89.471 Y109.577 E0.39781
G1 X89.77 Y109.645 E0.41311
G1 X90.897 Y109.922 E0.47101
G1 X91.245 Y110.015 E0.48898
G1 X92.249 Y110.311 E0.5412
G1 X92.579 Y110.415 E0.55846
G1 X93.116 Y110.596 E0.58674
G1 X110.333 Y109.669 E1.44694
G1 X110.437 Y109.156 E1.47305
G1 X110.563 Y107.782 E1.54189
G1 X110.487 Y105.794 E1.64114
G1 X110.222 Y103.952 E1.73399
G1 X109.986 Y102.794 E1.79295
G1 X87.05 Y102.794 E2.93723
G0 F6750 X86.781 Y102.394
G1 F1350 X86.544 Y102.987 E2.96909
G1 X86.422 Y103.241 E2.98315
G1 X86.166 Y103.71 E3.00981
G1 X86.349 Y103.988 E3.02641
G1 X86.704 Y104.671 E3.06481
G1 X87.092 Y105.733 E3.12122
G1 X88.218 Y109.739 E3.32883
G1 X89.148 Y109.918 E3.37608
G1 X89.538 Y110.002 E3.39598
G1 X90.801 Y110.311 E3.46085
G1 X91.139 Y110.401 E3.4783
G1 X92.135 Y110.695 E3.53011
G1 X92.457 Y110.796 E3.54695
G1 X93.062 Y111 E3.5788
G1 X110.499 Y110.062 E4.44999
G1 X110.667 Y110.033 E4.4585
G1 X110.832 Y109.223 E4.49974
G1 X110.963 Y107.796 E4.57123
G1 X110.885 Y105.75 E4.67338
G1 X110.616 Y103.882 E4.76754
G1 X110.312 Y102.394 E4.84331
G1 X86.781 Y102.394 E6.01728
G0 F6750 X86.184 Y102.814
G1 F1350 X86.062 Y103.068 E6.03133
G1 X85.714 Y103.702 E6.06742
G1 X85.714 Y103.738 E6.06921
G1 X86.106 Y104.369 E6.10627
G1 X86.43 Y105.043 E6.14358
G1 X86.707 Y105.841 E6.18572
G1 X87.9 Y110.088 E6.40581
G1 X88.052 Y110.115 E6.41351
G1 X89.073 Y110.311 E6.46538
G1 X89.45 Y110.392 E6.48462
G1 X89.579 Y110.422 E6.49122
G1 X90.706 Y110.699 E6.54912
G1 X91.032 Y110.786 E6.56596
G1 X92.022 Y111.078 E6.61745
G1 X92.434 Y111.21 E6.63904
G1 X93.006 Y111.403 E6.66915
G1 X110.552 Y110.459 E7.54579
G1 X111.004 Y110.383 E7.56866
G1 X111.228 Y109.283 E7.62467
G1 X111.364 Y107.798 E7.69906
G1 X111.284 Y105.716 E7.80301
G1 X111.01 Y103.812 E7.89898
G1 X110.664 Y102.116 E7.98534
G1 X110.633 Y101.994 E7.99162
G1 X86.515 Y101.994 E9.19487
G1 X86.184 Y102.814 E9.23899
G0 F6750 X85.823 Y102.641
G1 F1350 X85.701 Y102.895 E9.25304
G1 X85.351 Y103.531 E9.28926
G1 X85.314 Y103.584 E9.29249
G1 X85.314 Y103.881 E9.3073
G1 X85.489 Y104.119 E9.32204
G1 X85.853 Y104.748 E9.3583
G1 X86.146 Y105.413 E9.39455
G1 X86.322 Y105.95 E9.42275
G1 X87.583 Y110.44 E9.65542
G1 X87.976 Y110.507 E9.67531
G1 X88.997 Y110.703 E9.72718
G1 X89.362 Y110.782 E9.74581
G1 X90.61 Y111.088 E9.80992
G1 X90.926 Y111.172 E9.82623
G1 X91.908 Y111.462 E9.87731
G1 X92.212 Y111.558 E9.89322
G1 X92.952 Y111.807 E9.93217
G1 X110.587 Y110.858 E10.81326
G1 X111.328 Y110.734 E10.85074
G1 X111.371 Y110.588 E10.85833
G1 X111.625 Y109.336 E10.92207
G1 X111.765 Y107.816 E10.99822
G1 X111.683 Y105.683 E11.10472
G1 X111.405 Y103.745 E11.20239
G1 X111.058 Y102.045 E11.28896
G1 X110.944 Y101.594 E11.31217
G1 X86.21 Y101.594 E12.54615
G1 X86.117 Y101.924 E12.56325
G1 X85.823 Y102.641 E12.60192
G0 F6750 X85.463 Y102.467
G1 F1350 X85.341 Y102.721 E12.61597
G1 X85 Y103.338 E12.65114
G1 X84.914 Y103.459 E12.65855
G1 X84.914 Y104.004 E12.68574
G1 X85.259 Y104.503 E12.71601
G1 X85.591 Y105.124 E12.75114
G1 X85.937 Y106.058 E12.80083
G1 X87.268 Y110.797 E13.04641
G1 X87.598 Y110.847 E13.06306
G1 X87.901 Y110.9 E13.07841
G1 X88.922 Y111.096 E13.13027
G1 X89.274 Y111.172 E13.14824
G1 X90.515 Y111.476 E13.21198
G1 X90.93 Y111.589 E13.23344
G1 X91.794 Y111.845 E13.2784
G1 X92.178 Y111.968 E13.29852
G1 X92.893 Y112.211 E13.33619
G1 X110.63 Y111.256 E14.22238
G1 X111.641 Y111.086 E14.27352
G1 X111.76 Y110.683 E14.29449
G1 X112.021 Y109.398 E14.35991
G1 X112.166 Y107.821 E14.43891
G1 X112.082 Y105.643 E14.54766
G1 X111.802 Y103.694 E14.64589
G1 X111.433 Y101.892 E14.73766
G1 X111.256 Y101.194 E14.77358
G1 X85.911 Y101.194 E16.03805
G1 X85.717 Y101.855 E16.07242
G1 X85.463 Y102.467 E16.10548
G0 F6750 X85.318 Y101.785
G1 F1350 X85.102 Y102.294 E16.13306
G1 X84.98 Y102.548 E16.14712
G1 X84.65 Y103.144 E16.18111
G1 X84.514 Y103.333 E16.19273
G1 X84.514 Y104.147 E16.23334
G1 X84.651 Y104.313 E16.24407
G1 X85.02 Y104.885 E16.27803
G1 X85.319 Y105.497 E16.31202
G1 X85.552 Y106.166 E16.34736
G1 X86.954 Y111.154 E16.60586
G1 X87.531 Y111.241 E16.63497
G1 X87.825 Y111.293 E16.64986
G1 X88.846 Y111.489 E16.70173
G1 X89.186 Y111.562 E16.71908
G1 X90.419 Y111.865 E16.78242
G1 X90.713 Y111.943 E16.7976
G1 X91.681 Y112.229 E16.84796
G1 X92.05 Y112.347 E16.86729
G1 X92.687 Y112.562 E16.90083
G1 X92.835 Y112.614 E16.90865
G1 X110.682 Y111.653 E17.80033
G1 X111.765 Y111.472 E17.85511
G1 X111.958 Y111.423 E17.86505
G1 X112.149 Y110.778 E17.89861
G1 X112.417 Y109.458 E17.96581
G1 X112.566 Y107.835 E18.04712
G1 X112.48 Y105.605 E18.15846
G1 X112.192 Y103.604 E18.25932
G1 X111.833 Y101.847 E18.34878
G1 X111.567 Y100.794 E18.40297
G1 X85.575 Y100.794 E19.69972
G1 X85.515 Y101.133 E19.71689
G1 X85.318 Y101.785 E19.75087
G0 F6750 X84.918 Y101.712
G1 F1350 X84.742 Y102.121 E19.77309
G1 X84.62 Y102.375 E19.78714
G1 X84.3 Y102.949 E19.81993
G1 X84.114 Y103.203 E19.83564
G1 X84.114 Y104.285 E19.88962
G1 X84.434 Y104.7 E19.91576
G1 X84.77 Y105.264 E19.94852
G1 X85.034 Y105.866 E19.98131
G1 X85.167 Y106.274 E20.00272
G1 X86.639 Y111.512 E20.27417
G1 X87.354 Y111.618 E20.31023
G1 X87.75 Y111.686 E20.33027
G1 X88.771 Y111.882 E20.38214
G1 X89.097 Y111.953 E20.39879
G1 X90.324 Y112.253 E20.46181
G1 X90.703 Y112.356 E20.4814
G1 X91.683 Y112.648 E20.53242
G1 X91.922 Y112.726 E20.54496
G1 X92.703 Y112.991 E20.58611
G1 X92.777 Y113.018 E20.59004
G1 X110.716 Y112.053 E21.48631
G1 X111.852 Y111.862 E21.54378
G1 X112.277 Y111.756 E21.56563
G1 X112.536 Y110.88 E21.61121
G1 X112.815 Y109.51 E21.68096
G1 X112.967 Y107.849 E21.76417
G1 X112.88 Y105.571 E21.87791
G1 X112.598 Y103.607 E21.9769
G1 X112.586 Y103.534 E21.98059
G1 X112.219 Y101.741 E22.0719
G1 X111.876 Y100.394 E22.14124
G1 X85.237 Y100.394 E23.47027
G1 X85.234 Y100.439 E23.47252
G1 X85.115 Y101.085 E23.50529
G1 X84.918 Y101.712 E23.53808
G0 F6750 X84.518 Y101.635
G1 F1350 X84.381 Y101.948 E23.55512
G1 X84.259 Y102.202 E23.56918
G1 X83.95 Y102.753 E23.6007
G1 X83.714 Y103.072 E23.6205
G1 X83.714 Y104.436 E23.68855
G1 X83.839 Y104.571 E23.69772
G1 X84.208 Y105.085 E23.72929
G1 X84.508 Y105.641 E23.76081
G1 X84.782 Y106.382 E23.80023
G1 X86.325 Y111.874 E24.08483
G1 X86.647 Y111.917 E24.10104
G1 X87.396 Y112.03 E24.13883
G1 X87.675 Y112.079 E24.15296
G1 X88.696 Y112.275 E24.20483
G1 X89.009 Y112.343 E24.22081
G1 X90.228 Y112.642 E24.28343
G1 X90.5 Y112.714 E24.29747
G1 X91.561 Y113.029 E24.35268
G1 X91.794 Y113.105 E24.36491
G1 X92.431 Y113.32 E24.39845
G1 X92.712 Y113.422 E24.41337
G1 X110.769 Y112.45 E25.31554
G1 X111.922 Y112.257 E25.37386
G1 X112.597 Y112.088 E25.40858
G1 X112.924 Y110.979 E25.46626
G1 X113.21 Y109.573 E25.53784
G1 X113.368 Y107.855 E25.62392
G1 X113.279 Y105.537 E25.73965
G1 X112.98 Y103.467 E25.84399
G1 X112.613 Y101.67 E25.93549
G1 X112.293 Y100.402 E26.00074
G1 X112.175 Y99.994 E26.02193
G1 X84.861 Y99.994 E27.38463
G1 X84.834 Y100.414 E27.40563
G1 X84.715 Y101.035 E27.43717
G1 X84.518 Y101.635 E27.46868
G0 F6750 X84.02 Y101.775
G1 F1350 X83.898 Y102.029 E27.48274
G1 X83.601 Y102.557 E27.51296
G1 X83.314 Y102.938 E27.53676
G1 X83.314 Y104.587 E27.61903
G1 X83.637 Y104.96 E27.64364
G1 X83.97 Y105.467 E27.6739
G1 X84.234 Y106.013 E27.70416
G1 X84.397 Y106.491 E27.72936
G1 X86.012 Y112.24 E28.02728
G1 X86.383 Y112.285 E28.04592
G1 X86.639 Y112.32 E28.05881
G1 X87.329 Y112.424 E28.09363
G1 X87.599 Y112.471 E28.1073
G1 X88.62 Y112.667 E28.15917
G1 X88.921 Y112.733 E28.17454
G1 X90.133 Y113.03 E28.2368
G1 X90.393 Y113.1 E28.25023
G1 X91.439 Y113.41 E28.30466
G1 X91.666 Y113.484 E28.31657
G1 X92.426 Y113.742 E28.35661
G1 X92.654 Y113.826 E28.36874
G1 X110.804 Y112.849 E29.27555
G1 X112.009 Y112.647 E29.33651
G1 X112.853 Y112.435 E29.37993
G1 X112.903 Y112.419 E29.38255
G1 X112.961 Y112.264 E29.3908
G1 X113.315 Y111.067 E29.45308
G1 X113.606 Y109.635 E29.52598
G1 X113.768 Y107.869 E29.61446
G1 X113.677 Y105.493 E29.73308
G1 X113.386 Y103.469 E29.8351
G1 X113.374 Y103.397 E29.83874
G1 X113.002 Y101.572 E29.93166
G1 X112.683 Y100.312 E29.99651
G1 X112.634 Y100.137 E30.00557
G1 X112.474 Y99.594 E30.03382
G1 X84.474 Y99.594 E31.43074
G1 X84.474 Y99.783 E31.44017
G1 X84.434 Y100.388 E31.47042
G1 X84.315 Y100.982 E31.50064
G1 X84.02 Y101.775 E31.54286
G0 F6750 X83.66 Y101.601
G1 F1350 X83.538 Y101.855 E31.55691
G1 X83.252 Y102.359 E31.58582
G1 X82.914 Y102.799 E31.61351
G1 X82.914 Y104.754 E31.71104
G1 X83.062 Y104.895 E31.72124
G1 X83.424 Y105.348 E31.75017
G1 X83.719 Y105.846 E31.77905
G1 X84.011 Y106.599 E31.81934
G1 X85.699 Y112.606 E32.13064
G1 X86.328 Y112.681 E32.16224
G1 X86.58 Y112.716 E32.17493
G1 X87.262 Y112.819 E32.20934
G1 X87.524 Y112.864 E32.22261
G1 X88.545 Y113.06 E32.27447
G1 X88.833 Y113.123 E32.28918
G1 X90.037 Y113.418 E32.35103
G1 X90.287 Y113.485 E32.36394
G1 X91.317 Y113.791 E32.41755
G1 X91.538 Y113.863 E32.42914
G1 X92.287 Y114.117 E32.4686
G1 X92.592 Y114.23 E32.48483
G1 X110.856 Y113.247 E33.39734
G1 X112.084 Y113.04 E33.45947
G1 X112.968 Y112.819 E33.50493
G1 X113.21 Y112.743 E33.51759
G1 X113.341 Y112.39 E33.53637
G1 X113.703 Y111.166 E33.60005
G1 X114.003 Y109.686 E33.67539
G1 X114.169 Y107.882 E33.76577
G1 X114.076 Y105.459 E33.88675
G1 X113.78 Y103.398 E33.99062
G1 X113.767 Y103.32 E33.99457
G1 X113.395 Y101.5 E34.08725
G1 X113.372 Y101.401 E34.09232
G1 X113.066 Y100.195 E34.15439
G1 X113.036 Y100.087 E34.15998
G1 X112.774 Y99.194 E34.20641
G1 X84.048 Y99.194 E35.63956
G1 X84.074 Y99.479 E35.65384
G1 X84.074 Y99.783 E35.669
G1 X84.034 Y100.361 E35.69791
G1 X83.915 Y100.928 E35.72681
G1 X83.66 Y101.601 E35.76272
G0 F6750 X83.299 Y101.428
G1 F1350 X83.177 Y101.682 E35.77678
G1 X82.903 Y102.16 E35.80427
G1 X82.563 Y102.594 E35.83177
G1 X82.514 Y102.641 E35.83516
G1 X82.514 Y104.917 E35.94871
G1 X82.874 Y105.287 E35.97446
G1 X83.198 Y105.733 E36.00197
G1 X83.453 Y106.221 E36.02944
G1 X83.626 Y106.707 E36.05517
G1 X85.387 Y112.976 E36.38004
G1 X85.539 Y112.991 E36.38766
G1 X86.273 Y113.077 E36.42453
G1 X86.521 Y113.112 E36.43703
G1 X87.195 Y113.213 E36.47103
G1 X87.448 Y113.257 E36.48384
G1 X88.469 Y113.453 E36.53571
G1 X88.745 Y113.513 E36.5498
G1 X89.942 Y113.807 E36.61129
G1 X90.249 Y113.891 E36.62717
G1 X91.194 Y114.172 E36.67636
G1 X91.41 Y114.242 E36.68769
G1 X92.149 Y114.492 E36.72661
G1 X92.531 Y114.633 E36.74692
G1 X110.899 Y113.644 E37.66463
G1 X112.172 Y113.431 E37.72903
G1 X113.02 Y113.219 E37.77263
G1 X113.517 Y113.065 E37.79859
G1 X113.724 Y112.507 E37.82829
G1 X114.084 Y111.29 E37.8916
G1 X114.094 Y111.251 E37.89361
G1 X114.399 Y109.748 E37.97012
G1 X114.57 Y107.888 E38.06331
G1 X114.476 Y105.425 E38.18628
G1 X114.182 Y103.383 E38.28921
G1 X114.157 Y103.232 E38.29684
G1 X113.789 Y101.428 E38.3887
G1 X113.449 Y100.08 E38.45806
G1 X113.405 Y99.923 E38.46619
G1 X113.137 Y99.009 E38.51371
G1 X113.067 Y98.794 E38.52499
G1 X83.608 Y98.794 E39.99471
G1 X83.622 Y98.853 E39.99773
G1 X83.674 Y99.479 E40.02907
G1 X83.674 Y99.783 E40.04424
G1 X83.634 Y100.333 E40.07175
G1 X83.515 Y100.871 E40.09924
G1 X83.299 Y101.428 E40.12904
G0 F6750 X82.939 Y101.255
G1 F1350 X82.817 Y101.509 E40.1431
G1 X82.556 Y101.96 E40.1691
G1 X82.229 Y102.366 E40.19511
G1 X82.114 Y102.471 E40.20288
G1 X82.114 Y105.11 E40.33454
G1 X82.328 Y105.287 E40.34839
G1 X82.674 Y105.677 E40.3744
G1 X82.957 Y106.115 E40.40042
G1 X83.241 Y106.815 E40.43811
G1 X85.077 Y113.349 E40.77671
G1 X85.493 Y113.388 E40.79756
G1 X86.218 Y113.473 E40.83398
G1 X86.462 Y113.507 E40.84627
G1 X87.127 Y113.607 E40.87982
G1 X87.373 Y113.65 E40.89228
G1 X88.394 Y113.846 E40.94415
G1 X88.72 Y113.918 E40.9608
G1 X89.847 Y114.195 E41.0187
G1 X90.135 Y114.274 E41.0336
G1 X91.072 Y114.553 E41.08238
G1 X91.282 Y114.621 E41.09339
G1 X92.01 Y114.868 E41.13174
G1 X92.424 Y115.021 E41.15376
G1 X92.482 Y115.037 E41.15676
G1 X110.942 Y114.043 E42.07907
G1 X112.247 Y113.824 E42.14509
G1 X113.137 Y113.602 E42.19085
G1 X113.824 Y113.388 E42.22675
G1 X114.101 Y112.643 E42.2664
G1 X114.48 Y111.358 E42.33324
G1 X114.795 Y109.809 E42.4121
G1 X114.971 Y107.894 E42.50805
G1 X114.875 Y105.391 E42.63301
G1 X114.577 Y103.318 E42.7375
G1 X114.55 Y103.153 E42.74584
G1 X114.177 Y101.327 E42.83882
G1 X113.849 Y100.028 E42.90566
G1 X113.79 Y99.816 E42.91664
G1 X113.523 Y98.904 E42.96405
G1 X113.357 Y98.394 E42.99081
G1 X83.091 Y98.394 E44.50079
G1 X83.12 Y98.466 E44.50466
G1 X83.236 Y98.974 E44.53066
G1 X83.274 Y99.479 E44.55592
G1 X83.274 Y99.783 E44.57109
G1 X83.234 Y100.303 E44.59711
G1 X83.115 Y100.81 E44.62309
G1 X82.939 Y101.255 E44.64696
G0 F6750 X82.578 Y101.082
G1 F1350 X82.456 Y101.336 E44.66102
G1 X82.209 Y101.758 E44.68542
G1 X81.896 Y102.135 E44.70986
G1 X81.714 Y102.293 E44.72189
G1 X81.714 Y105.303 E44.87206
G1 X81.792 Y105.353 E44.87668
G1 X82.155 Y105.681 E44.90109
G1 X82.46 Y106.064 E44.92551
G1 X82.698 Y106.492 E44.94995
G1 X82.856 Y106.923 E44.97285
G1 X84.766 Y113.722 E45.32518
G1 X85.371 Y113.777 E45.35549
G1 X86.163 Y113.869 E45.39527
G1 X86.403 Y113.903 E45.40736
G1 X87.06 Y114.002 E45.44051
G1 X87.298 Y114.043 E45.45256
G1 X88.319 Y114.239 E45.50443
G1 X88.569 Y114.294 E45.5172
G1 X89.833 Y114.605 E45.58214
G1 X89.967 Y114.642 E45.58907
G1 X90.95 Y114.934 E45.64023
G1 X91.154 Y115 E45.65093
G1 X91.871 Y115.243 E45.6887
G1 X92.306 Y115.404 E45.71184
G1 X92.476 Y115.437 E45.72048
G1 X110.986 Y114.441 E46.64529
G1 X112.332 Y114.215 E46.71338
G1 X113.226 Y113.992 E46.75935
G1 X113.326 Y113.964 E46.76453
G1 X114.011 Y113.749 E46.80035
G1 X114.128 Y113.706 E46.80656
G1 X114.161 Y113.628 E46.81079
G1 X114.478 Y112.776 E46.85614
G1 X114.864 Y111.472 E46.92399
G1 X115.192 Y109.861 E47.00601
G1 X115.371 Y107.915 E47.10351
G1 X115.273 Y105.357 E47.23122
G1 X114.963 Y103.199 E47.33999
G1 X114.945 Y103.088 E47.3456
G1 X114.573 Y101.268 E47.43828
G1 X114.54 Y101.127 E47.4455
G1 X114.224 Y99.879 E47.50973
G1 X113.893 Y98.747 E47.56857
G1 X113.648 Y97.994 E47.60808
G1 X82.488 Y97.994 E49.16266
G1 X82.568 Y98.158 E49.17176
G1 X82.747 Y98.614 E49.1962
G1 X82.849 Y99.093 E49.22063
G1 X82.874 Y99.479 E49.23993
G1 X82.874 Y99.783 E49.2551
G1 X82.834 Y100.271 E49.27952
G1 X82.715 Y100.746 E49.30395
G1 X82.578 Y101.082 E49.32206
G0 F6750 X82.316 Y100.677
G1 F1350 X82.218 Y100.909 E49.33462
G1 X82.096 Y101.163 E49.34868
G1 X81.863 Y101.555 E49.37143
G1 X81.566 Y101.9 E49.39414
G1 X81.314 Y102.106 E49.41038
G1 X81.314 Y105.515 E49.58046
G1 X81.647 Y105.75 E49.60079
G1 X81.968 Y106.073 E49.62351
G1 X82.227 Y106.448 E49.64625
G1 X82.471 Y107.032 E49.67782
G1 X84.457 Y114.101 E50.04415
G1 X84.751 Y114.123 E50.05886
G1 X85.4 Y114.182 E50.09137
G1 X86.108 Y114.266 E50.12694
G1 X86.344 Y114.299 E50.13883
G1 X86.993 Y114.396 E50.17157
G1 X87.222 Y114.436 E50.18317
G1 X88.326 Y114.649 E50.23926
G1 X88.529 Y114.695 E50.24965
G1 X89.656 Y114.972 E50.30755
G1 X89.908 Y115.041 E50.32058
G1 X90.828 Y115.314 E50.36846
G1 X91.026 Y115.379 E50.37886
G1 X91.733 Y115.618 E50.41609
G1 X92.189 Y115.787 E50.44035
G1 X92.479 Y115.838 E50.45504
G1 X111.03 Y114.84 E51.38189
G1 X112.409 Y114.608 E51.45166
G1 X113.343 Y114.375 E51.49968
G1 X113.44 Y114.347 E51.50472
G1 X114.104 Y114.139 E51.53943
G1 X114.19 Y114.11 E51.54396
G1 X114.428 Y114.023 E51.5566
G1 X114.545 Y113.745 E51.57165
G1 X114.855 Y112.911 E51.61604
G1 X115.252 Y111.57 E51.68582
G1 X115.588 Y109.924 E51.76963
G1 X115.772 Y107.922 E51.86993
G1 X115.672 Y105.32 E51.99984
G1 X115.359 Y103.142 E52.10962
G1 X115.339 Y103.019 E52.11583
G1 X114.96 Y101.163 E52.21034
G1 X114.93 Y101.036 E52.21685
G1 X114.62 Y99.813 E52.2798
