; generated by SuperSlicer 2.3.57 on 2022-04-01 at 11:53:51 UTC


;
;

;
;
; TODO: check the size of the extruder and the y-bar clearance. Optimize & test supports.

; external perimeters extrusion width = 0.42mm
; perimeters extrusion width = 0.46mm
; infill extrusion width = 0.44mm
; solid infill extrusion width = 0.46mm
; top infill extrusion width = 0.44mm
; first layer extrusion width = 0.48mm

; object:{"name":"Patch-25x25x0","id":"Patch-25x25x0.25mm.stl id:0 copy 0","object_center":[60.000000,60.000000,0.000000],"boundingbox_center":[60.000000,60.000000,0.439041],"boundingbox_size":[87.808139,87.808139,0.878081]}
; plater:{"center":[60.000000,60.000000,0.000000],"boundingbox_center":[60.000000,60.000000,0.439041],"boundingbox_size":[87.808139,87.808139,0.878081]}

;TYPE:Custom
; M190 S0
; M109 S0 ; uncomment to remove set&wait temp gcode added automatically after this start gcode
print_start EXTRUDER=200 BED=50 CHAMBER=15
M107
G21 ; set units to millimeters
G90 ; use absolute coordinates
M83 ; use relative distances for extrusion
M104 S200 ; set temperature
M109 S200 ; set temperature and wait for it to be reached
M190 S50 ; set bed temperature and wait for it to be reached
M107
;LAYER_CHANGE
;Z:0.25
;HEIGHT:0.25
;BEFORE_LAYER_CHANGE
;0.25


G1 Z0.25 F18000
;AFTER_LAYER_CHANGE
;0.25
M204 S1500
G1 X13.184 Y13.318
;TYPE:Skirt
;WIDTH:0.52
G1 F3000
G1 X12.7 Y13.931 E0.03783
G1 X12.339 Y14.622 E0.03783
G1 X12.113 Y15.369 E0.03783
G1 X12.03 Y16.146 E0.03783
G1 X12.03 Y103.813 E4.24935
G1 X12.116 Y104.644 E0.0405
G1 X12.367 Y105.446 E0.04075
G1 X12.775 Y106.181 E0.04075
G1 X13.318 Y106.816 E0.0405
G1 X13.931 Y107.3 E0.03783
G1 X14.622 Y107.661 E0.03783
G1 X15.369 Y107.887 E0.03783
G1 X16.146 Y107.97 E0.03783
G1 X103.813 Y107.97 E4.24935
G1 X104.644 Y107.884 E0.0405
G1 X105.446 Y107.633 E0.04075
G1 X106.181 Y107.225 E0.04075
G1 X106.816 Y106.682 E0.0405
G1 X107.3 Y106.069 E0.03783
G1 X107.661 Y105.378 E0.03783
G1 X107.887 Y104.631 E0.03783
G1 X107.97 Y103.854 E0.03783
G1 X107.968 Y16.061 E4.25546
G1 X107.865 Y15.267 E0.0388
G1 X107.615 Y14.512 E0.03856
G1 X107.222 Y13.815 E0.0388
G1 X106.704 Y13.205 E0.0388
G1 X106.082 Y12.708 E0.03856
G1 X105.373 Y12.337 E0.0388
G1 X104.606 Y12.108 E0.0388
G1 X103.809 Y12.03 E0.0388
G1 X16.137 Y12.03 E4.2496
G1 X15.317 Y12.124 E0.04002
G1 X14.531 Y12.377 E0.04002
G1 X13.81 Y12.781 E0.04002
G1 X13.229 Y13.279 E0.03711
G1 X13.38 Y13.455 F18000
M204 S1000
G1 X13.53 Y13.632
G1 F3000
G1 X13.095 Y14.179 E0.0339
G1 X12.771 Y14.797 E0.03381
G1 X12.569 Y15.464 E0.03381
G1 X12.497 Y16.153 E0.03358
G1 X12.496 Y103.809 E4.24878
G1 X12.572 Y104.549 E0.0361
G1 X12.795 Y105.26 E0.0361
G1 X13.153 Y105.908 E0.03587
G1 X13.636 Y106.475 E0.0361
G1 X14.179 Y106.905 E0.03358
G1 X14.797 Y107.229 E0.03381
G1 X15.464 Y107.431 E0.03381
G1 X16.153 Y107.503 E0.03358
G1 X103.809 Y107.504 E4.24878
G1 X104.549 Y107.428 E0.0361
G1 X105.26 Y107.205 E0.0361
G1 X105.908 Y106.847 E0.03587
G1 X106.475 Y106.364 E0.0361
G1 X106.905 Y105.821 E0.03358
G1 X107.229 Y105.203 E0.03381
G1 X107.431 Y104.536 E0.03381
G1 X107.503 Y103.847 E0.03358
G1 X107.502 Y16.092 E4.25361
G1 X107.414 Y15.386 E0.0345
G1 X107.192 Y14.709 E0.0345
G1 X106.844 Y14.088 E0.0345
G1 X106.385 Y13.545 E0.0345
G1 X105.829 Y13.1 E0.0345
G1 X105.199 Y12.769 E0.0345
G1 X104.517 Y12.566 E0.0345
G1 X103.809 Y12.496 E0.0345
G1 X16.149 Y12.497 E4.24901
G1 X15.418 Y12.579 E0.03564
G1 X14.722 Y12.803 E0.03541
G1 X14.084 Y13.158 E0.03541
G1 X13.576 Y13.593 E0.03241
M204 S1500
G1 X13.726 Y13.769 F18000
M204 S1000
G1 X13.875 Y13.945
G1 F3000
G1 X13.489 Y14.428 E0.02999
G1 X13.204 Y14.97 E0.02967
G1 X13.027 Y15.556 E0.02967
G1 X12.963 Y16.165 E0.02967
G1 X12.963 Y103.804 E4.248
G1 X13.028 Y104.449 E0.03144
G1 X13.22 Y105.068 E0.03138
G1 X13.531 Y105.635 E0.03138
G1 X13.95 Y106.13 E0.03138
G1 X14.428 Y106.511 E0.02967
G1 X14.97 Y106.796 E0.02967
G1 X15.556 Y106.973 E0.02967
G1 X16.165 Y107.037 E0.02967
G1 X103.804 Y107.037 E4.248
G1 X104.449 Y106.972 E0.03144
G1 X105.068 Y106.78 E0.03138
G1 X105.635 Y106.469 E0.03138
G1 X106.13 Y106.05 E0.03138
G1 X106.511 Y105.572 E0.02967
G1 X106.796 Y105.03 E0.02967
G1 X106.973 Y104.444 E0.02967
G1 X107.037 Y103.835 E0.02967
G1 X107.036 Y16.115 E4.25193
G1 X106.96 Y15.494 E0.03031
G1 X106.768 Y14.904 E0.0301
G1 X106.466 Y14.361 E0.0301
G1 X106.063 Y13.883 E0.03031
G1 X105.575 Y13.491 E0.03031
G1 X105.026 Y13.202 E0.0301
G1 X104.431 Y13.024 E0.0301
G1 X103.809 Y12.963 E0.03031
G1 X16.159 Y12.963 E4.24848
G1 X15.524 Y13.033 E0.03096
G1 X14.916 Y13.227 E0.03096
G1 X14.357 Y13.536 E0.03096
G1 X13.921 Y13.907 E0.02773
; INIT printing object Patch-25x25x0.25mm.stl id:0 copy 0
G1 E-2
M204 S1500
G1 Z0.65 F18000
; printing object Patch-25x25x0.25mm.stl id:0 copy 0
G1 X15.605 Y15.598
M204 S1000
G1 X17.289 Y17.289
G1 Z0.25
G1 E2 F1800
;TYPE:Internal perimeter
;WIDTH:0.48
G1 F3000
G1 X102.711 Y17.289 E3.78541
G1 X102.711 Y102.711 E3.78541
G1 X17.289 Y102.711 E3.78541
G1 X17.289 Y17.349 E3.78275
M204 S1500
G1 X17.075 Y17.105 F18000
M204 S1000
G1 X16.862 Y16.862
G1 F3000
G1 X103.138 Y16.862 E3.8232
G1 X103.138 Y103.138 E3.8232
G1 X16.862 Y103.138 E3.8232
G1 X16.862 Y16.922 E3.82054
M204 S1500
G1 X16.649 Y16.679 F18000
M204 S1000
G1 X16.436 Y16.436
;TYPE:External perimeter
G1 F3000
G1 X103.564 Y16.436 E3.86099
G1 X103.564 Y103.564 E3.86099
G1 X16.436 Y103.564 E3.86099
G1 X16.436 Y16.496 E3.85833
;WIPE_START
M204 S1500
G1 X16.782 Y16.636 F18000
;WIPE_END
G1 X59.241 Y17.037
M204 S1000
G1 X101.7 Y17.438
;TYPE:Solid infill
;WIDTH:0.480317
G1 F3000
G1 X102.379 Y18.116 E0.04255
G1 X102.379 Y18.719 E0.02674
G1 X101.281 Y17.621 E0.06887
G1 X100.678 Y17.621 E0.02674
G1 X102.379 Y19.322 E0.10668
G1 X102.379 Y19.925 E0.02674
G1 X100.075 Y17.621 E0.14449
G1 X99.472 Y17.621 E0.02674
G1 X102.379 Y20.528 E0.1823
G1 X102.379 Y21.131 E0.02674
G1 X98.869 Y17.621 E0.22011
G1 X98.266 Y17.621 E0.02674
G1 X102.379 Y21.734 E0.25792
G1 X102.379 Y22.337 E0.02674
G1 X97.663 Y17.621 E0.29573
G1 X97.06 Y17.621 E0.02674
G1 X102.379 Y22.94 E0.33354
G1 X102.379 Y23.543 E0.02674
G1 X96.457 Y17.621 E0.37136
G1 X95.854 Y17.621 E0.02674
G1 X102.379 Y24.146 E0.40917
G1 X102.379 Y24.749 E0.02674
G1 X95.251 Y17.621 E0.44698
G1 X94.648 Y17.621 E0.02674
G1 X102.379 Y25.352 E0.48479
G1 X102.379 Y25.955 E0.02674
G1 X94.045 Y17.621 E0.5226
G1 X93.442 Y17.621 E0.02674
G1 X102.379 Y26.558 E0.56041
G1 X102.379 Y27.161 E0.02674
G1 X92.839 Y17.621 E0.59822
G1 X92.236 Y17.621 E0.02674
G1 X102.379 Y27.764 E0.63604
G1 X102.379 Y28.366 E0.02674
G1 X91.634 Y17.621 E0.67385
G1 X91.031 Y17.621 E0.02674
G1 X102.379 Y28.969 E0.71166
G1 X102.379 Y29.572 E0.02674
G1 X90.428 Y17.621 E0.74947
G1 X89.825 Y17.621 E0.02674
G1 X102.379 Y30.175 E0.78728
G1 X102.379 Y30.778 E0.02674
G1 X89.222 Y17.621 E0.82509
G1 X88.619 Y17.621 E0.02674
G1 X102.379 Y31.381 E0.8629
G1 X102.379 Y31.984 E0.02674
G1 X88.016 Y17.621 E0.90072
G1 X87.413 Y17.621 E0.02674
G1 X102.379 Y32.587 E0.93853
G1 X102.379 Y33.19 E0.02674
G1 X86.81 Y17.621 E0.97634
G1 X86.207 Y17.621 E0.02674
G1 X102.379 Y33.793 E1.01415
G1 X102.379 Y34.396 E0.02674
G1 X85.604 Y17.621 E1.05196
G1 X85.001 Y17.621 E0.02674
G1 X102.379 Y34.999 E1.08977
G1 X102.379 Y35.602 E0.02674
G1 X84.398 Y17.621 E1.12758
G1 X83.795 Y17.621 E0.02674
G1 X102.379 Y36.205 E1.16539
G1 X102.379 Y36.808 E0.02674
G1 X83.192 Y17.621 E1.20321
G1 X82.589 Y17.621 E0.02674
G1 X102.379 Y37.411 E1.24102
G1 X102.379 Y38.014 E0.02674
G1 X81.986 Y17.621 E1.27883
G1 X81.383 Y17.621 E0.02674
G1 X102.379 Y38.617 E1.31664
G1 X102.379 Y39.22 E0.02674
G1 X80.78 Y17.621 E1.35445
G1 X80.177 Y17.621 E0.02674
G1 X102.379 Y39.823 E1.39226
G1 X102.379 Y40.425 E0.02674
G1 X79.575 Y17.621 E1.43007
G1 X78.972 Y17.621 E0.02674
G1 X102.379 Y41.028 E1.46789
G1 X102.379 Y41.631 E0.02674
G1 X78.369 Y17.621 E1.5057
G1 X77.766 Y17.621 E0.02674
G1 X102.379 Y42.234 E1.54351
G1 X102.379 Y42.837 E0.02674
G1 X77.163 Y17.621 E1.58132
G1 X76.56 Y17.621 E0.02674
G1 X102.379 Y43.44 E1.61913
G1 X102.379 Y44.043 E0.02674
G1 X75.957 Y17.621 E1.65694
G1 X75.354 Y17.621 E0.02674
G1 X102.379 Y44.646 E1.69475
G1 X102.379 Y45.249 E0.02674
G1 X74.751 Y17.621 E1.73256
G1 X74.148 Y17.621 E0.02674
G1 X102.379 Y45.852 E1.77038
G1 X102.379 Y46.455 E0.02674
G1 X73.545 Y17.621 E1.80819
G1 X72.942 Y17.621 E0.02674
G1 X102.379 Y47.058 E1.846
G1 X102.379 Y47.661 E0.02674
G1 X72.339 Y17.621 E1.88381
G1 X71.736 Y17.621 E0.02674
G1 X102.379 Y48.264 E1.92162
G1 X102.379 Y48.867 E0.02674
G1 X71.133 Y17.621 E1.95943
G1 X70.53 Y17.621 E0.02674
G1 X102.379 Y49.47 E1.99724
G1 X102.379 Y50.073 E0.02674
G1 X69.927 Y17.621 E2.03506
G1 X69.324 Y17.621 E0.02674
G1 X102.379 Y50.676 E2.07287
G1 X102.379 Y51.279 E0.02674
G1 X68.721 Y17.621 E2.11068
G1 X68.119 Y17.621 E0.02674
G1 X102.379 Y51.881 E2.14849
G1 X102.379 Y52.484 E0.02674
G1 X67.516 Y17.621 E2.1863
G1 X66.913 Y17.621 E0.02674
G1 X102.379 Y53.087 E2.22411
G1 X102.379 Y53.69 E0.02674
G1 X66.31 Y17.621 E2.26192
G1 X65.707 Y17.621 E0.02674
G1 X102.379 Y54.293 E2.29973
G1 X102.379 Y54.896 E0.02674
G1 X65.104 Y17.621 E2.33755
G1 X64.501 Y17.621 E0.02674
G1 X102.379 Y55.499 E2.37536
G1 X102.379 Y56.102 E0.02674
G1 X63.898 Y17.621 E2.41317
G1 X63.295 Y17.621 E0.02674
G1 X102.379 Y56.705 E2.45098
G1 X102.379 Y57.308 E0.02674
G1 X62.692 Y17.621 E2.48879
G1 X62.089 Y17.621 E0.02674
G1 X102.379 Y57.911 E2.5266
G1 X102.379 Y58.514 E0.02674
G1 X61.486 Y17.621 E2.56441
G1 X60.883 Y17.621 E0.02674
G1 X102.379 Y59.117 E2.60223
G1 X102.379 Y59.72 E0.02674
G1 X60.28 Y17.621 E2.64004
G1 X59.677 Y17.621 E0.02674
G1 X102.379 Y60.323 E2.67785
G1 X102.379 Y60.926 E0.02674
G1 X59.074 Y17.621 E2.71566
G1 X58.471 Y17.621 E0.02674
G1 X102.379 Y61.529 E2.75347
G1 X102.379 Y62.132 E0.02674
G1 X57.868 Y17.621 E2.79128
G1 X57.265 Y17.621 E0.02674
G1 X102.379 Y62.735 E2.82909
G1 X102.379 Y63.337 E0.02674
G1 X56.662 Y17.621 E2.8669
G1 X56.06 Y17.621 E0.02674
G1 X102.379 Y63.94 E2.90472
G1 X102.379 Y64.543 E0.02674
G1 X55.457 Y17.621 E2.94253
G1 X54.854 Y17.621 E0.02674
G1 X102.379 Y65.146 E2.98034
G1 X102.379 Y65.749 E0.02674
G1 X54.251 Y17.621 E3.01815
G1 X53.648 Y17.621 E0.02674
G1 X102.379 Y66.352 E3.05596
G1 X102.379 Y66.955 E0.02674
G1 X53.045 Y17.621 E3.09377
G1 X52.442 Y17.621 E0.02674
G1 X102.379 Y67.558 E3.13158
G1 X102.379 Y68.161 E0.02674
G1 X51.839 Y17.621 E3.1694
G1 X51.236 Y17.621 E0.02674
G1 X102.379 Y68.764 E3.20721
G1 X102.379 Y69.367 E0.02674
G1 X50.633 Y17.621 E3.24502
G1 X50.03 Y17.621 E0.02674
G1 X102.379 Y69.97 E3.28283
G1 X102.379 Y70.573 E0.02674
G1 X49.427 Y17.621 E3.32064
G1 X48.824 Y17.621 E0.02674
G1 X102.379 Y71.176 E3.35845
G1 X102.379 Y71.779 E0.02674
G1 X48.221 Y17.621 E3.39626
G1 X47.618 Y17.621 E0.02674
G1 X102.379 Y72.382 E3.43407
G1 X102.379 Y72.985 E0.02674
G1 X47.015 Y17.621 E3.47189
G1 X46.412 Y17.621 E0.02674
G1 X102.379 Y73.588 E3.5097
G1 X102.379 Y74.191 E0.02674
G1 X45.809 Y17.621 E3.54751
G1 X45.206 Y17.621 E0.02674
G1 X102.379 Y74.794 E3.58532
G1 X102.379 Y75.396 E0.02674
G1 X44.604 Y17.621 E3.62313
G1 X44.001 Y17.621 E0.02674
G1 X102.379 Y75.999 E3.66094
G1 X102.379 Y76.602 E0.02674
G1 X43.398 Y17.621 E3.69875
G1 X42.795 Y17.621 E0.02674
G1 X102.379 Y77.205 E3.73657
G1 X102.379 Y77.808 E0.02674
G1 X42.192 Y17.621 E3.77438
G1 X41.589 Y17.621 E0.02674
G1 X102.379 Y78.411 E3.81219
G1 X102.379 Y79.014 E0.02674
G1 X40.986 Y17.621 E3.85
G1 X40.383 Y17.621 E0.02674
G1 X102.379 Y79.617 E3.88781
G1 X102.379 Y80.22 E0.02674
G1 X39.78 Y17.621 E3.92562
G1 X39.177 Y17.621 E0.02674
G1 X102.379 Y80.823 E3.96343
G1 X102.379 Y81.426 E0.02674
G1 X38.574 Y17.621 E4.00124
G1 X37.971 Y17.621 E0.02674
G1 X102.379 Y82.029 E4.03906
G1 X102.379 Y82.632 E0.02674
G1 X37.368 Y17.621 E4.07687
G1 X36.765 Y17.621 E0.02674
G1 X102.379 Y83.235 E4.11468
G1 X102.379 Y83.838 E0.02674
G1 X36.162 Y17.621 E4.15249
G1 X35.559 Y17.621 E0.02674
G1 X102.379 Y84.441 E4.1903
G1 X102.379 Y85.044 E0.02674
G1 X34.956 Y17.621 E4.22811
G1 X34.353 Y17.621 E0.02674
G1 X102.379 Y85.647 E4.26592
G1 X102.379 Y86.25 E0.02674
G1 X33.75 Y17.621 E4.30374
G1 X33.148 Y17.621 E0.02674
G1 X102.379 Y86.852 E4.34155
G1 X102.379 Y87.455 E0.02674
G1 X32.545 Y17.621 E4.37936
G1 X31.942 Y17.621 E0.02674
G1 X102.379 Y88.058 E4.41717
G1 X102.379 Y88.661 E0.02674
G1 X31.339 Y17.621 E4.45498
G1 X30.736 Y17.621 E0.02674
G1 X102.379 Y89.264 E4.49279
G1 X102.379 Y89.867 E0.02674
G1 X30.133 Y17.621 E4.5306
G1 X29.53 Y17.621 E0.02674
G1 X102.379 Y90.47 E4.56842
G1 X102.379 Y91.073 E0.02674
G1 X28.927 Y17.621 E4.60623
G1 X28.324 Y17.621 E0.02674
G1 X102.379 Y91.676 E4.64404
G1 X102.379 Y92.279 E0.02674
G1 X27.721 Y17.621 E4.68185
G1 X27.118 Y17.621 E0.02674
G1 X102.379 Y92.882 E4.71966
G1 X102.379 Y93.485 E0.02674
G1 X26.515 Y17.621 E4.75747
G1 X25.912 Y17.621 E0.02674
G1 X102.379 Y94.088 E4.79528
G1 X102.379 Y94.691 E0.02674
G1 X25.309 Y17.621 E4.83309
G1 X24.706 Y17.621 E0.02674
G1 X102.379 Y95.294 E4.87091
G1 X102.379 Y95.897 E0.02674
G1 X24.103 Y17.621 E4.90872
G1 X23.5 Y17.621 E0.02674
G1 X102.379 Y96.5 E4.94653
G1 X102.379 Y97.103 E0.02674
G1 X22.897 Y17.621 E4.98434
G1 X22.294 Y17.621 E0.02674
G1 X102.379 Y97.706 E5.02215
G1 X102.379 Y98.309 E0.02674
G1 X21.691 Y17.621 E5.05996
G1 X21.089 Y17.621 E0.02674
G1 X102.379 Y98.911 E5.09777
G1 X102.379 Y99.514 E0.02674
G1 X20.486 Y17.621 E5.13559
G1 X19.883 Y17.621 E0.02674
G1 X102.379 Y100.117 E5.1734
G1 X102.379 Y100.72 E0.02674
G1 X19.28 Y17.621 E5.21121
G1 X18.677 Y17.621 E0.02674
G1 X102.379 Y101.323 E5.24902
G1 X102.379 Y101.926 E0.02674
G1 X18.074 Y17.621 E5.28683
G1 X17.621 Y17.621 E0.02007
G1 X17.621 Y17.771 E0.00667
G1 X102.229 Y102.379 E5.30579
G1 X101.626 Y102.379 E0.02674
G1 X17.621 Y18.374 E5.26798
G1 X17.621 Y18.977 E0.02674
G1 X101.023 Y102.379 E5.23017
G1 X100.42 Y102.379 E0.02674
G1 X17.621 Y19.58 E5.19235
G1 X17.621 Y20.183 E0.02674
G1 X99.817 Y102.379 E5.15454
G1 X99.214 Y102.379 E0.02674
G1 X17.621 Y20.786 E5.11673
G1 X17.621 Y21.389 E0.02674
G1 X98.611 Y102.379 E5.07892
G1 X98.008 Y102.379 E0.02674
G1 X17.621 Y21.992 E5.04111
G1 X17.621 Y22.595 E0.02674
G1 X97.405 Y102.379 E5.0033
G1 X96.802 Y102.379 E0.02674
G1 X17.621 Y23.198 E4.96549
G1 X17.621 Y23.801 E0.02674
G1 X96.199 Y102.379 E4.92768
G1 X95.596 Y102.379 E0.02674
G1 X17.621 Y24.404 E4.88986
G1 X17.621 Y25.007 E0.02674
G1 X94.993 Y102.379 E4.85205
G1 X94.39 Y102.379 E0.02674
G1 X17.621 Y25.61 E4.81424
G1 X17.621 Y26.213 E0.02674
G1 X93.787 Y102.379 E4.77643
G1 X93.184 Y102.379 E0.02674
G1 X17.621 Y26.816 E4.73862
G1 X17.621 Y27.419 E0.02674
G1 X92.581 Y102.379 E4.70081
G1 X91.978 Y102.379 E0.02674
G1 X17.621 Y28.022 E4.663
G1 X17.621 Y28.625 E0.02674
G1 X91.375 Y102.379 E4.62518
G1 X90.772 Y102.379 E0.02674
G1 X17.621 Y29.228 E4.58737
G1 X17.621 Y29.83 E0.02674
G1 X90.17 Y102.379 E4.54956
G1 X89.567 Y102.379 E0.02674
G1 X17.621 Y30.433 E4.51175
G1 X17.621 Y31.036 E0.02674
G1 X88.964 Y102.379 E4.47394
G1 X88.361 Y102.379 E0.02674
G1 X17.621 Y31.639 E4.43613
G1 X17.621 Y32.242 E0.02674
G1 X87.758 Y102.379 E4.39832
G1 X87.155 Y102.379 E0.02674
G1 X17.621 Y32.845 E4.36051
G1 X17.621 Y33.448 E0.02674
G1 X86.552 Y102.379 E4.32269
G1 X85.949 Y102.379 E0.02674
G1 X17.621 Y34.051 E4.28488
G1 X17.621 Y34.654 E0.02674
G1 X85.346 Y102.379 E4.24707
G1 X84.743 Y102.379 E0.02674
G1 X17.621 Y35.257 E4.20926
G1 X17.621 Y35.86 E0.02674
G1 X84.14 Y102.379 E4.17145
G1 X83.537 Y102.379 E0.02674
G1 X17.621 Y36.463 E4.13364
G1 X17.621 Y37.066 E0.02674
G1 X82.934 Y102.379 E4.09583
G1 X82.331 Y102.379 E0.02674
G1 X17.621 Y37.669 E4.05801
G1 X17.621 Y38.272 E0.02674
G1 X81.728 Y102.379 E4.0202
G1 X81.125 Y102.379 E0.02674
G1 X17.621 Y38.875 E3.98239
G1 X17.621 Y39.478 E0.02674
G1 X80.522 Y102.379 E3.94458
G1 X79.919 Y102.379 E0.02674
G1 X17.621 Y40.081 E3.90677
G1 X17.621 Y40.684 E0.02674
G1 X79.316 Y102.379 E3.86896
G1 X78.714 Y102.379 E0.02674
G1 X17.621 Y41.286 E3.83115
G1 X17.621 Y41.889 E0.02674
G1 X78.111 Y102.379 E3.79334
G1 X77.508 Y102.379 E0.02674
G1 X17.621 Y42.492 E3.75552
G1 X17.621 Y43.095 E0.02674
G1 X76.905 Y102.379 E3.71771
G1 X76.302 Y102.379 E0.02674
G1 X17.621 Y43.698 E3.6799
G1 X17.621 Y44.301 E0.02674
