; generated by SuperSlicer 2.3.57 on 2022-03-31 at 10:03:17 UTC


;
;

;
;
; TODO: check the size of the extruder and the y-bar clearance. Optimize & test supports.

; external perimeters extrusion width = 0.42mm
; perimeters extrusion width = 0.46mm
; infill extrusion width = 0.44mm
; solid infill extrusion width = 0.46mm
; top infill extrusion width = 0.44mm
; first layer extrusion width = 0.48mm

; object:{"name":"Patch-25x25x0","id":"Patch-25x25x0.25mm.stl id:0 copy 0","object_center":[60.000000,60.000000,0.000000],"boundingbox_center":[60.000000,60.000000,0.125000],"boundingbox_size":[25.000000,25.000000,0.250000]}
; object:{"name":"Patch-25x25x0","id":"Patch-25x25x0.25mm.stl id:1 copy 0","object_center":[98.000000,95.000000,0.000000],"boundingbox_center":[98.000000,95.000000,0.125000],"boundingbox_size":[25.000000,25.000000,0.250000]}
; object:{"name":"Patch-25x25x0","id":"Patch-25x25x0.25mm.stl id:2 copy 0","object_center":[24.000000,95.000000,0.000000],"boundingbox_center":[24.000000,95.000000,0.125000],"boundingbox_size":[25.000000,25.000000,0.250000]}
; object:{"name":"Patch-25x25x0","id":"Patch-25x25x0.25mm.stl id:3 copy 0","object_center":[24.000000,22.000000,0.000000],"boundingbox_center":[24.000000,22.000000,0.125000],"boundingbox_size":[25.000000,25.000000,0.250000]}
; object:{"name":"Patch-25x25x0","id":"Patch-25x25x0.25mm.stl id:4 copy 0","object_center":[98.000000,22.000000,0.000000],"boundingbox_center":[98.000000,22.000000,0.125000],"boundingbox_size":[25.000000,25.000000,0.250000]}
; plater:{"center":[61.000000,58.500000,0.000000],"boundingbox_center":[61.000000,58.500000,0.125000],"boundingbox_size":[99.000000,98.000000,0.250000]}

;TYPE:Custom
; M190 S0
; M109 S0 ; uncomment to remove set&wait temp gcode added automatically after this start gcode
print_start EXTRUDER=200 BED=50 CHAMBER=15
M107
G21 ; set units to millimeters
G90 ; use absolute coordinates
M83 ; use relative distances for extrusion
M104 S200 ; set temperature
M109 S200 ; set temperature and wait for it to be reached
M190 S50 ; set bed temperature and wait for it to be reached
;LAYER_CHANGE
;Z:0.25
;HEIGHT:0.25
;BEFORE_LAYER_CHANGE
;0.25


G1 Z0.25 F18000
;AFTER_LAYER_CHANGE
;0.25
M204 S1500
G1 X8.513 Y6.82
;TYPE:Skirt
;WIDTH:0.52
G1 F1800
G1 X8.118 Y7.314 E0.03065
G1 X7.748 Y8.012 E0.03832
G1 X7.519 Y8.764 E0.03807
G1 X7.434 Y9.55 E0.03832
G1 X7.434 Y107.404 E4.74312
G1 X7.518 Y108.23 E0.04026
G1 X7.765 Y109.028 E0.0405
G1 X8.165 Y109.757 E0.04026
G1 X8.701 Y110.391 E0.04026
G1 X9.314 Y110.882 E0.03807
G1 X10.012 Y111.252 E0.03832
G1 X10.764 Y111.481 E0.03807
G1 X11.55 Y111.566 E0.03832
G1 X110.404 Y111.566 E4.7916
G1 X111.23 Y111.482 E0.04026
G1 X112.028 Y111.235 E0.0405
G1 X112.757 Y110.835 E0.04026
G1 X113.391 Y110.299 E0.04026
G1 X113.882 Y109.686 E0.03807
G1 X114.252 Y108.988 E0.03832
G1 X114.481 Y108.236 E0.03807
G1 X114.566 Y107.45 E0.03832
G1 X114.564 Y9.48 E4.74874
G1 X114.464 Y8.686 E0.0388
G1 X114.215 Y7.926 E0.0388
G1 X113.821 Y7.223 E0.03905
G1 X113.303 Y6.612 E0.0388
G1 X112.678 Y6.112 E0.0388
G1 X111.969 Y5.741 E0.0388
G1 X111.202 Y5.512 E0.0388
G1 X110.405 Y5.434 E0.0388
G1 X11.546 Y5.434 E4.79184
G1 X10.73 Y5.526 E0.03978
G1 X9.949 Y5.775 E0.03978
G1 X9.235 Y6.17 E0.03953
G1 X8.609 Y6.701 E0.03978
G1 X8.551 Y6.773 E0.00451
G1 X8.732 Y6.919 F18000
M204 S1000
G1 X8.913 Y7.064
G1 F1800
G1 X8.507 Y7.571 E0.03149
G1 X8.179 Y8.192 E0.03404
G1 X7.974 Y8.864 E0.03404
G1 X7.901 Y9.562 E0.03404
G1 X7.9 Y107.404 E4.74256
G1 X7.974 Y108.136 E0.03564
G1 X8.192 Y108.839 E0.03564
G1 X8.543 Y109.484 E0.03564
G1 X9.019 Y110.051 E0.03587
G1 X9.571 Y110.493 E0.03427
G1 X10.192 Y110.821 E0.03404
G1 X10.864 Y111.026 E0.03404
G1 X11.562 Y111.099 E0.03404
G1 X110.4 Y111.1 E4.79082
G1 X111.136 Y111.026 E0.03586
G1 X111.839 Y110.808 E0.03564
G1 X112.484 Y110.457 E0.03564
G1 X113.051 Y109.981 E0.03587
G1 X113.493 Y109.429 E0.03427
G1 X113.821 Y108.808 E0.03404
G1 X114.026 Y108.136 E0.03404
G1 X114.099 Y107.438 E0.03404
G1 X114.098 Y9.505 E4.74694
G1 X114.011 Y8.794 E0.03473
G1 X113.79 Y8.118 E0.0345
G1 X113.443 Y7.496 E0.0345
G1 X112.984 Y6.952 E0.0345
G1 X112.429 Y6.507 E0.0345
G1 X111.799 Y6.175 E0.0345
G1 X111.118 Y5.971 E0.0345
G1 X110.405 Y5.9 E0.03473
G1 X11.558 Y5.901 E4.79126
G1 X10.836 Y5.98 E0.03518
G1 X10.144 Y6.199 E0.03518
G1 X9.504 Y6.552 E0.03541
G1 X8.951 Y7.018 E0.03505
M204 S1500
G1 X9.119 Y7.179 F18000
M204 S1000
G1 X9.287 Y7.341
G1 F1800
G1 X8.9 Y7.821 E0.02988
G1 X8.612 Y8.366 E0.02988
G1 X8.432 Y8.956 E0.02988
G1 X8.367 Y9.569 E0.02988
G1 X8.367 Y107.4 E4.74201
G1 X8.431 Y108.041 E0.03123
G1 X8.621 Y108.655 E0.03117
G1 X8.928 Y109.22 E0.03117
G1 X9.341 Y109.713 E0.03117
G1 X9.821 Y110.1 E0.02988
G1 X10.366 Y110.388 E0.02988
G1 X10.956 Y110.568 E0.02988
G1 X11.569 Y110.633 E0.02988
G1 X110.4 Y110.633 E4.79048
G1 X111.041 Y110.569 E0.03123
G1 X111.655 Y110.379 E0.03117
G1 X112.22 Y110.072 E0.03117
G1 X112.713 Y109.659 E0.03117
G1 X113.1 Y109.179 E0.02988
G1 X113.388 Y108.634 E0.02988
G1 X113.568 Y108.044 E0.02988
G1 X113.633 Y107.431 E0.02988
G1 X113.632 Y9.528 E4.74551
G1 X113.559 Y8.911 E0.0301
G1 X113.367 Y8.316 E0.03031
G1 X113.065 Y7.769 E0.03031
G1 X112.662 Y7.29 E0.03031
G1 X112.175 Y6.898 E0.03031
G1 X111.622 Y6.606 E0.03031
G1 X111.027 Y6.428 E0.0301
G1 X110.404 Y6.367 E0.03031
G1 X11.568 Y6.367 E4.79075
G1 X10.937 Y6.435 E0.03074
G1 X10.332 Y6.626 E0.03074
G1 X9.776 Y6.93 E0.03074
G1 X9.333 Y7.302 E0.02805
; INIT printing object Patch-25x25x0.25mm.stl id:0 copy 0
G1 E-2 F3000
M204 S1500
G1 Z0.65 F18000
; printing object Patch-25x25x0.25mm.stl id:0 copy 0
G1 X28.586 Y27.571
M204 S1000
G1 X47.84 Y47.84
G1 Z0.25
G1 E2 F1800
;TYPE:External perimeter
;WIDTH:0.48
G1 X72.16 Y47.84 E1.07771
G1 X72.16 Y72.16 E1.07771
G1 X47.84 Y72.16 E1.07771
G1 X47.84 Y47.9 E1.07505
;WIPE_START
M204 S1500
G1 X48.186 Y48.04 F18000
;WIPE_END
G1 X59.668 Y48.015
M204 S1000
G1 X71.149 Y47.989
;TYPE:Solid infill
;WIDTH:0.481333
G1 F1800
G1 X71.827 Y48.668 E0.04264
G1 X71.827 Y49.271 E0.02679
G1 X70.729 Y48.173 E0.06901
G1 X70.126 Y48.173 E0.02679
G1 X71.827 Y49.874 E0.1069
G1 X71.827 Y50.477 E0.02679
G1 X69.523 Y48.173 E0.14479
G1 X68.92 Y48.173 E0.02679
G1 X71.827 Y51.08 E0.18269
G1 X71.827 Y51.682 E0.02679
G1 X68.318 Y48.173 E0.22058
G1 X67.715 Y48.173 E0.02679
G1 X71.827 Y52.285 E0.25847
G1 X71.827 Y52.888 E0.02679
G1 X67.112 Y48.173 E0.29636
G1 X66.509 Y48.173 E0.02679
G1 X71.827 Y53.491 E0.33425
G1 X71.827 Y54.094 E0.02679
G1 X65.906 Y48.173 E0.37214
G1 X65.303 Y48.173 E0.02679
G1 X71.827 Y54.697 E0.41003
G1 X71.827 Y55.3 E0.02679
G1 X64.7 Y48.173 E0.44792
G1 X64.097 Y48.173 E0.02679
G1 X71.827 Y55.903 E0.48582
G1 X71.827 Y56.506 E0.02679
G1 X63.494 Y48.173 E0.52371
G1 X62.891 Y48.173 E0.02679
G1 X71.827 Y57.109 E0.5616
G1 X71.827 Y57.712 E0.02679
G1 X62.288 Y48.173 E0.59949
G1 X61.685 Y48.173 E0.02679
G1 X71.827 Y58.315 E0.63738
G1 X71.827 Y58.918 E0.02679
G1 X61.082 Y48.173 E0.67527
G1 X60.479 Y48.173 E0.02679
G1 X71.827 Y59.521 E0.71316
G1 X71.827 Y60.124 E0.02679
G1 X59.876 Y48.173 E0.75105
G1 X59.273 Y48.173 E0.02679
G1 X71.827 Y60.727 E0.78895
G1 X71.827 Y61.33 E0.02679
G1 X58.67 Y48.173 E0.82684
G1 X58.067 Y48.173 E0.02679
G1 X71.827 Y61.933 E0.86473
G1 X71.827 Y62.536 E0.02679
G1 X57.464 Y48.173 E0.90262
G1 X56.862 Y48.173 E0.02679
G1 X71.827 Y63.138 E0.94051
G1 X71.827 Y63.741 E0.02679
G1 X56.259 Y48.173 E0.9784
G1 X55.656 Y48.173 E0.02679
G1 X71.827 Y64.344 E1.01629
G1 X71.827 Y64.947 E0.02679
G1 X55.053 Y48.173 E1.05419
G1 X54.45 Y48.173 E0.02679
G1 X71.827 Y65.55 E1.09208
G1 X71.827 Y66.153 E0.02679
G1 X53.847 Y48.173 E1.12997
G1 X53.244 Y48.173 E0.02679
G1 X71.827 Y66.756 E1.16786
G1 X71.827 Y67.359 E0.02679
G1 X52.641 Y48.173 E1.20575
G1 X52.038 Y48.173 E0.02679
G1 X71.827 Y67.962 E1.24364
G1 X71.827 Y68.565 E0.02679
G1 X51.435 Y48.173 E1.28153
G1 X50.832 Y48.173 E0.02679
G1 X71.827 Y69.168 E1.31942
G1 X71.827 Y69.771 E0.02679
G1 X50.229 Y48.173 E1.35732
G1 X49.626 Y48.173 E0.02679
G1 X71.827 Y70.374 E1.39521
G1 X71.827 Y70.977 E0.02679
G1 X49.023 Y48.173 E1.4331
G1 X48.42 Y48.173 E0.02679
G1 X71.827 Y71.58 E1.47099
G1 X71.827 Y71.827 E0.01101
G1 X71.472 Y71.827 E0.01579
G1 X48.173 Y48.528 E1.46423
G1 X48.173 Y49.131 E0.02679
G1 X70.869 Y71.827 E1.42634
G1 X70.266 Y71.827 E0.02679
G1 X48.173 Y49.734 E1.38845
G1 X48.173 Y50.337 E0.02679
G1 X69.663 Y71.827 E1.35056
G1 X69.06 Y71.827 E0.02679
G1 X48.173 Y50.94 E1.31266
G1 X48.173 Y51.543 E0.02679
G1 X68.457 Y71.827 E1.27477
G1 X67.855 Y71.827 E0.02679
G1 X48.173 Y52.145 E1.23688
G1 X48.173 Y52.748 E0.02679
G1 X67.252 Y71.827 E1.19899
G1 X66.649 Y71.827 E0.02679
G1 X48.173 Y53.351 E1.1611
G1 X48.173 Y53.954 E0.02679
G1 X66.046 Y71.827 E1.12321
G1 X65.443 Y71.827 E0.02679
G1 X48.173 Y54.557 E1.08532
G1 X48.173 Y55.16 E0.02679
G1 X64.84 Y71.827 E1.04743
G1 X64.237 Y71.827 E0.02679
G1 X48.173 Y55.763 E1.00953
G1 X48.173 Y56.366 E0.02679
G1 X63.634 Y71.827 E0.97164
G1 X63.031 Y71.827 E0.02679
G1 X48.173 Y56.969 E0.93375
G1 X48.173 Y57.572 E0.02679
G1 X62.428 Y71.827 E0.89586
G1 X61.825 Y71.827 E0.02679
G1 X48.173 Y58.175 E0.85797
G1 X48.173 Y58.778 E0.02679
G1 X61.222 Y71.827 E0.82008
G1 X60.619 Y71.827 E0.02679
G1 X48.173 Y59.381 E0.78219
G1 X48.173 Y59.984 E0.02679
G1 X60.016 Y71.827 E0.7443
G1 X59.413 Y71.827 E0.02679
G1 X48.173 Y60.587 E0.7064
G1 X48.173 Y61.19 E0.02679
G1 X58.81 Y71.827 E0.66851
G1 X58.207 Y71.827 E0.02679
G1 X48.173 Y61.793 E0.63062
G1 X48.173 Y62.396 E0.02679
G1 X57.604 Y71.827 E0.59273
G1 X57.001 Y71.827 E0.02679
G1 X48.173 Y62.999 E0.55484
G1 X48.173 Y63.602 E0.02679
G1 X56.398 Y71.827 E0.51695
G1 X55.796 Y71.827 E0.02679
G1 X48.173 Y64.204 E0.47906
G1 X48.173 Y64.807 E0.02679
G1 X55.193 Y71.827 E0.44116
G1 X54.59 Y71.827 E0.02679
G1 X48.173 Y65.41 E0.40327
G1 X48.173 Y66.013 E0.02679
G1 X53.987 Y71.827 E0.36538
G1 X53.384 Y71.827 E0.02679
G1 X48.173 Y66.616 E0.32749
G1 X48.173 Y67.219 E0.02679
G1 X52.781 Y71.827 E0.2896
G1 X52.178 Y71.827 E0.02679
G1 X48.173 Y67.822 E0.25171
G1 X48.173 Y68.425 E0.02679
G1 X51.575 Y71.827 E0.21382
G1 X50.972 Y71.827 E0.02679
G1 X48.173 Y69.028 E0.17593
G1 X48.173 Y69.631 E0.02679
G1 X50.369 Y71.827 E0.13803
G1 X49.766 Y71.827 E0.02679
G1 X48.173 Y70.234 E0.10014
G1 X48.173 Y70.837 E0.02679
G1 X49.163 Y71.827 E0.06225
G1 X48.56 Y71.827 E0.02679
G1 X47.989 Y71.257 E0.03588
; INIT stop printing object Patch-25x25x0.25mm.stl id:0 copy 0
; INIT printing object Patch-25x25x0.25mm.stl id:2 copy 0
G1 E-2 F3000
M204 S1500
G1 Z0.65 F18000
; stop printing object Patch-25x25x0.25mm.stl id:0 copy 0
; printing object Patch-25x25x0.25mm.stl id:2 copy 0
G1 X42.075 Y77.048
M204 S1000
G1 X36.16 Y82.84
G1 Z0.25
G1 E2 F1800
;TYPE:External perimeter
;WIDTH:0.48
G1 X36.16 Y107.16 E1.07771
G1 X11.84 Y107.16 E1.07771
G1 X11.84 Y82.84 E1.07771
G1 X36.1 Y82.84 E1.07505
;WIPE_START
M204 S1500
G1 X35.96 Y83.186 F18000
;WIPE_END
G1 X35.554 Y83.088
M204 S1000
G1 X35.149 Y82.989
;TYPE:Solid infill
;WIDTH:0.481333
G1 F1800
G1 X35.827 Y83.668 E0.04264
G1 X35.827 Y84.271 E0.02679
G1 X34.729 Y83.173 E0.06901
G1 X34.126 Y83.173 E0.02679
G1 X35.827 Y84.874 E0.1069
G1 X35.827 Y85.477 E0.02679
G1 X33.523 Y83.173 E0.14479
G1 X32.92 Y83.173 E0.02679
G1 X35.827 Y86.08 E0.18269
G1 X35.827 Y86.682 E0.02679
G1 X32.318 Y83.173 E0.22058
G1 X31.715 Y83.173 E0.02679
G1 X35.827 Y87.285 E0.25847
G1 X35.827 Y87.888 E0.02679
G1 X31.112 Y83.173 E0.29636
G1 X30.509 Y83.173 E0.02679
G1 X35.827 Y88.491 E0.33425
G1 X35.827 Y89.094 E0.02679
G1 X29.906 Y83.173 E0.37214
G1 X29.303 Y83.173 E0.02679
G1 X35.827 Y89.697 E0.41003
G1 X35.827 Y90.3 E0.02679
G1 X28.7 Y83.173 E0.44792
G1 X28.097 Y83.173 E0.02679
G1 X35.827 Y90.903 E0.48582
G1 X35.827 Y91.506 E0.02679
G1 X27.494 Y83.173 E0.52371
G1 X26.891 Y83.173 E0.02679
G1 X35.827 Y92.109 E0.5616
G1 X35.827 Y92.712 E0.02679
G1 X26.288 Y83.173 E0.59949
G1 X25.685 Y83.173 E0.02679
G1 X35.827 Y93.315 E0.63738
G1 X35.827 Y93.918 E0.02679
G1 X25.082 Y83.173 E0.67527
G1 X24.479 Y83.173 E0.02679
G1 X35.827 Y94.521 E0.71316
G1 X35.827 Y95.124 E0.02679
G1 X23.876 Y83.173 E0.75105
G1 X23.273 Y83.173 E0.02679
G1 X35.827 Y95.727 E0.78895
G1 X35.827 Y96.33 E0.02679
G1 X22.67 Y83.173 E0.82684
G1 X22.067 Y83.173 E0.02679
G1 X35.827 Y96.933 E0.86473
G1 X35.827 Y97.536 E0.02679
G1 X21.464 Y83.173 E0.90262
G1 X20.862 Y83.173 E0.02679
G1 X35.827 Y98.138 E0.94051
G1 X35.827 Y98.741 E0.02679
G1 X20.259 Y83.173 E0.9784
G1 X19.656 Y83.173 E0.02679
G1 X35.827 Y99.344 E1.01629
G1 X35.827 Y99.947 E0.02679
G1 X19.053 Y83.173 E1.05419
G1 X18.45 Y83.173 E0.02679
G1 X35.827 Y100.55 E1.09208
G1 X35.827 Y101.153 E0.02679
G1 X17.847 Y83.173 E1.12997
G1 X17.244 Y83.173 E0.02679
G1 X35.827 Y101.756 E1.16786
G1 X35.827 Y102.359 E0.02679
G1 X16.641 Y83.173 E1.20575
G1 X16.038 Y83.173 E0.02679
G1 X35.827 Y102.962 E1.24364
G1 X35.827 Y103.565 E0.02679
G1 X15.435 Y83.173 E1.28153
G1 X14.832 Y83.173 E0.02679
G1 X35.827 Y104.168 E1.31942
G1 X35.827 Y104.771 E0.02679
G1 X14.229 Y83.173 E1.35732
G1 X13.626 Y83.173 E0.02679
G1 X35.827 Y105.374 E1.39521
G1 X35.827 Y105.977 E0.02679
G1 X13.023 Y83.173 E1.4331
G1 X12.42 Y83.173 E0.02679
G1 X35.827 Y106.58 E1.47099
G1 X35.827 Y106.827 E0.01101
G1 X35.472 Y106.827 E0.01579
G1 X12.173 Y83.528 E1.46423
G1 X12.173 Y84.131 E0.02679
G1 X34.869 Y106.827 E1.42634
G1 X34.266 Y106.827 E0.02679
G1 X12.173 Y84.734 E1.38845
G1 X12.173 Y85.337 E0.02679
G1 X33.663 Y106.827 E1.35056
G1 X33.06 Y106.827 E0.02679
G1 X12.173 Y85.94 E1.31266
G1 X12.173 Y86.543 E0.02679
G1 X32.457 Y106.827 E1.27477
G1 X31.855 Y106.827 E0.02679
G1 X12.173 Y87.145 E1.23688
G1 X12.173 Y87.748 E0.02679
G1 X31.252 Y106.827 E1.19899
G1 X30.649 Y106.827 E0.02679
G1 X12.173 Y88.351 E1.1611
G1 X12.173 Y88.954 E0.02679
G1 X30.046 Y106.827 E1.12321
G1 X29.443 Y106.827 E0.02679
G1 X12.173 Y89.557 E1.08532
G1 X12.173 Y90.16 E0.02679
G1 X28.84 Y106.827 E1.04743
G1 X28.237 Y106.827 E0.02679
G1 X12.173 Y90.763 E1.00953
G1 X12.173 Y91.366 E0.02679
G1 X27.634 Y106.827 E0.97164
G1 X27.031 Y106.827 E0.02679
G1 X12.173 Y91.969 E0.93375
G1 X12.173 Y92.572 E0.02679
G1 X26.428 Y106.827 E0.89586
G1 X25.825 Y106.827 E0.02679
G1 X12.173 Y93.175 E0.85797
G1 X12.173 Y93.778 E0.02679
G1 X25.222 Y106.827 E0.82008
G1 X24.619 Y106.827 E0.02679
G1 X12.173 Y94.381 E0.78219
G1 X12.173 Y94.984 E0.02679
G1 X24.016 Y106.827 E0.7443
G1 X23.413 Y106.827 E0.02679
G1 X12.173 Y95.587 E0.7064
G1 X12.173 Y96.19 E0.02679
G1 X22.81 Y106.827 E0.66851
G1 X22.207 Y106.827 E0.02679
G1 X12.173 Y96.793 E0.63062
G1 X12.173 Y97.396 E0.02679
G1 X21.604 Y106.827 E0.59273
G1 X21.001 Y106.827 E0.02679
G1 X12.173 Y97.999 E0.55484
G1 X12.173 Y98.602 E0.02679
G1 X20.398 Y106.827 E0.51695
G1 X19.796 Y106.827 E0.02679
G1 X12.173 Y99.204 E0.47906
G1 X12.173 Y99.807 E0.02679
G1 X19.193 Y106.827 E0.44116
G1 X18.59 Y106.827 E0.02679
G1 X12.173 Y100.41 E0.40327
G1 X12.173 Y101.013 E0.02679
G1 X17.987 Y106.827 E0.36538
G1 X17.384 Y106.827 E0.02679
G1 X12.173 Y101.616 E0.32749
G1 X12.173 Y102.219 E0.02679
G1 X16.781 Y106.827 E0.2896
G1 X16.178 Y106.827 E0.02679
G1 X12.173 Y102.822 E0.25171
G1 X12.173 Y103.425 E0.02679
G1 X15.575 Y106.827 E0.21382
G1 X14.972 Y106.827 E0.02679
G1 X12.173 Y104.028 E0.17593
G1 X12.173 Y104.631 E0.02679
G1 X14.369 Y106.827 E0.13803
G1 X13.766 Y106.827 E0.02679
G1 X12.173 Y105.234 E0.10014
G1 X12.173 Y105.837 E0.02679
G1 X13.163 Y106.827 E0.06225
G1 X12.56 Y106.827 E0.02679
G1 X11.989 Y106.257 E0.03588
; INIT stop printing object Patch-25x25x0.25mm.stl id:2 copy 0
; INIT printing object Patch-25x25x0.25mm.stl id:3 copy 0
G1 E-2 F3000
M204 S1500
G1 Z0.65 F18000
; stop printing object Patch-25x25x0.25mm.stl id:2 copy 0
; printing object Patch-25x25x0.25mm.stl id:3 copy 0
G1 X11.989 Y70.208
M204 S1000
G1 X11.989 Y34.16
G1 Z0.25
G1 E2 F1800
;TYPE:External perimeter
;WIDTH:0.48
G1 X11.84 Y34.16 E0.00661
G1 X11.84 Y9.84 E1.07771
G1 X36.16 Y9.84 E1.07771
G1 X36.16 Y34.16 E1.07771
G1 X12.049 Y34.16 E1.06844
;WIPE_START
M204 S1500
G1 X11.915 Y34.031 F18000
;WIPE_END
G1 X23.532 Y22.01
M204 S1000
G1 X35.149 Y9.989
;TYPE:Solid infill
;WIDTH:0.481333
G1 F1800
G1 X35.827 Y10.668 E0.04264
