; generated by SuperSlicer 2.3.57 on 2022-04-13 at 16:37:10 UTC


;
;

;
;
; 

; external perimeters extrusion width = 0.40mm
; perimeters extrusion width = 0.45mm
; infill extrusion width = 0.72mm
; solid infill extrusion width = 0.56mm
; top infill extrusion width = 0.40mm
; first layer extrusion width = 0.50mm

; external perimeters extrusion width = 0.40mm
; perimeters extrusion width = 0.45mm
; infill extrusion width = 0.72mm
; solid infill extrusion width = 0.56mm
; top infill extrusion width = 0.40mm
; first layer extrusion width = 0.50mm

; external perimeters extrusion width = 0.40mm
; perimeters extrusion width = 0.45mm
; infill extrusion width = 0.72mm
; solid infill extrusion width = 0.56mm
; top infill extrusion width = 0.40mm
; first layer extrusion width = 0.50mm

; external perimeters extrusion width = 0.40mm
; perimeters extrusion width = 0.45mm
; infill extrusion width = 0.72mm
; solid infill extrusion width = 0.56mm
; top infill extrusion width = 0.40mm
; first layer extrusion width = 0.50mm

; external perimeters extrusion width = 0.40mm
; perimeters extrusion width = 0.45mm
; infill extrusion width = 0.72mm
; solid infill extrusion width = 0.56mm
; top infill extrusion width = 0.40mm
; first layer extrusion width = 0.50mm

; external perimeters extrusion width = 0.40mm
; perimeters extrusion width = 0.45mm
; infill extrusion width = 0.72mm
; solid infill extrusion width = 0.56mm
; top infill extrusion width = 0.40mm
; first layer extrusion width = 0.50mm

; external perimeters extrusion width = 0.40mm
; perimeters extrusion width = 0.45mm
; infill extrusion width = 0.72mm
; solid infill extrusion width = 0.56mm
; top infill extrusion width = 0.40mm
; first layer extrusion width = 0.50mm

; external perimeters extrusion width = 0.40mm
; perimeters extrusion width = 0.45mm
; infill extrusion width = 0.72mm
; solid infill extrusion width = 0.56mm
; top infill extrusion width = 0.40mm
; first layer extrusion width = 0.50mm

; external perimeters extrusion width = 0.40mm
; perimeters extrusion width = 0.45mm
; infill extrusion width = 0.72mm
; solid infill extrusion width = 0.56mm
; top infill extrusion width = 0.40mm
; first layer extrusion width = 0.50mm

; external perimeters extrusion width = 0.40mm
; perimeters extrusion width = 0.45mm
; infill extrusion width = 0.72mm
; solid infill extrusion width = 0.56mm
; top infill extrusion width = 0.40mm
; first layer extrusion width = 0.50mm

; external perimeters extrusion width = 0.40mm
; perimeters extrusion width = 0.45mm
; infill extrusion width = 0.72mm
; solid infill extrusion width = 0.56mm
; top infill extrusion width = 0.40mm
; first layer extrusion width = 0.50mm

; external perimeters extrusion width = 0.40mm
; perimeters extrusion width = 0.45mm
; infill extrusion width = 0.72mm
; solid infill extrusion width = 0.56mm
; top infill extrusion width = 0.40mm
; first layer extrusion width = 0.50mm

; external perimeters extrusion width = 0.40mm
; perimeters extrusion width = 0.45mm
; infill extrusion width = 0.72mm
; solid infill extrusion width = 0.56mm
; top infill extrusion width = 0.40mm
; first layer extrusion width = 0.50mm

; external perimeters extrusion width = 0.40mm
; perimeters extrusion width = 0.45mm
; infill extrusion width = 0.72mm
; solid infill extrusion width = 0.56mm
; top infill extrusion width = 0.40mm
; first layer extrusion width = 0.50mm

; external perimeters extrusion width = 0.40mm
; perimeters extrusion width = 0.45mm
; infill extrusion width = 0.72mm
; solid infill extrusion width = 0.56mm
; top infill extrusion width = 0.40mm
; first layer extrusion width = 0.50mm

; external perimeters extrusion width = 0.40mm
; perimeters extrusion width = 0.45mm
; infill extrusion width = 0.72mm
; solid infill extrusion width = 0.56mm
; top infill extrusion width = 0.40mm
; first layer extrusion width = 0.50mm

; external perimeters extrusion width = 0.40mm
; perimeters extrusion width = 0.45mm
; infill extrusion width = 0.72mm
; solid infill extrusion width = 0.56mm
; top infill extrusion width = 0.40mm
; first layer extrusion width = 0.50mm

; external perimeters extrusion width = 0.40mm
; perimeters extrusion width = 0.45mm
; infill extrusion width = 0.72mm
; solid infill extrusion width = 0.56mm
; top infill extrusion width = 0.40mm
; first layer extrusion width = 0.50mm

; external perimeters extrusion width = 0.40mm
; perimeters extrusion width = 0.45mm
; infill extrusion width = 0.72mm
; solid infill extrusion width = 0.56mm
; top infill extrusion width = 0.40mm
; first layer extrusion width = 0.50mm

; external perimeters extrusion width = 0.40mm
; perimeters extrusion width = 0.45mm
; infill extrusion width = 0.72mm
; solid infill extrusion width = 0.56mm
; top infill extrusion width = 0.40mm
; first layer extrusion width = 0.50mm

; external perimeters extrusion width = 0.40mm
; perimeters extrusion width = 0.45mm
; infill extrusion width = 0.72mm
; solid infill extrusion width = 0.56mm
; top infill extrusion width = 0.40mm
; first layer extrusion width = 0.50mm

; external perimeters extrusion width = 0.40mm
; perimeters extrusion width = 0.45mm
; infill extrusion width = 0.72mm
; solid infill extrusion width = 0.56mm
; top infill extrusion width = 0.40mm
; first layer extrusion width = 0.50mm

; external perimeters extrusion width = 0.40mm
; perimeters extrusion width = 0.45mm
; infill extrusion width = 0.72mm
; solid infill extrusion width = 0.56mm
; top infill extrusion width = 0.40mm
; first layer extrusion width = 0.50mm

; external perimeters extrusion width = 0.40mm
; perimeters extrusion width = 0.45mm
; infill extrusion width = 0.72mm
; solid infill extrusion width = 0.56mm
; top infill extrusion width = 0.40mm
; first layer extrusion width = 0.50mm

; external perimeters extrusion width = 0.40mm
; perimeters extrusion width = 0.45mm
; infill extrusion width = 0.72mm
; solid infill extrusion width = 0.56mm
; top infill extrusion width = 0.40mm
; first layer extrusion width = 0.50mm

; external perimeters extrusion width = 0.40mm
; perimeters extrusion width = 0.45mm
; infill extrusion width = 0.72mm
; solid infill extrusion width = 0.56mm
; top infill extrusion width = 0.40mm
; first layer extrusion width = 0.50mm

; external perimeters extrusion width = 0.40mm
; perimeters extrusion width = 0.45mm
; infill extrusion width = 0.72mm
; solid infill extrusion width = 0.56mm
; top infill extrusion width = 0.40mm
; first layer extrusion width = 0.50mm

; external perimeters extrusion width = 0.40mm
; perimeters extrusion width = 0.45mm
; infill extrusion width = 0.72mm
; solid infill extrusion width = 0.56mm
; top infill extrusion width = 0.40mm
; first layer extrusion width = 0.50mm

; external perimeters extrusion width = 0.40mm
; perimeters extrusion width = 0.45mm
; infill extrusion width = 0.72mm
; solid infill extrusion width = 0.56mm
; top infill extrusion width = 0.40mm
; first layer extrusion width = 0.50mm

; external perimeters extrusion width = 0.40mm
; perimeters extrusion width = 0.45mm
; infill extrusion width = 0.72mm
; solid infill extrusion width = 0.56mm
; top infill extrusion width = 0.40mm
; first layer extrusion width = 0.50mm

; external perimeters extrusion width = 0.40mm
; perimeters extrusion width = 0.45mm
; infill extrusion width = 0.72mm
; solid infill extrusion width = 0.56mm
; top infill extrusion width = 0.40mm
; first layer extrusion width = 0.50mm

; external perimeters extrusion width = 0.40mm
; perimeters extrusion width = 0.45mm
; infill extrusion width = 0.72mm
; solid infill extrusion width = 0.56mm
; top infill extrusion width = 0.40mm
; first layer extrusion width = 0.50mm

; external perimeters extrusion width = 0.40mm
; perimeters extrusion width = 0.45mm
; infill extrusion width = 0.72mm
; solid infill extrusion width = 0.56mm
; top infill extrusion width = 0.40mm
; first layer extrusion width = 0.50mm

; external perimeters extrusion width = 0.40mm
; perimeters extrusion width = 0.45mm
; infill extrusion width = 0.72mm
; solid infill extrusion width = 0.56mm
; top infill extrusion width = 0.40mm
; first layer extrusion width = 0.50mm

; external perimeters extrusion width = 0.40mm
; perimeters extrusion width = 0.45mm
; infill extrusion width = 0.72mm
; solid infill extrusion width = 0.56mm
; top infill extrusion width = 0.40mm
; first layer extrusion width = 0.50mm

; external perimeters extrusion width = 0.40mm
; perimeters extrusion width = 0.45mm
; infill extrusion width = 0.72mm
; solid infill extrusion width = 0.56mm
; top infill extrusion width = 0.40mm
; first layer extrusion width = 0.50mm

; external perimeters extrusion width = 0.40mm
; perimeters extrusion width = 0.45mm
; infill extrusion width = 0.72mm
; solid infill extrusion width = 0.56mm
; top infill extrusion width = 0.40mm
; first layer extrusion width = 0.50mm

; external perimeters extrusion width = 0.40mm
; perimeters extrusion width = 0.45mm
; infill extrusion width = 0.72mm
; solid infill extrusion width = 0.56mm
; top infill extrusion width = 0.40mm
; first layer extrusion width = 0.50mm

; external perimeters extrusion width = 0.40mm
; perimeters extrusion width = 0.45mm
; infill extrusion width = 0.72mm
; solid infill extrusion width = 0.56mm
; top infill extrusion width = 0.40mm
; first layer extrusion width = 0.50mm

; object:{"name":"retraction_calibration","id":"retraction_calibration id:0 copy 0","object_center":[58.190958,92.402608,0.000000],"boundingbox_center":[58.190958,92.402608,5.700000],"boundingbox_size":[26.805401,26.806400,11.400000]}
; object:{"name":"retraction_calibration","id":"retraction_calibration id:1 copy 0","object_center":[26.079610,39.444652,0.000000],"boundingbox_center":[26.079610,39.444652,5.700000],"boundingbox_size":[26.805401,26.806400,11.400000]}
; object:{"name":"retraction_calibration","id":"retraction_calibration id:2 copy 0","object_center":[98.266866,44.298845,0.000000],"boundingbox_center":[98.266866,44.298845,5.700000],"boundingbox_size":[26.805401,26.806400,11.400000]}
; plater:{"center":[62.173238,65.923630,0.000000],"boundingbox_center":[62.173238,65.923630,5.700000],"boundingbox_size":[98.992657,79.764356,11.400000]}

M73 P0 R16
;TYPE:Custom
; custom gcode: start_gcode
PRINT_START BED=110 HOTEND=260 CHAMBER=45
; custom gcode end: start_gcode
G21 ; set units to millimeters
G90 ; use absolute coordinates
M83 ; use relative distances for extrusion
; custom gcode: start_filament_gcode
; Filament gcode
; custom gcode end: start_filament_gcode
M104 S260 ; set temperature
M109 S260 ; set temperature and wait for it to be reached
M190 S110 ; set bed temperature and wait for it to be reached
;LAYER_CHANGE
;Z:0.2
;HEIGHT:0.2
G1 E-2 F1800
G1 Z0.2 F27000
G1 Z0.4
G1 X12.201 Y22.411
G1 Z0.2
G1 E2 F1800
; custom gcode: feature_gcode
; External perimeter
;Skirt
SET_VELOCITY_LIMIT ACCEL=5000 ACCEL_TO_DECEL=2500 SQUARE_CORNER_VELOCITY=8

; Support material
; custom gcode end: feature_gcode

;TYPE:Skirt
;WIDTH:0.5
G1 X11.364 Y22.939 E0.03575
G1 X10.207 Y23.954 E0.05558
G1 X9.322 Y25.085 E0.05184
G1 X8.665 Y26.34 E0.05115
G1 X8.215 Y27.807 E0.05541
G1 X8.075 Y28.737 E0.03394
G1 X8.046 Y49.349 E0.74422
G1 X8.145 Y50.752 E0.05079
G1 X8.573 Y52.33 E0.05902
G1 X9.237 Y53.669 E0.05398
G1 X41.361 Y106.648 E2.23703
G1 X42.156 Y107.704 E0.04772
G1 X42.651 Y108.23 E0.02607
G1 X43.807 Y109.145 E0.05325
G1 X45.06 Y109.806 E0.05115
G1 X46.537 Y110.263 E0.05581
G1 X47.466 Y110.406 E0.03394
G1 X68.59 Y110.428 E0.76273
G1 X69.508 Y110.328 E0.03333
G1 X70.956 Y109.951 E0.05403
G1 X71.976 Y109.495 E0.04034
G1 X72.636 Y109.094 E0.02789
G1 X73.589 Y108.364 E0.04332
G1 X74.444 Y107.45 E0.0452
G1 X114.575 Y59.282 E2.26367
G1 X115.387 Y58.019 E0.05419
G1 X115.727 Y57.295 E0.0289
G1 X116.09 Y56.156 E0.04315
G1 X116.308 Y54.36 E0.06532
G1 X116.307 Y34.164 E0.72921
M73 P1 R16
G1 X116.14 Y32.659 E0.05466
G1 X115.706 Y31.251 E0.05322
G1 X115.397 Y30.598 E0.02607
G1 X114.732 Y29.517 E0.04583
G1 X113.909 Y28.576 E0.04514
G1 X113.315 Y28.048 E0.0287
G1 X112.292 Y27.337 E0.04498
G1 X111.166 Y26.805 E0.04498
G1 X110.417 Y26.554 E0.02849
G1 X109.205 Y26.312 E0.04465
G1 X36.385 Y21.419 E2.63517
G1 X15.172 Y21.456 E0.76591
G1 X13.49 Y21.833 E0.06223
G1 X12.256 Y22.387 E0.04883
G1 X12.445 Y22.806 F27000
G1 F1800
G1 X12.344 Y22.852 E0.00399
G1 X11.601 Y23.334 E0.032
G1 X10.624 Y24.177 E0.04658
G1 X9.696 Y25.348 E0.05397
G1 X9.018 Y26.678 E0.0539
G1 X8.658 Y27.919 E0.04662
G1 X8.544 Y28.604 E0.02508
G1 X8.502 Y29.62 E0.03672
G1 X8.502 Y49.288 E0.71014
G1 X8.58 Y50.582 E0.04682
G1 X8.919 Y51.943 E0.05064
G1 X9.628 Y53.433 E0.05957
G1 X41.801 Y106.49 E2.24036
G1 X42.733 Y107.67 E0.0543
G1 X43.699 Y108.503 E0.04605
G1 X44.398 Y108.966 E0.03027
G1 X45.609 Y109.535 E0.04831
G1 X47.015 Y109.896 E0.05242
G1 X48.309 Y109.98 E0.0468
G1 X68.705 Y109.967 E0.73643
M73 P2 R16
G1 X70.061 Y109.744 E0.04962
G1 X70.8 Y109.521 E0.02788
G1 X71.955 Y108.988 E0.04591
G1 X72.947 Y108.303 E0.04355
G1 X74.13 Y107.115 E0.06053
G1 X114.223 Y58.99 E2.26157
G1 X114.985 Y57.8 E0.05104
G1 X115.33 Y57.048 E0.02989
G1 X115.702 Y55.799 E0.04703
G1 X115.851 Y54.379 E0.05156
G1 X115.852 Y34.274 E0.72592
G1 X115.734 Y32.987 E0.04667
G1 X115.181 Y31.182 E0.06815
G1 X114.6 Y30.134 E0.04325
G1 X114.175 Y29.552 E0.02604
G1 X113.351 Y28.671 E0.04355
G1 X112.412 Y27.955 E0.04263
G1 X111.787 Y27.585 E0.02623
G1 X110.728 Y27.125 E0.04167
G1 X108.9 Y26.742 E0.06745
G1 X36.641 Y21.883 E2.61488
G1 X16.288 Y21.867 E0.73486
G1 X14.979 Y21.94 E0.04734
G1 X13.668 Y22.256 E0.04871
G1 X12.5 Y22.782 E0.04624
G1 X12.725 Y23.193 F27000
G1 F1800
G1 X12.077 Y23.548 E0.02668
G1 X10.899 Y24.552 E0.0559
M73 P3 R16
G1 X10.093 Y25.575 E0.04701
G1 X9.505 Y26.7 E0.04585
G1 X9.103 Y28.022 E0.04989
G1 X8.987 Y28.805 E0.02857
G1 X8.96 Y49.318 E0.74063
G1 X9.044 Y50.586 E0.04588
G1 X9.43 Y52.012 E0.05335
G1 X10.022 Y53.201 E0.04793
G1 X42.141 Y106.171 E2.23669
G1 X43.257 Y107.546 E0.06392
G1 X44.304 Y108.378 E0.04829
G1 X45.428 Y108.969 E0.04585
G1 X46.758 Y109.377 E0.05025
G1 X47.541 Y109.495 E0.02857
G1 X68.567 Y109.514 E0.75915
G1 X69.333 Y109.431 E0.02784
G1 X70.638 Y109.094 E0.04866
G1 X72.11 Y108.347 E0.05959
G1 X72.976 Y107.686 E0.03932
G1 X73.753 Y106.853 E0.04114
G1 X113.869 Y58.7 E2.2629
G1 X114.588 Y57.574 E0.04826
G1 X114.875 Y56.962 E0.02437
G1 X115.206 Y55.924 E0.03935
G1 X115.394 Y54.339 E0.05762
G1 X115.393 Y34.197 E0.72727
G1 X115.244 Y32.841 E0.04924
G1 X114.849 Y31.568 E0.04812
G1 X113.996 Y30.059 E0.06259
G1 X113.251 Y29.21 E0.04079
G1 X112.75 Y28.766 E0.02419
G1 X111.826 Y28.123 E0.04064
G1 X110.802 Y27.644 E0.04082
M73 P4 R16
G1 X110.176 Y27.436 E0.02382
G1 X109.066 Y27.216 E0.04084
G1 X36.384 Y22.333 E2.63016
G1 X15.301 Y22.362 E0.76123
G1 X13.951 Y22.65 E0.04985
G1 X13.183 Y22.942 E0.02967
G1 X12.778 Y23.164 E0.01667
; INIT printing object retraction_calibration id:0 copy 0
M104 S270 ; set temperature
G1 E-2
G1 Z0.4 F27000
; printing object retraction_calibration id:0 copy 0
G1 X53.956 Y83.141
G1 Z0.2
G1 E2 F1800
; custom gcode: feature_gcode
; External perimeter
;Perimeter
SET_VELOCITY_LIMIT ACCEL=800 ACCEL_TO_DECEL=400 SQUARE_CORNER_VELOCITY=8

; Overhang perimeter
; custom gcode end: feature_gcode

;TYPE:Internal perimeter
G1 X54.533 Y83.188 E0.0209
G1 X56.013 Y83.21 E0.05344
G1 X61.342 Y83.206 E0.19241
G1 X61.853 Y83.187 E0.01847
G1 X62.425 Y83.141 E0.02071
G1 X62.384 Y84.391 E0.04517
G1 X62.384 Y100.415 E0.57853
G1 X62.425 Y101.665 E0.04517
G1 X61.848 Y101.618 E0.02091
G1 X60.854 Y101.596 E0.03591
G1 X55.039 Y101.599 E0.20993
G1 X54.528 Y101.619 E0.01847
G1 X53.956 Y101.665 E0.02071
G1 X53.997 Y100.415 E0.04517
G1 X53.997 Y84.391 E0.57853
G1 X53.958 Y83.201 E0.04301
G1 E-2
G1 Z0.4 F27000
G1 X63.016 Y102.105
G1 Z0.2
G1 E2 F1800
; custom gcode: feature_gcode
; External perimeter
;ThinWall
SET_VELOCITY_LIMIT ACCEL=1800 ACCEL_TO_DECEL=1000 SQUARE_CORNER_VELOCITY=8

; Other
; custom gcode end: feature_gcode

;TYPE:Thin wall
;WIDTH:0.191109
G1 X63.124 Y102.152 E0.00141
;WIDTH:0.409366
G1 X63.145 Y102.157 E0.00065
