; generated by SuperSlicer 2.3.57 on 2022-04-17 at 14:32:40 UTC


;
;

;
;
; 

; external perimeters extrusion width = 0.40mm
; perimeters extrusion width = 0.45mm
; infill extrusion width = 0.72mm
; solid infill extrusion width = 0.56mm
; top infill extrusion width = 0.40mm
; first layer extrusion width = 0.50mm

; external perimeters extrusion width = 0.40mm
; perimeters extrusion width = 0.45mm
; infill extrusion width = 0.72mm
; solid infill extrusion width = 0.56mm
; top infill extrusion width = 0.40mm
; first layer extrusion width = 0.50mm

; external perimeters extrusion width = 0.40mm
; perimeters extrusion width = 0.45mm
; infill extrusion width = 0.72mm
; solid infill extrusion width = 0.56mm
; top infill extrusion width = 0.40mm
; first layer extrusion width = 0.50mm

; external perimeters extrusion width = 0.40mm
; perimeters extrusion width = 0.45mm
; infill extrusion width = 0.72mm
; solid infill extrusion width = 0.56mm
; top infill extrusion width = 0.40mm
; first layer extrusion width = 0.50mm

; external perimeters extrusion width = 0.40mm
; perimeters extrusion width = 0.45mm
; infill extrusion width = 0.72mm
; solid infill extrusion width = 0.56mm
; top infill extrusion width = 0.40mm
; first layer extrusion width = 0.50mm

; external perimeters extrusion width = 0.40mm
; perimeters extrusion width = 0.45mm
; infill extrusion width = 0.72mm
; solid infill extrusion width = 0.56mm
; top infill extrusion width = 0.40mm
; first layer extrusion width = 0.50mm

; external perimeters extrusion width = 0.40mm
; perimeters extrusion width = 0.45mm
; infill extrusion width = 0.72mm
; solid infill extrusion width = 0.56mm
; top infill extrusion width = 0.40mm
; first layer extrusion width = 0.50mm

; external perimeters extrusion width = 0.40mm
; perimeters extrusion width = 0.45mm
; infill extrusion width = 0.72mm
; solid infill extrusion width = 0.56mm
; top infill extrusion width = 0.40mm
; first layer extrusion width = 0.50mm

; external perimeters extrusion width = 0.40mm
; perimeters extrusion width = 0.45mm
; infill extrusion width = 0.72mm
; solid infill extrusion width = 0.56mm
; top infill extrusion width = 0.40mm
; first layer extrusion width = 0.50mm

; external perimeters extrusion width = 0.40mm
; perimeters extrusion width = 0.45mm
; infill extrusion width = 0.72mm
; solid infill extrusion width = 0.56mm
; top infill extrusion width = 0.40mm
; first layer extrusion width = 0.50mm

; external perimeters extrusion width = 0.40mm
; perimeters extrusion width = 0.45mm
; infill extrusion width = 0.72mm
; solid infill extrusion width = 0.56mm
; top infill extrusion width = 0.40mm
; first layer extrusion width = 0.50mm

; external perimeters extrusion width = 0.40mm
; perimeters extrusion width = 0.45mm
; infill extrusion width = 0.72mm
; solid infill extrusion width = 0.56mm
; top infill extrusion width = 0.40mm
; first layer extrusion width = 0.50mm

; external perimeters extrusion width = 0.40mm
; perimeters extrusion width = 0.45mm
; infill extrusion width = 0.72mm
; solid infill extrusion width = 0.56mm
; top infill extrusion width = 0.40mm
; first layer extrusion width = 0.50mm

; external perimeters extrusion width = 0.40mm
; perimeters extrusion width = 0.45mm
; infill extrusion width = 0.72mm
; solid infill extrusion width = 0.56mm
; top infill extrusion width = 0.40mm
; first layer extrusion width = 0.50mm

; external perimeters extrusion width = 0.40mm
; perimeters extrusion width = 0.45mm
; infill extrusion width = 0.72mm
; solid infill extrusion width = 0.56mm
; top infill extrusion width = 0.40mm
; first layer extrusion width = 0.50mm

; external perimeters extrusion width = 0.40mm
; perimeters extrusion width = 0.45mm
; infill extrusion width = 0.72mm
; solid infill extrusion width = 0.56mm
; top infill extrusion width = 0.40mm
; first layer extrusion width = 0.50mm

; external perimeters extrusion width = 0.40mm
; perimeters extrusion width = 0.45mm
; infill extrusion width = 0.72mm
; solid infill extrusion width = 0.56mm
; top infill extrusion width = 0.40mm
; first layer extrusion width = 0.50mm

; external perimeters extrusion width = 0.40mm
; perimeters extrusion width = 0.45mm
; infill extrusion width = 0.72mm
; solid infill extrusion width = 0.56mm
; top infill extrusion width = 0.40mm
; first layer extrusion width = 0.50mm

; external perimeters extrusion width = 0.40mm
; perimeters extrusion width = 0.45mm
; infill extrusion width = 0.72mm
; solid infill extrusion width = 0.56mm
; top infill extrusion width = 0.40mm
; first layer extrusion width = 0.50mm

; external perimeters extrusion width = 0.40mm
; perimeters extrusion width = 0.45mm
; infill extrusion width = 0.72mm
; solid infill extrusion width = 0.56mm
; top infill extrusion width = 0.40mm
; first layer extrusion width = 0.50mm

; external perimeters extrusion width = 0.40mm
; perimeters extrusion width = 0.45mm
; infill extrusion width = 0.72mm
; solid infill extrusion width = 0.56mm
; top infill extrusion width = 0.40mm
; first layer extrusion width = 0.50mm

; external perimeters extrusion width = 0.40mm
; perimeters extrusion width = 0.45mm
; infill extrusion width = 0.72mm
; solid infill extrusion width = 0.56mm
; top infill extrusion width = 0.40mm
; first layer extrusion width = 0.50mm

; external perimeters extrusion width = 0.40mm
; perimeters extrusion width = 0.45mm
; infill extrusion width = 0.72mm
; solid infill extrusion width = 0.56mm
; top infill extrusion width = 0.40mm
; first layer extrusion width = 0.50mm

; external perimeters extrusion width = 0.40mm
; perimeters extrusion width = 0.45mm
; infill extrusion width = 0.72mm
; solid infill extrusion width = 0.56mm
; top infill extrusion width = 0.40mm
; first layer extrusion width = 0.50mm

; external perimeters extrusion width = 0.40mm
; perimeters extrusion width = 0.45mm
; infill extrusion width = 0.72mm
; solid infill extrusion width = 0.56mm
; top infill extrusion width = 0.40mm
; first layer extrusion width = 0.50mm

; external perimeters extrusion width = 0.40mm
; perimeters extrusion width = 0.45mm
; infill extrusion width = 0.72mm
; solid infill extrusion width = 0.56mm
; top infill extrusion width = 0.40mm
; first layer extrusion width = 0.50mm

; external perimeters extrusion width = 0.40mm
; perimeters extrusion width = 0.45mm
; infill extrusion width = 0.72mm
; solid infill extrusion width = 0.56mm
; top infill extrusion width = 0.40mm
; first layer extrusion width = 0.50mm

; external perimeters extrusion width = 0.40mm
; perimeters extrusion width = 0.45mm
; infill extrusion width = 0.72mm
; solid infill extrusion width = 0.56mm
; top infill extrusion width = 0.40mm
; first layer extrusion width = 0.50mm

; external perimeters extrusion width = 0.40mm
; perimeters extrusion width = 0.45mm
; infill extrusion width = 0.72mm
; solid infill extrusion width = 0.56mm
; top infill extrusion width = 0.40mm
; first layer extrusion width = 0.50mm

; external perimeters extrusion width = 0.40mm
; perimeters extrusion width = 0.45mm
; infill extrusion width = 0.72mm
; solid infill extrusion width = 0.56mm
; top infill extrusion width = 0.40mm
; first layer extrusion width = 0.50mm

; external perimeters extrusion width = 0.40mm
; perimeters extrusion width = 0.45mm
; infill extrusion width = 0.72mm
; solid infill extrusion width = 0.56mm
; top infill extrusion width = 0.40mm
; first layer extrusion width = 0.50mm

; external perimeters extrusion width = 0.40mm
; perimeters extrusion width = 0.45mm
; infill extrusion width = 0.72mm
; solid infill extrusion width = 0.56mm
; top infill extrusion width = 0.40mm
; first layer extrusion width = 0.50mm

; external perimeters extrusion width = 0.40mm
; perimeters extrusion width = 0.45mm
; infill extrusion width = 0.72mm
; solid infill extrusion width = 0.56mm
; top infill extrusion width = 0.40mm
; first layer extrusion width = 0.50mm

; external perimeters extrusion width = 0.40mm
; perimeters extrusion width = 0.45mm
; infill extrusion width = 0.72mm
; solid infill extrusion width = 0.56mm
; top infill extrusion width = 0.40mm
; first layer extrusion width = 0.50mm

; external perimeters extrusion width = 0.40mm
; perimeters extrusion width = 0.45mm
; infill extrusion width = 0.72mm
; solid infill extrusion width = 0.56mm
; top infill extrusion width = 0.40mm
; first layer extrusion width = 0.50mm

; external perimeters extrusion width = 0.40mm
; perimeters extrusion width = 0.45mm
; infill extrusion width = 0.72mm
; solid infill extrusion width = 0.56mm
; top infill extrusion width = 0.40mm
; first layer extrusion width = 0.50mm

; external perimeters extrusion width = 0.40mm
; perimeters extrusion width = 0.45mm
; infill extrusion width = 0.72mm
; solid infill extrusion width = 0.56mm
; top infill extrusion width = 0.40mm
; first layer extrusion width = 0.50mm

; external perimeters extrusion width = 0.40mm
; perimeters extrusion width = 0.45mm
; infill extrusion width = 0.72mm
; solid infill extrusion width = 0.56mm
; top infill extrusion width = 0.40mm
; first layer extrusion width = 0.50mm

; external perimeters extrusion width = 0.40mm
; perimeters extrusion width = 0.45mm
; infill extrusion width = 0.72mm
; solid infill extrusion width = 0.56mm
; top infill extrusion width = 0.40mm
; first layer extrusion width = 0.50mm

; object:{"name":"retraction_calibration","id":"retraction_calibration id:0 copy 0","object_center":[33.797253,95.484822,0.000000],"boundingbox_center":[33.797253,95.484822,5.700000],"boundingbox_size":[26.805401,26.806400,11.400000]}
; object:{"name":"retraction_calibration","id":"retraction_calibration id:1 copy 0","object_center":[32.810595,26.692427,0.000000],"boundingbox_center":[32.810595,26.692427,5.700000],"boundingbox_size":[26.805401,26.806400,11.400000]}
; object:{"name":"retraction_calibration","id":"retraction_calibration id:2 copy 0","object_center":[95.823874,62.632771,0.000000],"boundingbox_center":[95.823874,62.632771,5.700000],"boundingbox_size":[26.805401,26.806400,11.400000]}
; plater:{"center":[64.317234,61.088625,0.000000],"boundingbox_center":[64.317234,61.088625,5.700000],"boundingbox_size":[89.818681,95.598795,11.400000]}

M73 P0 R16
;TYPE:Custom
; custom gcode: start_gcode
PRINT_START BED=110 HOTEND=260 CHAMBER=45
; custom gcode end: start_gcode
G21 ; set units to millimeters
G90 ; use absolute coordinates
M83 ; use relative distances for extrusion
; custom gcode: start_filament_gcode
; Filament gcode
; custom gcode end: start_filament_gcode
M104 S260 ; set temperature
M109 S260 ; set temperature and wait for it to be reached
M190 S110 ; set bed temperature and wait for it to be reached
;LAYER_CHANGE
;Z:0.2
;HEIGHT:0.2
G1 E-2 F1800
G1 Z0.2 F27000
G1 Z0.4
G1 X16.251 Y12.048
G1 Z0.2
G1 E2 F1800
; custom gcode: feature_gcode
; External perimeter
;Skirt
SET_VELOCITY_LIMIT ACCEL=5000 ACCEL_TO_DECEL=2500 SQUARE_CORNER_VELOCITY=8

; Support material
; custom gcode end: feature_gcode

;TYPE:Skirt
;WIDTH:0.5
G1 X15.803 Y12.764 E0.03051
G1 X15.256 Y13.936 E0.04671
G1 X14.896 Y15.279 E0.05021
G1 X14.776 Y16.872 E0.05765
G1 X14.776 Y36.537 E0.71005
G1 X15.799 Y106.287 E2.51864
G1 X16.101 Y107.784 E0.05515
G1 X16.406 Y108.643 E0.03293
G1 X17.06 Y109.877 E0.05041
G1 X17.975 Y111.031 E0.05319
G1 X19.063 Y111.976 E0.05201
G1 X19.799 Y112.456 E0.03172
G1 X21.025 Y113.034 E0.04893
G1 X22.389 Y113.401 E0.05102
G1 X23.978 Y113.52 E0.05753
G1 X44.191 Y113.511 E0.72981
G1 X45.769 Y113.272 E0.05763
G1 X46.718 Y112.97 E0.03595
G1 X47.649 Y112.543 E0.03696
G1 X109.846 Y79.597 E2.54128
G1 X111.209 Y78.606 E0.06087
G1 X112.344 Y77.341 E0.06136
G1 X113.182 Y75.878 E0.06088
G1 X113.705 Y74.233 E0.0623
G1 X113.866 Y72.666 E0.05688
G1 X113.846 Y52.179 E0.73971
M73 P1 R16
G1 X113.652 Y50.797 E0.0504
G1 X113.124 Y49.26 E0.05866
G1 X112.323 Y47.896 E0.05714
G1 X111.263 Y46.709 E0.05744
G1 X109.831 Y45.66 E0.06408
G1 X46.768 Y9.692 E2.62129
G1 X45.097 Y8.984 E0.06553
G1 X43.93 Y8.732 E0.04309
G1 X43.116 Y8.666 E0.0295
G1 X22.979 Y8.658 E0.72705
G1 X21.936 Y8.701 E0.03769
G1 X21.223 Y8.816 E0.02607
G1 X19.988 Y9.162 E0.04631
G1 X18.803 Y9.726 E0.04739
G1 X18.113 Y10.173 E0.0297
G1 X17.083 Y11.047 E0.04874
G1 X16.289 Y12.001 E0.04483
G1 X16.657 Y12.302 F27000
G1 F1800
G1 X16.465 Y12.538 E0.01099
G1 X15.763 Y13.891 E0.05505
G1 X15.333 Y15.428 E0.0576
G1 X15.236 Y16.732 E0.04723
G1 X15.233 Y36.537 E0.71507
G1 X16.246 Y106.101 E2.51195
M73 P2 R16
G1 X16.336 Y106.833 E0.02662
G1 X16.615 Y107.917 E0.04043
G1 X17.28 Y109.361 E0.05741
G1 X18.3 Y110.709 E0.06101
G1 X19.381 Y111.645 E0.05164
G1 X20.023 Y112.058 E0.02758
G1 X21.18 Y112.604 E0.04619
G1 X22.406 Y112.937 E0.04587
G1 X23.212 Y113.038 E0.02931
G1 X44.183 Y113.054 E0.75719
G1 X45.001 Y112.967 E0.0297
G1 X46.327 Y112.634 E0.04935
G1 X47.435 Y112.139 E0.04383
G1 X109.503 Y79.265 E2.53596
G1 X110.842 Y78.321 E0.05914
G1 X111.889 Y77.186 E0.05576
G1 X112.574 Y76.078 E0.04702
G1 X112.889 Y75.377 E0.02777
G1 X113.247 Y74.191 E0.04473
G1 X113.4 Y72.921 E0.04617
G1 X113.405 Y52.437 E0.73962
G1 X113.217 Y50.943 E0.05436
G1 X112.677 Y49.385 E0.05953
G1 X111.854 Y48.034 E0.0571
G1 X110.612 Y46.758 E0.06429
G1 X109.595 Y46.052 E0.04473
G1 X46.576 Y10.109 E2.61943
G1 X45.556 Y9.63 E0.0407
G1 X44.696 Y9.355 E0.03258
G1 X43.222 Y9.125 E0.05386
G1 X23.019 Y9.115 E0.72946
M73 P3 R16
G1 X21.61 Y9.204 E0.05099
G1 X20.081 Y9.616 E0.05717
G1 X18.701 Y10.317 E0.05589
G1 X17.482 Y11.295 E0.05641
G1 X16.695 Y12.256 E0.04485
G1 X17.031 Y12.536 F27000
G1 F1800
G1 X16.993 Y12.582 E0.00214
G1 X16.617 Y13.179 E0.02547
G1 X16.118 Y14.24 E0.04237
G1 X15.793 Y15.454 E0.04535
G1 X15.69 Y16.879 E0.05161
G1 X15.69 Y36.526 E0.70937
G1 X16.709 Y106.193 E2.51564
G1 X16.983 Y107.545 E0.04981
G1 X17.238 Y108.263 E0.0275
G1 X17.821 Y109.369 E0.04517
G1 X18.644 Y110.409 E0.04788
G1 X19.625 Y111.256 E0.04681
G1 X20.233 Y111.652 E0.0262
G1 X21.33 Y112.173 E0.04383
G1 X22.558 Y112.502 E0.0459
G1 X23.985 Y112.606 E0.05167
G1 X44.163 Y112.597 E0.72852
G1 X44.974 Y112.506 E0.02949
G1 X46.348 Y112.134 E0.05138
G1 X47.221 Y111.735 E0.03467
G1 X109.375 Y78.813 E2.53951
M73 P4 R16
G1 X110.593 Y77.93 E0.05432
G1 X111.597 Y76.813 E0.05421
G1 X112.344 Y75.513 E0.05415
G1 X112.806 Y74.065 E0.05488
G1 X112.952 Y72.658 E0.05106
G1 X112.938 Y52.292 E0.73533
G1 X112.77 Y51.036 E0.04575
G1 X112.302 Y49.66 E0.0525
G1 X111.587 Y48.438 E0.05111
G1 X110.634 Y47.373 E0.05158
G1 X109.377 Y46.454 E0.05622
G1 X46.325 Y10.492 E2.62082
G1 X44.862 Y9.867 E0.05745
G1 X43.798 Y9.636 E0.0393
G1 X43.115 Y9.581 E0.02474
G1 X22.998 Y9.572 E0.72634
G1 X21.51 Y9.689 E0.05391
G1 X20.338 Y10.007 E0.04384
G1 X19.272 Y10.513 E0.04261
G1 X18.681 Y10.889 E0.02528
G1 X17.759 Y11.664 E0.04348
G1 X17.07 Y12.49 E0.03886
; INIT printing object retraction_calibration id:0 copy 0
M104 S265 ; set temperature
G1 E-2
G1 Z0.4 F27000
; printing object retraction_calibration id:0 copy 0
G1 X29.563 Y86.223
G1 Z0.2
G1 E2 F1800
; custom gcode: feature_gcode
; External perimeter
;Perimeter
SET_VELOCITY_LIMIT ACCEL=800 ACCEL_TO_DECEL=400 SQUARE_CORNER_VELOCITY=8

; Overhang perimeter
; custom gcode end: feature_gcode

;TYPE:Internal perimeter
G1 X30.14 Y86.27 E0.0209
G1 X31.62 Y86.292 E0.05344
G1 X36.948 Y86.289 E0.19241
G1 X37.46 Y86.269 E0.01847
G1 X38.031 Y86.223 E0.02071
G1 X37.99 Y87.474 E0.04517
G1 X37.99 Y103.497 E0.57853
G1 X38.031 Y104.747 E0.04517
G1 X37.454 Y104.7 E0.02091
G1 X36.46 Y104.678 E0.03591
G1 X30.646 Y104.682 E0.20993
G1 X30.134 Y104.701 E0.01847
G1 X29.563 Y104.747 E0.02071
G1 X29.604 Y103.497 E0.04517
G1 X29.604 Y87.474 E0.57853
G1 X29.565 Y86.283 E0.04301
G1 E-2
G1 Z0.4 F27000
G1 X38.622 Y105.187
G1 Z0.2
G1 E2 F1800
; custom gcode: feature_gcode
; External perimeter
;ThinWall
SET_VELOCITY_LIMIT ACCEL=1800 ACCEL_TO_DECEL=1000 SQUARE_CORNER_VELOCITY=8

; Other
; custom gcode end: feature_gcode

;TYPE:Thin wall
;WIDTH:0.191109
G1 X38.73 Y105.234 E0.00141
;WIDTH:0.409366
G1 X38.751 Y105.24 E0.00065
;WIDTH:0.45
G1 X39 Y105.235 E0.00808
G1 X40.567 Y105.235 E0.05093
M73 P5 R16
