; generated by SuperSlicer 2.3.57 on 2022-04-04 at 18:14:28 UTC


;
;

;
;
; 

; external perimeters extrusion width = 0.40mm
; perimeters extrusion width = 0.45mm
; infill extrusion width = 0.72mm
; solid infill extrusion width = 0.56mm
; top infill extrusion width = 0.40mm
; first layer extrusion width = 0.50mm

; external perimeters extrusion width = 0.40mm
; perimeters extrusion width = 0.45mm
; infill extrusion width = 0.72mm
; solid infill extrusion width = 0.56mm
; top infill extrusion width = 0.40mm
; first layer extrusion width = 0.50mm

; external perimeters extrusion width = 0.40mm
; perimeters extrusion width = 0.45mm
; infill extrusion width = 0.72mm
; solid infill extrusion width = 0.56mm
; top infill extrusion width = 0.40mm
; first layer extrusion width = 0.50mm

; external perimeters extrusion width = 0.40mm
; perimeters extrusion width = 0.45mm
; infill extrusion width = 0.72mm
; solid infill extrusion width = 0.56mm
; top infill extrusion width = 0.40mm
; first layer extrusion width = 0.50mm

; external perimeters extrusion width = 0.40mm
; perimeters extrusion width = 0.45mm
; infill extrusion width = 0.72mm
; solid infill extrusion width = 0.56mm
; top infill extrusion width = 0.40mm
; first layer extrusion width = 0.50mm

; external perimeters extrusion width = 0.40mm
; perimeters extrusion width = 0.45mm
; infill extrusion width = 0.72mm
; solid infill extrusion width = 0.56mm
; top infill extrusion width = 0.40mm
; first layer extrusion width = 0.50mm

; external perimeters extrusion width = 0.40mm
; perimeters extrusion width = 0.45mm
; infill extrusion width = 0.72mm
; solid infill extrusion width = 0.56mm
; top infill extrusion width = 0.40mm
; first layer extrusion width = 0.50mm

; external perimeters extrusion width = 0.40mm
; perimeters extrusion width = 0.45mm
; infill extrusion width = 0.72mm
; solid infill extrusion width = 0.56mm
; top infill extrusion width = 0.40mm
; first layer extrusion width = 0.50mm

; external perimeters extrusion width = 0.40mm
; perimeters extrusion width = 0.45mm
; infill extrusion width = 0.72mm
; solid infill extrusion width = 0.56mm
; top infill extrusion width = 0.40mm
; first layer extrusion width = 0.50mm

; external perimeters extrusion width = 0.40mm
; perimeters extrusion width = 0.45mm
; infill extrusion width = 0.72mm
; solid infill extrusion width = 0.56mm
; top infill extrusion width = 0.40mm
; first layer extrusion width = 0.50mm

; external perimeters extrusion width = 0.40mm
; perimeters extrusion width = 0.45mm
; infill extrusion width = 0.72mm
; solid infill extrusion width = 0.56mm
; top infill extrusion width = 0.40mm
; first layer extrusion width = 0.50mm

; external perimeters extrusion width = 0.40mm
; perimeters extrusion width = 0.45mm
; infill extrusion width = 0.72mm
; solid infill extrusion width = 0.56mm
; top infill extrusion width = 0.40mm
; first layer extrusion width = 0.50mm

; external perimeters extrusion width = 0.40mm
; perimeters extrusion width = 0.45mm
; infill extrusion width = 0.72mm
; solid infill extrusion width = 0.56mm
; top infill extrusion width = 0.40mm
; first layer extrusion width = 0.50mm

; external perimeters extrusion width = 0.40mm
; perimeters extrusion width = 0.45mm
; infill extrusion width = 0.72mm
; solid infill extrusion width = 0.56mm
; top infill extrusion width = 0.40mm
; first layer extrusion width = 0.50mm

; external perimeters extrusion width = 0.40mm
; perimeters extrusion width = 0.45mm
; infill extrusion width = 0.72mm
; solid infill extrusion width = 0.56mm
; top infill extrusion width = 0.40mm
; first layer extrusion width = 0.50mm

; external perimeters extrusion width = 0.40mm
; perimeters extrusion width = 0.45mm
; infill extrusion width = 0.72mm
; solid infill extrusion width = 0.56mm
; top infill extrusion width = 0.40mm
; first layer extrusion width = 0.50mm

; external perimeters extrusion width = 0.40mm
; perimeters extrusion width = 0.45mm
; infill extrusion width = 0.72mm
; solid infill extrusion width = 0.56mm
; top infill extrusion width = 0.40mm
; first layer extrusion width = 0.50mm

; external perimeters extrusion width = 0.40mm
; perimeters extrusion width = 0.45mm
; infill extrusion width = 0.72mm
; solid infill extrusion width = 0.56mm
; top infill extrusion width = 0.40mm
; first layer extrusion width = 0.50mm

; external perimeters extrusion width = 0.40mm
; perimeters extrusion width = 0.45mm
; infill extrusion width = 0.72mm
; solid infill extrusion width = 0.56mm
; top infill extrusion width = 0.40mm
; first layer extrusion width = 0.50mm

; external perimeters extrusion width = 0.40mm
; perimeters extrusion width = 0.45mm
; infill extrusion width = 0.72mm
; solid infill extrusion width = 0.56mm
; top infill extrusion width = 0.40mm
; first layer extrusion width = 0.50mm

; external perimeters extrusion width = 0.40mm
; perimeters extrusion width = 0.45mm
; infill extrusion width = 0.72mm
; solid infill extrusion width = 0.56mm
; top infill extrusion width = 0.40mm
; first layer extrusion width = 0.50mm

; external perimeters extrusion width = 0.40mm
; perimeters extrusion width = 0.45mm
; infill extrusion width = 0.72mm
; solid infill extrusion width = 0.56mm
; top infill extrusion width = 0.40mm
; first layer extrusion width = 0.50mm

; external perimeters extrusion width = 0.40mm
; perimeters extrusion width = 0.45mm
; infill extrusion width = 0.72mm
; solid infill extrusion width = 0.56mm
; top infill extrusion width = 0.40mm
; first layer extrusion width = 0.50mm

; external perimeters extrusion width = 0.40mm
; perimeters extrusion width = 0.45mm
; infill extrusion width = 0.72mm
; solid infill extrusion width = 0.56mm
; top infill extrusion width = 0.40mm
; first layer extrusion width = 0.50mm

; external perimeters extrusion width = 0.40mm
; perimeters extrusion width = 0.45mm
; infill extrusion width = 0.72mm
; solid infill extrusion width = 0.56mm
; top infill extrusion width = 0.40mm
; first layer extrusion width = 0.50mm

; external perimeters extrusion width = 0.40mm
; perimeters extrusion width = 0.45mm
; infill extrusion width = 0.72mm
; solid infill extrusion width = 0.56mm
; top infill extrusion width = 0.40mm
; first layer extrusion width = 0.50mm

; external perimeters extrusion width = 0.40mm
; perimeters extrusion width = 0.45mm
; infill extrusion width = 0.72mm
; solid infill extrusion width = 0.56mm
; top infill extrusion width = 0.40mm
; first layer extrusion width = 0.50mm

; external perimeters extrusion width = 0.40mm
; perimeters extrusion width = 0.45mm
; infill extrusion width = 0.72mm
; solid infill extrusion width = 0.56mm
; top infill extrusion width = 0.40mm
; first layer extrusion width = 0.50mm

; external perimeters extrusion width = 0.40mm
; perimeters extrusion width = 0.45mm
; infill extrusion width = 0.72mm
; solid infill extrusion width = 0.56mm
; top infill extrusion width = 0.40mm
; first layer extrusion width = 0.50mm

; external perimeters extrusion width = 0.40mm
; perimeters extrusion width = 0.45mm
; infill extrusion width = 0.72mm
; solid infill extrusion width = 0.56mm
; top infill extrusion width = 0.40mm
; first layer extrusion width = 0.50mm

; external perimeters extrusion width = 0.40mm
; perimeters extrusion width = 0.45mm
; infill extrusion width = 0.72mm
; solid infill extrusion width = 0.56mm
; top infill extrusion width = 0.40mm
; first layer extrusion width = 0.50mm

; external perimeters extrusion width = 0.40mm
; perimeters extrusion width = 0.45mm
; infill extrusion width = 0.72mm
; solid infill extrusion width = 0.56mm
; top infill extrusion width = 0.40mm
; first layer extrusion width = 0.50mm

; external perimeters extrusion width = 0.40mm
; perimeters extrusion width = 0.45mm
; infill extrusion width = 0.72mm
; solid infill extrusion width = 0.56mm
; top infill extrusion width = 0.40mm
; first layer extrusion width = 0.50mm

; external perimeters extrusion width = 0.40mm
; perimeters extrusion width = 0.45mm
; infill extrusion width = 0.72mm
; solid infill extrusion width = 0.56mm
; top infill extrusion width = 0.40mm
; first layer extrusion width = 0.50mm

; external perimeters extrusion width = 0.40mm
; perimeters extrusion width = 0.45mm
; infill extrusion width = 0.72mm
; solid infill extrusion width = 0.56mm
; top infill extrusion width = 0.40mm
; first layer extrusion width = 0.50mm

; external perimeters extrusion width = 0.40mm
; perimeters extrusion width = 0.45mm
; infill extrusion width = 0.72mm
; solid infill extrusion width = 0.56mm
; top infill extrusion width = 0.40mm
; first layer extrusion width = 0.50mm

; external perimeters extrusion width = 0.40mm
; perimeters extrusion width = 0.45mm
; infill extrusion width = 0.72mm
; solid infill extrusion width = 0.56mm
; top infill extrusion width = 0.40mm
; first layer extrusion width = 0.50mm

; external perimeters extrusion width = 0.40mm
; perimeters extrusion width = 0.45mm
; infill extrusion width = 0.72mm
; solid infill extrusion width = 0.56mm
; top infill extrusion width = 0.40mm
; first layer extrusion width = 0.50mm

; external perimeters extrusion width = 0.40mm
; perimeters extrusion width = 0.45mm
; infill extrusion width = 0.72mm
; solid infill extrusion width = 0.56mm
; top infill extrusion width = 0.40mm
; first layer extrusion width = 0.50mm

; object:{"name":"retraction_calibration","id":"retraction_calibration id:0 copy 0","object_center":[86.665406,22.752719,0.000000],"boundingbox_center":[86.665406,22.752719,5.700000],"boundingbox_size":[26.805401,26.806400,11.400000]}
; object:{"name":"retraction_calibration","id":"retraction_calibration id:1 copy 0","object_center":[25.318085,59.152505,0.000000],"boundingbox_center":[25.318085,59.152505,5.700000],"boundingbox_size":[26.805401,26.806400,11.400000]}
; object:{"name":"retraction_calibration","id":"retraction_calibration id:2 copy 0","object_center":[83.982745,87.807360,0.000000],"boundingbox_center":[83.982745,87.807360,5.700000],"boundingbox_size":[26.805401,26.806400,11.400000]}
; plater:{"center":[55.991745,55.280040,0.000000],"boundingbox_center":[55.991745,55.280040,5.700000],"boundingbox_size":[88.152723,91.861042,11.400000]}

M73 P0 R16
;TYPE:Custom
; custom gcode: start_gcode
PRINT_START BED=50 HOTEND=200 CHAMBER=0
; custom gcode end: start_gcode
G21 ; set units to millimeters
G90 ; use absolute coordinates
M83 ; use relative distances for extrusion
; custom gcode: start_filament_gcode
; Filament gcode
; custom gcode end: start_filament_gcode
M104 S200 ; set temperature
M109 S200 ; set temperature and wait for it to be reached
M190 S50 ; set bed temperature and wait for it to be reached
;LAYER_CHANGE
;Z:0.2
;HEIGHT:0.2
G1 E-0.5 F1800
G1 Z0.2 F27000
G1 Z0.5
G1 X21.909 Y36.924
G1 Z0.2
G1 E0.5 F1800
; custom gcode: feature_gcode
; External perimeter
;Skirt
SET_VELOCITY_LIMIT ACCEL=5000 ACCEL_TO_DECEL=2500 SQUARE_CORNER_VELOCITY=8

; Support material
; custom gcode end: feature_gcode

;TYPE:Skirt
;WIDTH:0.45
G1 X11.694 Y42.985 E0.37792
G1 X10.754 Y43.65 E0.03663
G1 X9.607 Y44.846 E0.05273
G1 X8.839 Y46.123 E0.0474
G1 X8.339 Y47.585 E0.04917
G1 X8.168 Y48.995 E0.0452
G1 X8.172 Y69.4 E0.64923
G1 X8.317 Y70.619 E0.03906
G1 X8.663 Y71.76 E0.03792
G1 X8.953 Y72.4 E0.02238
G1 X9.62 Y73.474 E0.04022
G1 X10.623 Y74.548 E0.04675
G1 X11.962 Y75.466 E0.05167
G1 X70.663 Y104.139 E2.07864
G1 X71.719 Y104.593 E0.03657
G1 X72.907 Y104.874 E0.03885
G1 X73.612 Y104.944 E0.02254
G1 X94.562 Y104.927 E0.66659
G1 X95.29 Y104.836 E0.02334
G1 X96.468 Y104.515 E0.03884
G1 X97.571 Y103.99 E0.03888
G1 X98.168 Y103.599 E0.0227
G1 X99.16 Y102.742 E0.04172
G1 X100.111 Y101.493 E0.04995
G1 X100.74 Y100.15 E0.04717
G1 X101.012 Y99.113 E0.03413
G1 X101.098 Y98.486 E0.02013
G1 X103.809 Y32.674 E2.09578
M73 P1 R16
G1 X103.811 Y12.889 E0.62952
G1 X103.725 Y11.605 E0.04095
G1 X103.328 Y10.15 E0.04799
G1 X102.664 Y8.856 E0.04627
G1 X101.71 Y7.681 E0.04816
G1 X100.55 Y6.746 E0.0474
G1 X99.242 Y6.08 E0.0467
G1 X97.789 Y5.689 E0.04787
G1 X96.458 Y5.607 E0.04243
G1 X76.262 Y5.616 E0.64261
G1 X74.846 Y5.843 E0.04562
G1 X74.049 Y6.105 E0.02671
G1 X73.046 Y6.583 E0.03535
G1 X21.96 Y36.894 E1.89001
; INIT printing object retraction_calibration id:0 copy 0
M104 S210 ; set temperature
G1 E-0.5
G1 Z0.5 F27000
; printing object retraction_calibration id:0 copy 0
G1 X82.431 Y32.014
G1 Z0.2
G1 E0.5 F1800
; custom gcode: feature_gcode
; External perimeter
;Perimeter
SET_VELOCITY_LIMIT ACCEL=800 ACCEL_TO_DECEL=400 SQUARE_CORNER_VELOCITY=8

; Overhang perimeter
; custom gcode end: feature_gcode

;TYPE:Internal perimeter
;WIDTH:0.5
G1 X82.472 Y30.764 E0.0447
G1 X82.472 Y14.741 E0.57244
G1 X82.431 Y13.49 E0.0447
G1 X83.008 Y13.537 E0.02068
G1 X84.488 Y13.56 E0.05288
G1 X89.817 Y13.556 E0.19038
G1 X90.328 Y13.537 E0.01827
G1 X90.9 Y13.49 E0.02049
G1 X90.859 Y14.741 E0.0447
G1 X90.859 Y30.764 E0.57244
G1 X90.9 Y32.014 E0.0447
G1 X90.328 Y31.968 E0.02049
G1 X89.817 Y31.949 E0.01827
G1 X84.003 Y31.946 E0.20772
G1 X83.008 Y31.968 E0.03553
G1 X82.491 Y32.01 E0.01854
G1 E-0.5
G1 Z0.5 F27000
G1 X91.491 Y32.454
G1 Z0.2
G1 E0.5 F1800
; custom gcode: feature_gcode
; External perimeter
;ThinWall
SET_VELOCITY_LIMIT ACCEL=1800 ACCEL_TO_DECEL=1000 SQUARE_CORNER_VELOCITY=8

; Other
; custom gcode end: feature_gcode

;TYPE:Thin wall
;WIDTH:0.191109
G1 X91.598 Y32.501 E0.0014
;WIDTH:0.409366
G1 X91.62 Y32.507 E0.00064
;WIDTH:0.45
G1 X91.868 Y32.502 E0.00799
G1 X93.436 Y32.502 E0.05039
G1 X93.561 Y32.502 E0.00403
G1 X93.687 Y32.502 E0.00403
G1 X93.7 Y32.502 E0.00044
;WIDTH:0.277781
G1 X93.812 Y32.505 E0.00209
;WIDTH:0.0705099
G1 X93.84 Y32.506 E0.00007
;WIDTH:0.00783443
G1 X93.812 Y32.505 E0.00001
;WIDTH:0.0308645
G1 X93.7 Y32.502 E0.00023
;WIDTH:0.05
G1 X93.687 Y32.502 E0.00005
G1 X93.561 Y32.502 E0.00045
G1 X93.436 Y32.502 E0.00045
G1 X91.868 Y32.502 E0.0056
G1 X91.62 Y32.507 E0.00089
;WIDTH:0.0454851
G1 X91.598 Y32.501 E0.00007
;WIDTH:0.0212344
G1 X91.491 Y32.454 E0.00016
G1 X91.441 Y32.461 F27000
; custom gcode: feature_gcode
; External perimeter
;ExternalPerimeter
SET_VELOCITY_LIMIT ACCEL=450 ACCEL_TO_DECEL=250 SQUARE_CORNER_VELOCITY=8

; Perimeter
; custom gcode end: feature_gcode

;TYPE:External perimeter
;WIDTH:0.5
G1 F1800
G1 X91.447 Y32.502 E0.0015
G1 X91.262 Y32.502 E0.0066
G1 X90.301 Y32.424 E0.03444
G1 X89.808 Y32.406 E0.01762
G1 X84.008 Y32.403 E0.20723
G1 X83.032 Y32.424 E0.03487
G1 X82.069 Y32.502 E0.03451
G1 X81.884 Y32.502 E0.0066
G1 X81.913 Y32.286 E0.00782
G1 X81.982 Y31.773 E0.01847
G1 X82.015 Y30.757 E0.03634
G1 X82.015 Y14.748 E0.57191
M73 P2 R16
G1 X81.982 Y13.732 E0.03634
G1 X81.951 Y13.498 E0.00841
G1 X81.89 Y13.044 E0.01638
G1 X81.84 Y13.051 F27000
; custom gcode: feature_gcode
; External perimeter
;ThinWall
SET_VELOCITY_LIMIT ACCEL=1800 ACCEL_TO_DECEL=1000 SQUARE_CORNER_VELOCITY=8

; Other
; custom gcode end: feature_gcode

;TYPE:Thin wall
;WIDTH:0.191108
G1 F1800
G1 X81.733 Y13.004 E0.0014
;WIDTH:0.409365
G1 X81.711 Y12.998 E0.00064
;WIDTH:0.45
G1 X81.463 Y13.002 E0.00799
G1 X79.896 Y13.002 E0.05039
G1 X79.77 Y13.003 E0.00403
G1 X79.645 Y13.003 E0.00403
G1 X79.63 Y13.003 E0.00046
;WIDTH:0.27778
G1 X79.518 Y13 E0.00209
;WIDTH:0.0705096
G1 X79.49 Y12.999 E0.00007
;WIDTH:0.0078344
G1 X79.518 Y13 E0.00001
;WIDTH:0.0308645
G1 X79.63 Y13.003 E0.00023
;WIDTH:0.05
G1 X79.645 Y13.003 E0.00005
G1 X79.77 Y13.003 E0.00045
G1 X79.896 Y13.002 E0.00045
G1 X81.463 Y13.002 E0.0056
G1 X81.711 Y12.998 E0.00089
;WIDTH:0.045485
G1 X81.733 Y13.004 E0.00007
;WIDTH:0.0212342
G1 X81.84 Y13.051 E0.00016
G1 X81.89 Y13.044 F27000
; custom gcode: feature_gcode
; External perimeter
;ExternalPerimeter
SET_VELOCITY_LIMIT ACCEL=450 ACCEL_TO_DECEL=250 SQUARE_CORNER_VELOCITY=8

; Perimeter
; custom gcode end: feature_gcode

;TYPE:External perimeter
;WIDTH:0.5
G1 F1800
G1 X81.884 Y13.002 E0.0015
G1 X82.069 Y13.002 E0.0066
G1 X83.03 Y13.08 E0.03444
G1 X84.491 Y13.102 E0.05221
G1 X89.808 Y13.099 E0.18995
G1 X90.301 Y13.08 E0.01762
G1 X91.262 Y13.002 E0.03444
G1 X91.447 Y13.002 E0.0066
G1 X91.418 Y13.219 E0.00782
