;FLAVOR:Marlin
;TIME:15065
;Filament used: 13.2314m
;Layer height: 0.3
;MINX:29.641
;MINY:88.2
;MINZ:0.3
;MAXX:190.359
;MAXY:131.8
;MAXZ:18
;Generated with Cura_SteamEngine 4.10.0
M140 S56
M105
M190 S56
M104 S200
M105
M109 S200
M82 ;absolute extrusion mode
G28 ;Home
G1 Z15.0 F2000 ;Move the platform
G92 E0
G92 E0
G1 F1500 E-9.5
;LAYER_COUNT:60
;LAYER:0
M107
M204 S1000
G0 F7500 X33.203 Y88.649 Z0.3
;TYPE:SKIRT
G1 F1500 E0
G1 X33.845 Y88.424 E0.03462
G1 X34.51 Y88.275 E0.0693
G1 X35.441 Y88.2 E0.11683
G1 X184.559 Y88.2 E7.70515
G1 X185.239 Y88.24 E7.73981
G1 X185.909 Y88.359 E7.77444
G1 X186.561 Y88.556 E7.8091
G1 X187.185 Y88.828 E7.84374
G1 X187.773 Y89.172 E7.8784
G1 X188.317 Y89.582 E7.91307
G1 X188.808 Y90.053 E7.94769
G1 X189.242 Y90.578 E7.98236
G1 X189.611 Y91.15 E8.017
G1 X189.91 Y91.762 E8.05166
G1 X190.135 Y92.404 E8.08628
G1 X190.284 Y93.069 E8.12096
G1 X190.359 Y94 E8.16849
G1 X190.359 Y126 E9.7969
G1 X190.319 Y126.68 E9.83157
G1 X190.2 Y127.35 E9.86619
G1 X190.003 Y128.002 E9.90085
G1 X189.731 Y128.626 E9.93549
G1 X189.387 Y129.214 E9.97016
G1 X188.977 Y129.758 E10.00483
G1 X188.506 Y130.249 E10.03945
G1 X187.981 Y130.683 E10.07411
G1 X187.409 Y131.052 E10.10875
G1 X186.797 Y131.351 E10.14341
G1 X186.155 Y131.576 E10.17803
G1 X185.49 Y131.725 E10.21271
G1 X184.559 Y131.8 E10.26024
G1 X35.441 Y131.799 E17.84856
G1 X34.761 Y131.759 E17.88322
G1 X34.091 Y131.64 E17.91785
G1 X33.439 Y131.443 E17.95251
G1 X32.815 Y131.17 E17.98717
G1 X32.227 Y130.827 E18.02181
G1 X31.683 Y130.417 E18.05648
G1 X31.192 Y129.946 E18.0911
G1 X30.758 Y129.421 E18.12576
G1 X30.389 Y128.849 E18.1604
G1 X30.09 Y128.237 E18.19506
G1 X29.865 Y127.595 E18.22968
G1 X29.716 Y126.93 E18.26436
G1 X29.641 Y125.999 E18.31189
G1 X29.641 Y94 E19.94026
G1 X29.681 Y93.32 E19.97492
G1 X29.8 Y92.65 E20.00955
G1 X29.997 Y91.998 E20.04421
G1 X30.269 Y91.374 E20.07885
G1 X30.613 Y90.786 E20.11352
G1 X31.023 Y90.242 E20.14818
G1 X31.494 Y89.751 E20.18281
G1 X32.019 Y89.317 E20.21747
G1 X32.591 Y88.948 E20.25211
G1 X33.203 Y88.649 E20.28677
G0 F7500 X33.572 Y88.934
G1 F1500 X34.201 Y88.744 E20.32021
G1 X34.848 Y88.633 E20.35361
G1 X35.441 Y88.6 E20.38383
G1 X184.559 Y88.6 E27.97215
G1 X185.215 Y88.64 E28.0056
G1 X185.861 Y88.759 E28.03902
G1 X186.488 Y88.956 E28.07247
G1 X187.086 Y89.228 E28.1059
G1 X187.647 Y89.57 E28.13933
G1 X188.162 Y89.978 E28.17277
G1 X188.624 Y90.445 E28.2062
G1 X189.025 Y90.965 E28.23961
G1 X189.361 Y91.529 E28.27302
G1 X189.625 Y92.131 E28.30647
G1 X189.815 Y92.76 E28.33991
G1 X189.926 Y93.407 E28.37332
G1 X189.959 Y94 E28.40354
G1 X189.959 Y126 E30.03196
G1 X189.919 Y126.656 E30.0654
G1 X189.8 Y127.302 E30.09883
G1 X189.603 Y127.929 E30.13227
G1 X189.331 Y128.527 E30.1657
G1 X188.989 Y129.088 E30.19914
G1 X188.581 Y129.603 E30.23257
G1 X188.114 Y130.065 E30.266
G1 X187.594 Y130.466 E30.29942
G1 X187.03 Y130.802 E30.33283
G1 X186.428 Y131.066 E30.36628
G1 X185.799 Y131.256 E30.39971
G1 X185.152 Y131.367 E30.43312
G1 X184.559 Y131.4 E30.46334
G1 X35.441 Y131.399 E38.05166
G1 X34.785 Y131.359 E38.0851
G1 X34.139 Y131.24 E38.11853
G1 X33.512 Y131.043 E38.15198
G1 X32.914 Y130.771 E38.18541
G1 X32.353 Y130.429 E38.21884
G1 X31.838 Y130.021 E38.25228
G1 X31.376 Y129.554 E38.28571
G1 X30.975 Y129.034 E38.31912
G1 X30.639 Y128.469 E38.35257
G1 X30.375 Y127.868 E38.38598
G1 X30.185 Y127.239 E38.41941
G1 X30.074 Y126.592 E38.45282
G1 X30.041 Y125.999 E38.48304
G1 X30.041 Y94 E40.11141
G1 X30.081 Y93.344 E40.14485
G1 X30.2 Y92.698 E40.17828
G1 X30.397 Y92.071 E40.21172
G1 X30.669 Y91.473 E40.24516
G1 X31.011 Y90.912 E40.27859
G1 X31.419 Y90.397 E40.31203
G1 X31.886 Y89.935 E40.34545
G1 X32.406 Y89.534 E40.37887
G1 X32.97 Y89.198 E40.41228
G1 X33.572 Y88.934 E40.44573
G0 F7500 X33.347 Y89.46
G1 F1500 X33.936 Y89.232 E40.47787
G1 X34.55 Y89.08 E40.51006
G1 X35.441 Y89 E40.55558
G1 X184.559 Y89 E48.1439
G1 X185.19 Y89.04 E48.17607
G1 X185.811 Y89.159 E48.20825
G1 X186.411 Y89.356 E48.24039
G1 X186.983 Y89.627 E48.2726
G1 X187.515 Y89.967 E48.30473
G1 X188 Y90.373 E48.33691
G1 X188.43 Y90.836 E48.36907
G1 X188.799 Y91.35 E48.40127
G1 X189.099 Y91.906 E48.43342
G1 X189.327 Y92.495 E48.46556
G1 X189.479 Y93.109 E48.49774
G1 X189.559 Y94 E48.54327
G1 X189.559 Y126 E50.17168
G1 X189.519 Y126.631 E50.20386
G1 X189.4 Y127.252 E50.23604
G1 X189.203 Y127.852 E50.26817
G1 X188.932 Y128.424 E50.30038
G1 X188.592 Y128.956 E50.33251
G1 X188.186 Y129.441 E50.3647
G1 X187.723 Y129.871 E50.39685
G1 X187.209 Y130.24 E50.42905
G1 X186.653 Y130.54 E50.4612
G1 X186.064 Y130.768 E50.49334
G1 X185.45 Y130.92 E50.52553
G1 X184.559 Y131 E50.57105
G1 X35.441 Y130.999 E58.15937
G1 X34.81 Y130.959 E58.19155
G1 X34.189 Y130.84 E58.22372
G1 X33.589 Y130.643 E58.25586
G1 X33.017 Y130.372 E58.28807
G1 X32.485 Y130.032 E58.3202
G1 X32 Y129.626 E58.35238
G1 X31.57 Y129.163 E58.38454
G1 X31.201 Y128.649 E58.41674
G1 X30.901 Y128.093 E58.44889
G1 X30.673 Y127.504 E58.48103
G1 X30.521 Y126.89 E58.51322
G1 X30.441 Y125.999 E58.55874
G1 X30.441 Y94 E60.1871
G1 X30.481 Y93.369 E60.21928
G1 X30.6 Y92.748 E60.25146
G1 X30.797 Y92.148 E60.28359
G1 X31.068 Y91.576 E60.3158
G1 X31.408 Y91.044 E60.34793
G1 X31.814 Y90.559 E60.38012
G1 X32.277 Y90.129 E60.41227
G1 X32.791 Y89.76 E60.44447
G1 X33.347 Y89.46 E60.47662
G0 F7500 X33.719 Y89.734
G1 F1500 X34.295 Y89.545 E60.50747
G1 X34.891 Y89.433 E60.53833
G1 X35.441 Y89.4 E60.56637
G1 X184.559 Y89.4 E68.15469
G1 X185.164 Y89.44 E68.18554
G1 X185.758 Y89.559 E68.21637
G1 X186.332 Y89.755 E68.24724
G1 X186.875 Y90.026 E68.27812
G1 X187.378 Y90.365 E68.30898
G1 X187.831 Y90.767 E68.33981
G1 X188.228 Y91.225 E68.37065
G1 X188.561 Y91.732 E68.40152
G1 X188.825 Y92.278 E68.43238
G1 X189.014 Y92.854 E68.46323
G1 X189.126 Y93.45 E68.49409
G1 X189.159 Y94 E68.52213
G1 X189.159 Y126 E70.15054
G1 X189.119 Y126.605 E70.1814
G1 X189 Y127.199 E70.21223
G1 X188.804 Y127.773 E70.24309
G1 X188.533 Y128.316 E70.27397
G1 X188.194 Y128.819 E70.30484
G1 X187.792 Y129.272 E70.33566
G1 X187.334 Y129.669 E70.36651
G1 X186.827 Y130.002 E70.39737
G1 X186.281 Y130.266 E70.42824
G1 X185.705 Y130.455 E70.45908
G1 X185.109 Y130.567 E70.48994
G1 X184.559 Y130.6 E70.51798
G1 X35.441 Y130.599 E78.1063
G1 X34.836 Y130.559 E78.13716
G1 X34.242 Y130.44 E78.16798
G1 X33.668 Y130.244 E78.19885
G1 X33.125 Y129.973 E78.22973
G1 X32.622 Y129.634 E78.2606
G1 X32.169 Y129.232 E78.29142
G1 X31.772 Y128.774 E78.32226
G1 X31.439 Y128.267 E78.35313
G1 X31.175 Y127.721 E78.38399
G1 X30.986 Y127.145 E78.41484
G1 X30.874 Y126.549 E78.4457
G1 X30.841 Y125.999 E78.47374
G1 X30.841 Y94 E80.10211
G1 X30.881 Y93.395 E80.13296
G1 X31 Y92.801 E80.16379
G1 X31.196 Y92.227 E80.19465
G1 X31.467 Y91.684 E80.22554
G1 X31.806 Y91.181 E80.2564
G1 X32.208 Y90.728 E80.28722
G1 X32.666 Y90.331 E80.31807
G1 X33.173 Y89.998 E80.34894
G1 X33.719 Y89.734 E80.3798
G0 F7500 X34.086 Y90.024
G1 F1500 X34.646 Y89.876 E80.40927
G1 X35.441 Y89.8 E80.44991
G1 X184.559 Y89.8 E88.03823
G1 X185.137 Y89.84 E88.06772
G1 X185.704 Y89.959 E88.0972
G1 X186.249 Y90.155 E88.12667
G1 X186.762 Y90.424 E88.15615
G1 X187.233 Y90.761 E88.18562
G1 X187.653 Y91.16 E88.2151
G1 X188.015 Y91.613 E88.24461
G1 X188.31 Y92.111 E88.27406
G1 X188.535 Y92.645 E88.30355
G1 X188.683 Y93.205 E88.33303
G1 X188.759 Y94 E88.37367
G1 X188.759 Y126 E90.00208
G1 X188.719 Y126.578 E90.03157
G1 X188.6 Y127.145 E90.06105
G1 X188.404 Y127.69 E90.09052
G1 X188.135 Y128.203 E90.12
G1 X187.798 Y128.674 E90.14947
G1 X187.399 Y129.094 E90.17895
G1 X186.946 Y129.456 E90.20846
G1 X186.448 Y129.751 E90.23791
G1 X185.914 Y129.976 E90.2674
G1 X185.354 Y130.124 E90.29688
G1 X184.559 Y130.2 E90.33752
G1 X35.441 Y130.199 E97.92583
G1 X34.863 Y130.159 E97.95532
G1 X34.296 Y130.04 E97.9848
G1 X33.751 Y129.844 E98.01427
G1 X33.238 Y129.575 E98.04375
G1 X32.767 Y129.238 E98.07322
G1 X32.347 Y128.839 E98.1027
G1 X31.985 Y128.386 E98.13221
G1 X31.69 Y127.888 E98.16167
G1 X31.465 Y127.354 E98.19115
G1 X31.317 Y126.794 E98.22063
G1 X31.241 Y125.999 E98.26127
G1 X31.241 Y94 E99.88963
G1 X31.281 Y93.422 E99.91912
G1 X31.4 Y92.855 E99.9486
G1 X31.596 Y92.31 E99.97807
G1 X31.865 Y91.797 E100.00755
G1 X32.202 Y91.326 E100.03702
G1 X32.601 Y90.906 E100.0665
G1 X33.054 Y90.544 E100.09601
G1 X33.552 Y90.249 E100.12547
G1 X34.086 Y90.024 E100.15495
G0 F7500 X33.927 Y90.515
G1 F1500 X34.447 Y90.332 E100.18301
G1 X34.988 Y90.227 E100.21105
G1 X35.441 Y90.2 E100.23414
G1 X184.559 Y90.2 E107.82246
G1 X185.109 Y90.24 E107.85052
G1 X185.647 Y90.359 E107.87856
G1 X186.162 Y90.555 E107.9066
G1 X186.643 Y90.823 E107.93462
G1 X187.081 Y91.157 E107.96265
G1 X187.465 Y91.552 E107.99069
G1 X187.789 Y91.998 E108.01874
G1 X188.044 Y92.486 E108.04676
G1 X188.227 Y93.006 E108.07481
G1 X188.332 Y93.547 E108.10286
G1 X188.359 Y94 E108.12595
G1 X188.359 Y126 E109.75437
G1 X188.319 Y126.55 E109.78243
G1 X188.2 Y127.088 E109.81047
G1 X188.004 Y127.603 E109.83851
G1 X187.736 Y128.084 E109.86653
G1 X187.402 Y128.522 E109.89456
G1 X187.007 Y128.906 E109.92259
G1 X186.561 Y129.23 E109.95065
G1 X186.073 Y129.485 E109.97866
G1 X185.553 Y129.668 E110.00672
G1 X185.012 Y129.773 E110.03476
G1 X184.559 Y129.8 E110.05785
G1 X35.441 Y129.799 E117.64617
G1 X34.891 Y129.759 E117.67423
G1 X34.353 Y129.64 E117.70227
G1 X33.838 Y129.444 E117.73032
G1 X33.357 Y129.176 E117.75834
G1 X32.919 Y128.842 E117.78637
G1 X32.535 Y128.447 E117.8144
G1 X32.211 Y128.001 E117.84245
G1 X31.956 Y127.513 E117.87047
G1 X31.773 Y126.993 E117.89852
G1 X31.668 Y126.452 E117.92657
G1 X31.641 Y125.999 E117.94966
G1 X31.641 Y94 E119.57803
G1 X31.681 Y93.45 E119.60609
G1 X31.8 Y92.912 E119.63413
G1 X31.996 Y92.397 E119.66217
G1 X32.264 Y91.916 E119.69019
G1 X32.598 Y91.478 E119.71822
G1 X32.993 Y91.094 E119.74625
G1 X33.439 Y90.77 E119.77431
G1 X33.927 Y90.515 E119.80233
G0 F7500 X34.296 Y90.798
G1 F1500 X34.799 Y90.661 E119.82885
G1 X35.441 Y90.6 E119.86167
G1 X184.559 Y90.6 E127.44999
G1 X185.079 Y90.64 E127.47653
G1 X185.586 Y90.759 E127.50303
G1 X186.069 Y90.954 E127.52954
G1 X186.517 Y91.22 E127.55605
G1 X186.919 Y91.552 E127.58258
G1 X187.265 Y91.942 E127.60911
G1 X187.548 Y92.38 E127.63565
G1 X187.761 Y92.855 E127.66214
G1 X187.898 Y93.358 E127.68867
G1 X187.959 Y94 E127.72149
G1 X187.959 Y126 E129.3499
G1 X187.919 Y126.52 E129.37644
G1 X187.8 Y127.027 E129.40294
G1 X187.605 Y127.51 E129.42945
G1 X187.339 Y127.958 E129.45596
G1 X187.007 Y128.36 E129.4825
G1 X186.617 Y128.706 E129.50903
G1 X186.179 Y128.989 E129.53556
G1 X185.704 Y129.202 E129.56205
G1 X185.201 Y129.339 E129.58858
G1 X184.559 Y129.4 E129.6214
G1 X35.441 Y129.399 E137.20972
G1 X34.921 Y129.359 E137.23626
G1 X34.414 Y129.24 E137.26276
G1 X33.931 Y129.045 E137.28927
G1 X33.483 Y128.779 E137.31578
G1 X33.081 Y128.447 E137.34231
G1 X32.735 Y128.057 E137.36884
G1 X32.452 Y127.619 E137.39538
G1 X32.239 Y127.144 E137.42187
G1 X32.102 Y126.641 E137.4484
G1 X32.041 Y125.999 E137.48122
G1 X32.041 Y94 E139.10958
G1 X32.081 Y93.48 E139.13612
G1 X32.2 Y92.973 E139.16262
G1 X32.395 Y92.49 E139.18913
G1 X32.661 Y92.042 E139.21564
G1 X32.993 Y91.64 E139.24217
G1 X33.383 Y91.294 E139.26871
G1 X33.821 Y91.011 E139.29524
G1 X34.296 Y90.798 E139.32173
G0 F7500 X34.198 Y91.27
G1 F1500 X34.658 Y91.104 E139.34662
G1 X35.139 Y91.015 E139.37151
G1 X35.441 Y91 E139.3869
G1 X184.559 Y91 E146.97522
G1 X185.047 Y91.04 E147.00013
G1 X185.522 Y91.159 E147.02505
G1 X185.971 Y91.353 E147.04994
G1 X186.383 Y91.618 E147.07487
G1 X186.746 Y91.946 E147.09977
G1 X187.051 Y92.329 E147.12468
G1 X187.289 Y92.757 E147.1496
G1 X187.455 Y93.217 E147.17449
G1 X187.544 Y93.698 E147.19938
G1 X187.559 Y94 E147.21477
G1 X187.559 Y126 E148.84318
G1 X187.519 Y126.488 E148.8681
G1 X187.4 Y126.963 E148.89302
G1 X187.206 Y127.412 E148.91791
G1 X186.941 Y127.824 E148.94284
G1 X186.613 Y128.187 E148.96774
G1 X186.23 Y128.492 E148.99265
G1 X185.802 Y128.73 E149.01757
G1 X185.342 Y128.896 E149.04246
G1 X184.861 Y128.985 E149.06735
G1 X184.559 Y129 E149.08274
G1 X35.441 Y128.999 E156.67105
G1 X34.953 Y128.959 E156.69597
G1 X34.478 Y128.84 E156.72089
G1 X34.029 Y128.646 E156.74578
G1 X33.617 Y128.381 E156.77071
G1 X33.254 Y128.053 E156.79561
G1 X32.949 Y127.67 E156.82052
G1 X32.711 Y127.242 E156.84544
G1 X32.545 Y126.782 E156.87033
G1 X32.456 Y126.301 E156.89522
G1 X32.441 Y125.999 E156.91061
G1 X32.441 Y94 E158.53897
G1 X32.481 Y93.512 E158.56389
G1 X32.6 Y93.037 E158.58881
G1 X32.794 Y92.588 E158.6137
G1 X33.059 Y92.176 E158.63863
G1 X33.387 Y91.813 E158.66352
G1 X33.77 Y91.508 E158.68844
G1 X34.198 Y91.27 E158.71336
G0 F7500 X34.568 Y91.551
G1 F1500 X35.009 Y91.436 E158.73655
G1 X35.441 Y91.4 E158.75861
G1 X184.559 Y91.4 E166.34693
G1 X185.013 Y91.44 E166.37012
G1 X185.453 Y91.558 E166.3933
G1 X185.865 Y91.752 E166.41648
G1 X186.238 Y92.015 E166.4397
G1 X186.559 Y92.338 E166.46288
G1 X186.818 Y92.713 E166.48607
G1 X187.008 Y93.127 E166.50925
G1 X187.123 Y93.568 E166.53244
G1 X187.159 Y94 E166.5545
G1 X187.159 Y126 E168.18292
G1 X187.119 Y126.454 E168.20611
G1 X187.001 Y126.894 E168.22929
G1 X186.807 Y127.306 E168.25246
G1 X186.544 Y127.679 E168.27569
G1 X186.221 Y128 E168.29886
G1 X185.846 Y128.259 E168.32205
G1 X185.432 Y128.449 E168.34524
G1 X184.991 Y128.564 E168.36843
G1 X184.559 Y128.6 E168.39049
G1 X35.441 Y128.599 E175.9788
G1 X34.987 Y128.559 E176.002
G1 X34.547 Y128.441 E176.02518
G1 X34.135 Y128.247 E176.04835
G1 X33.762 Y127.984 E176.07158
G1 X33.441 Y127.661 E176.09475
G1 X33.182 Y127.286 E176.11794
G1 X32.992 Y126.872 E176.14112
G1 X32.877 Y126.431 E176.16432
G1 X32.841 Y125.999 E176.18638
G1 X32.841 Y94 E177.81474
G1 X32.881 Y93.546 E177.83793
G1 X32.999 Y93.106 E177.86112
G1 X33.193 Y92.694 E177.88429
G1 X33.456 Y92.321 E177.90752
G1 X33.779 Y92 E177.93069
G1 X34.154 Y91.741 E177.95388
G1 X34.568 Y91.551 E177.97706
G0 F7500 X34.531 Y91.997
G1 F1500 X34.928 Y91.861 E177.99842
G1 X35.441 Y91.8 E178.02471
G1 X184.559 Y91.8 E185.61302
G1 X184.976 Y91.84 E185.63434
G1 X185.378 Y91.958 E185.65566
G1 X185.75 Y92.151 E185.67699
G1 X186.079 Y92.41 E185.6983
G1 X186.353 Y92.727 E185.71962
G1 X186.562 Y93.09 E185.74093
G1 X186.698 Y93.487 E185.76229
G1 X186.759 Y94 E185.78858
G1 X186.759 Y126 E187.41699
G1 X186.719 Y126.417 E187.43831
G1 X186.601 Y126.819 E187.45963
G1 X186.408 Y127.191 E187.48096
G1 X186.149 Y127.52 E187.50227
G1 X185.832 Y127.794 E187.52359
G1 X185.469 Y128.003 E187.5449
G1 X185.072 Y128.139 E187.56626
G1 X184.559 Y128.2 E187.59255
G1 X35.441 Y128.199 E195.18087
G1 X35.024 Y128.159 E195.20218
G1 X34.622 Y128.041 E195.2235
G1 X34.25 Y127.848 E195.24483
G1 X33.92 Y127.589 E195.26618
G1 X33.647 Y127.272 E195.28747
G1 X33.438 Y126.909 E195.30878
G1 X33.302 Y126.512 E195.33014
G1 X33.241 Y125.999 E195.35643
G1 X33.241 Y94 E196.98479
G1 X33.281 Y93.583 E197.00611
G1 X33.399 Y93.181 E197.02743
G1 X33.592 Y92.809 E197.04876
G1 X33.851 Y92.48 E197.07006
G1 X34.168 Y92.206 E197.09139
G1 X34.531 Y91.997 E197.1127
G0 F7500 X34.9 Y92.283
G1 F1500 X35.441 Y92.2 E197.14055
G1 X184.559 Y92.2 E204.72887
G1 X184.936 Y92.24 E204.74816
G1 X185.296 Y92.358 E204.76744
G1 X185.623 Y92.548 E204.78669
G1 X185.904 Y92.803 E204.806
G1 X186.124 Y93.112 E204.8253
G1 X186.276 Y93.459 E204.84458
G1 X186.359 Y94 E204.87243
G1 X186.359 Y126 E206.50085
G1 X186.319 Y126.377 E206.52014
G1 X186.201 Y126.737 E206.53942
G1 X186.011 Y127.064 E206.55866
G1 X185.756 Y127.345 E206.57797
G1 X185.447 Y127.565 E206.59728
G1 X185.1 Y127.717 E206.61655
G1 X184.559 Y127.8 E206.64441
G1 X35.441 Y127.799 E214.23272
G1 X35.064 Y127.759 E214.25202
G1 X34.704 Y127.641 E214.27129
G1 X34.377 Y127.451 E214.29054
G1 X34.096 Y127.196 E214.30985
G1 X33.876 Y126.887 E214.32915
G1 X33.724 Y126.54 E214.34843
G1 X33.641 Y125.999 E214.37628
G1 X33.641 Y94 E216.00465
G1 X33.681 Y93.623 E216.02394
G1 X33.799 Y93.263 E216.04322
G1 X33.989 Y92.936 E216.06247
G1 X34.244 Y92.655 E216.08177
G1 X34.553 Y92.435 E216.10108
G1 X34.9 Y92.283 E216.12036
G0 F7500 X34.928 Y92.697
G1 F1500 X35.252 Y92.613 E216.13739
G1 X35.441 Y92.6 E216.14703
G1 X184.559 Y92.6 E223.73535
G1 X184.891 Y92.64 E223.75236
G1 X185.203 Y92.757 E223.76932
G1 X185.48 Y92.945 E223.78636
