; generated by SuperSlicer 2.3.57 on 2022-04-03 at 15:28:50 UTC


;
;

;
;
; 

; external perimeters extrusion width = 0.40mm
; perimeters extrusion width = 0.45mm
; infill extrusion width = 0.72mm
; solid infill extrusion width = 0.56mm
; top infill extrusion width = 0.40mm
; first layer extrusion width = 0.50mm

; object:{"name":"3DBenchy","id":"3DBenchy.stl id:0 copy 0","object_center":[60.000000,60.000000,0.000000],"boundingbox_center":[60.000000,60.000000,24.000000],"boundingbox_size":[60.000999,31.004000,48.000000]}
; plater:{"center":[60.000000,60.000000,0.000000],"boundingbox_center":[60.000000,60.000000,24.000000],"boundingbox_size":[60.000999,31.004000,48.000000]}

M73 P0 R84
;TYPE:Custom
; custom gcode: start_gcode
PRINT_START BED=50 HOTEND=200 CHAMBER=0
; custom gcode end: start_gcode
G21 ; set units to millimeters
G90 ; use absolute coordinates
M83 ; use relative distances for extrusion
; custom gcode: start_filament_gcode
; Filament gcode
; custom gcode end: start_filament_gcode
M109 S200 ; set temperature and wait for it to be reached
M190 S50 ; set bed temperature and wait for it to be reached
;LAYER_CHANGE
;Z:0.25
;HEIGHT:0.25
G1 E-1 F1800
G1 Z0.25 F27000
G1 Z0.55
G1 X31.024 Y47.666
G1 Z0.25
G1 E1 F1800
; custom gcode: feature_gcode
; External perimeter
;Skirt
SET_VELOCITY_LIMIT ACCEL=5000 ACCEL_TO_DECEL=2500 SQUARE_CORNER_VELOCITY=8

; Support material
; custom gcode end: feature_gcode

;TYPE:Skirt
;WIDTH:0.45
G1 X30.09 Y48.365 E0.04806
G1 X29.462 Y48.963 E0.03572
G1 X28.796 Y49.76 E0.0428
G1 X27.952 Y51.143 E0.06675
G1 X27.57 Y52.065 E0.0411
G1 X27.319 Y52.928 E0.03703
G1 X27.084 Y54.591 E0.06918
G1 X27.074 Y65.031 E0.43009
G1 X27.147 Y66.134 E0.04553
G1 X27.382 Y67.329 E0.05017
G1 X27.8 Y68.523 E0.05213
G1 X28.369 Y69.618 E0.05085
G1 X29.153 Y70.697 E0.05496
G1 X30.225 Y71.752 E0.06193
G1 X31.455 Y72.595 E0.06146
G1 X32.882 Y73.239 E0.06449
G1 X34.383 Y73.613 E0.06372
G1 X59.88 Y75.218 E1.05245
G1 X62.35 Y75.097 E0.10185
G1 X63.86 Y74.888 E0.0628
G1 X65.454 Y74.55 E0.06712
G1 X67.043 Y74.086 E0.06821
G1 X69.361 Y73.169 E0.10271
G1 X70.761 Y72.463 E0.06459
G1 X72.411 Y71.46 E0.07955
G1 X74.121 Y70.191 E0.0877
G1 X75.664 Y68.799 E0.08561
G1 X77.537 Y66.697 E0.116
G1 X78.896 Y64.754 E0.09768
G1 X79.461 Y63.779 E0.04642
G1 X79.812 Y62.986 E0.03572
G1 X80.267 Y61.351 E0.0699
G1 X80.37 Y60.34 E0.04189
G1 X80.366 Y59.512 E0.03411
G1 X80.065 Y57.748 E0.0737
G1 X79.71 Y56.759 E0.04331
G1 X79.357 Y56.024 E0.03357
G1 X78.567 Y54.732 E0.06238
G1 X77.759 Y53.591 E0.05762
G1 X76.819 Y52.431 E0.06148
G1 X75.873 Y51.407 E0.05744
G1 X74.837 Y50.421 E0.05891
G1 X73.661 Y49.442 E0.06304
G1 X72.442 Y48.561 E0.06194
G1 X71.195 Y47.781 E0.06061
G1 X69.851 Y47.062 E0.06279
G1 X68.581 Y46.486 E0.05743
G1 X67.292 Y45.996 E0.05681
G1 X65.785 Y45.536 E0.06491
G1 X64.368 Y45.206 E0.05995
G1 X62.845 Y44.958 E0.06356
G1 X61.43 Y44.823 E0.05856
G1 X60.011 Y44.78 E0.05848
G1 X34.817 Y46.331 E1.03986
G1 X33.476 Y46.578 E0.05618
G1 X32.192 Y47.035 E0.05613
G1 X31.024 Y47.666 E0.05469
G1 X31.262 Y47.985 F27000
G1 F1800
G1 X30.388 Y48.633 E0.04482
G1 X29.769 Y49.214 E0.03495
G1 X29.131 Y49.975 E0.0409
G1 X28.323 Y51.287 E0.0635
G1 X27.95 Y52.181 E0.03993
G1 X27.708 Y53.007 E0.03544
G1 X27.481 Y54.587 E0.06574
G1 X27.47 Y65.024 E0.42998
G1 X27.535 Y66.047 E0.04222
G1 X27.757 Y67.196 E0.04822
G1 X28.149 Y68.333 E0.04955
G1 X28.685 Y69.375 E0.04825
G1 X29.419 Y70.397 E0.05182
G1 X30.45 Y71.424 E0.06
G1 X31.63 Y72.239 E0.05906
G1 X33.005 Y72.862 E0.06219
G1 X34.457 Y73.223 E0.06165
G1 X59.869 Y74.821 E1.04891
G1 X62.317 Y74.702 E0.10098
G1 X63.793 Y74.497 E0.0614
G1 X65.351 Y74.168 E0.06559
G1 X66.898 Y73.717 E0.0664
G1 X69.203 Y72.805 E0.1021
G1 X70.561 Y72.121 E0.06265
G1 X72.181 Y71.137 E0.07807
G1 X73.821 Y69.925 E0.08401
G1 X75.372 Y68.531 E0.08589
G1 X77.211 Y66.471 E0.11378
M73 P0 R83
G1 X78.543 Y64.571 E0.09561
G1 X79.094 Y63.627 E0.045
G1 X79.423 Y62.893 E0.03313
G1 X79.872 Y61.314 E0.06763
G1 X79.973 Y60.338 E0.04042
G1 X79.971 Y59.553 E0.03234
G1 X79.684 Y57.856 E0.07091
G1 X79.341 Y56.903 E0.04172
G1 X79.005 Y56.208 E0.03182
G1 X78.233 Y54.945 E0.06097
G1 X77.439 Y53.825 E0.05656
G1 X76.519 Y52.691 E0.06016
G1 X75.591 Y51.686 E0.05637
G1 X74.574 Y50.717 E0.05785
G1 X73.419 Y49.755 E0.06192
G1 X72.216 Y48.887 E0.06112
G1 X70.991 Y48.121 E0.05952
G1 X69.675 Y47.417 E0.06146
G1 X68.429 Y46.852 E0.05638
G1 X67.164 Y46.372 E0.05573
G1 X65.683 Y45.919 E0.06382
G1 X64.292 Y45.595 E0.05884
G1 X62.795 Y45.351 E0.06248
G1 X60.011 Y45.177 E0.11492
G1 X34.884 Y46.723 E1.03705
G1 X33.598 Y46.956 E0.05387
G1 X32.379 Y47.387 E0.05324
G1 X31.262 Y47.985 E0.05223
G1 X31.494 Y48.33 F27000
G1 F1800
G1 X30.868 Y48.752 E0.03112
G1 X29.8 Y49.779 E0.06102
G1 X29.209 Y50.542 E0.03976
G1 X28.74 Y51.339 E0.03808
G1 X28.174 Y52.79 E0.06418
G1 X27.986 Y53.609 E0.0346
G1 X27.88 Y54.541 E0.03862
G1 X27.867 Y65.017 E0.43159
G1 X27.923 Y65.956 E0.03875
G1 X28.131 Y67.059 E0.04625
G1 X28.497 Y68.14 E0.04699
G1 X29.005 Y69.139 E0.04615
G1 X29.686 Y70.098 E0.04847
G1 X30.678 Y71.098 E0.05801
G1 X31.806 Y71.883 E0.05662
G1 X33.134 Y72.488 E0.06011
G1 X34.525 Y72.832 E0.05904
G1 X59.864 Y74.425 E1.04592
G1 X62.284 Y74.308 E0.09983
G1 X63.727 Y74.106 E0.06001
G1 X65.254 Y73.783 E0.06432
G1 X66.76 Y73.345 E0.06462
G1 X69.039 Y72.445 E0.10095
G1 X70.361 Y71.778 E0.061
G1 X71.951 Y70.814 E0.07659
G1 X73.523 Y69.656 E0.08044
G1 X75.084 Y68.259 E0.08631
G1 X76.885 Y66.244 E0.11133
G1 X78.191 Y64.386 E0.09354
G1 X79.035 Y62.799 E0.07407
G1 X79.475 Y61.282 E0.06504
G1 X79.577 Y59.594 E0.06966
G1 X79.304 Y57.971 E0.06783
G1 X78.651 Y56.386 E0.0706
G1 X77.898 Y55.158 E0.05933
G1 X77.123 Y54.064 E0.05524
G1 X76.219 Y52.95 E0.0591
G1 X75.304 Y51.96 E0.05555
G1 X74.31 Y51.013 E0.05653
G1 X73.176 Y50.069 E0.06079
G1 X71.995 Y49.216 E0.06003
G1 X70.787 Y48.461 E0.05868
G1 X69.494 Y47.77 E0.06039
G1 X68.277 Y47.218 E0.05507
G1 X67.037 Y46.747 E0.05465
G1 X65.58 Y46.302 E0.06273
G1 X64.215 Y45.984 E0.05774
G1 X62.744 Y45.744 E0.0614
G1 X60.01 Y45.573 E0.11285
G1 X34.975 Y47.111 E1.03328
G1 X33.761 Y47.323 E0.05079
G1 X32.656 Y47.701 E0.04809
G1 X31.819 Y48.112 E0.03842
G1 X31.494 Y48.33 E0.01612
G1 X31.713 Y48.66 F27000
G1 F1800
G1 X31.155 Y49.03 E0.02759
G1 X30.122 Y50.012 E0.05872
G1 X29.549 Y50.746 E0.03834
G1 X29.103 Y51.499 E0.03607
G1 X28.56 Y52.88 E0.06112
G1 X28.379 Y53.66 E0.03298
G1 X28.277 Y54.546 E0.03674
G1 X28.263 Y65.01 E0.43109
G1 X28.314 Y65.879 E0.03586
G1 X28.508 Y66.936 E0.04426
G1 X28.849 Y67.953 E0.0442
G1 X29.326 Y68.903 E0.04379
G1 X29.96 Y69.805 E0.04543
G1 X30.911 Y70.776 E0.05596
G1 X31.987 Y71.53 E0.05415
G1 X33.256 Y72.111 E0.05749
G1 X34.591 Y72.441 E0.05665
G1 X59.859 Y74.029 E1.04297
G1 X62.251 Y73.913 E0.09866
G1 X63.66 Y73.716 E0.05863
G1 X65.157 Y73.399 E0.06304
G1 X66.617 Y72.975 E0.06262
G1 X68.881 Y72.081 E0.10026
G1 X70.162 Y71.435 E0.05912
G1 X71.722 Y70.49 E0.07511
G1 X73.228 Y69.385 E0.077
G1 X74.793 Y67.99 E0.08634
G1 X76.56 Y66.015 E0.10917
G1 X77.843 Y64.195 E0.09173
G1 X78.65 Y62.695 E0.07017
G1 X79.081 Y61.237 E0.06264
G1 X79.182 Y59.629 E0.06637
G1 X78.923 Y58.079 E0.06472
G1 X78.297 Y56.566 E0.06746
G1 X77.568 Y55.377 E0.05747
G1 X76.804 Y54.299 E0.05443
G1 X75.022 Y52.238 E0.11221
G1 X74.047 Y51.31 E0.05548
G1 X72.934 Y50.383 E0.05967
G1 X71.774 Y49.545 E0.05893
G1 X70.589 Y48.805 E0.05758
G1 X68.125 Y47.584 E0.1133
G1 X66.909 Y47.122 E0.05357
G1 X65.478 Y46.685 E0.06163
G1 X64.139 Y46.373 E0.05664
G1 X62.694 Y46.137 E0.06033
G1 X60.01 Y45.969 E0.11078
G1 X35.034 Y47.503 E1.03084
G1 X33.869 Y47.705 E0.04872
G1 X32.833 Y48.058 E0.04508
G1 X32.052 Y48.434 E0.0357
G1 X31.713 Y48.66 E0.01679
G1 X31.929 Y48.99 F27000
G1 F1800
G1 X31.444 Y49.307 E0.02384
G1 X30.446 Y50.242 E0.05635
G1 X29.889 Y50.951 E0.03713
G1 X29.466 Y51.661 E0.03405
G1 X28.947 Y52.971 E0.05805
G1 X28.772 Y53.717 E0.03159
G1 X28.673 Y54.558 E0.03485
G1 X28.704 Y65.804 E0.46332
G1 X28.886 Y66.814 E0.04226
G1 X29.204 Y67.774 E0.04167
G1 X29.654 Y68.68 E0.04166
G1 X30.24 Y69.52 E0.04219
G1 X31.149 Y70.458 E0.05385
G1 X32.174 Y71.181 E0.05165
G1 X33.39 Y71.737 E0.05509
G1 X34.662 Y72.051 E0.05399
G1 X59.854 Y73.632 E1.03982
G1 X62.217 Y73.518 E0.09747
G1 X63.599 Y73.324 E0.05751
G1 X65.06 Y73.015 E0.06152
G1 X66.486 Y72.601 E0.06113
G1 X68.722 Y71.718 E0.09905
G1 X69.969 Y71.089 E0.05753
G1 X71.497 Y70.164 E0.07363
G1 X72.945 Y69.103 E0.07393
G1 X74.445 Y67.777 E0.08248
G1 X75.821 Y66.295 E0.0833
G1 X77.449 Y64.075 E0.11341
G1 X78.266 Y62.589 E0.06986
G1 X78.686 Y61.196 E0.05993
G1 X78.787 Y59.669 E0.06305
G1 X78.542 Y58.189 E0.0618
G1 X77.944 Y56.747 E0.06429
G1 X76.488 Y54.539 E0.10897
G1 X74.741 Y52.517 E0.11009
G1 X73.784 Y51.606 E0.05443
G1 X72.692 Y50.696 E0.05855
G1 X71.554 Y49.875 E0.05784
G1 X70.386 Y49.145 E0.05672
G1 X67.973 Y47.95 E0.11095
G1 X66.782 Y47.497 E0.05249
G1 X65.376 Y47.068 E0.06054
G1 X64.063 Y46.762 E0.05554
G1 X62.638 Y46.529 E0.05949
G1 X60.01 Y46.366 E0.10847
G1 X35.092 Y47.896 E1.02845
G1 X33.982 Y48.085 E0.04639
G1 X33.008 Y48.415 E0.04236
G1 X32.279 Y48.761 E0.03328
G1 X31.929 Y48.99 E0.01722
G1 X32.142 Y49.328 F27000
G1 F1800
G1 X31.726 Y49.59 E0.02022
G1 X30.769 Y50.474 E0.05368
G1 X30.226 Y51.161 E0.0361
G1 X29.826 Y51.828 E0.03204
G1 X29.331 Y53.068 E0.05498
G1 X29.069 Y54.575 E0.06304
G1 X29.096 Y65.736 E0.45979
G1 X29.266 Y66.698 E0.04023
G1 X29.561 Y67.602 E0.03916
G1 X29.982 Y68.457 E0.03927
G1 X30.521 Y69.236 E0.03902
G1 X31.389 Y70.141 E0.05167
G1 X32.357 Y70.828 E0.04888
G1 X33.512 Y71.36 E0.05242
G1 X34.727 Y71.66 E0.05153
G1 X59.805 Y73.236 E1.03513
G1 X62.177 Y73.123 E0.09782
G1 X63.522 Y72.935 E0.05596
G1 X64.947 Y72.634 E0.06
G1 X66.27 Y72.256 E0.0567
G1 X67.595 Y71.774 E0.05805
G1 X69.697 Y70.785 E0.09572
G1 X71.195 Y69.888 E0.07192
G1 X72.159 Y69.21 E0.04857
G1 X74.097 Y67.561 E0.10481
G1 X75.436 Y66.138 E0.08051
G1 X76.642 Y64.574 E0.08135
G1 X77.821 Y62.622 E0.09395
G1 X78.271 Y61.252 E0.05943
G1 X78.396 Y59.813 E0.05947
G1 X78.187 Y58.39 E0.05929
G1 X77.649 Y57.031 E0.06019
G1 X76.913 Y55.824 E0.05822
G1 X76.18 Y54.788 E0.05231
G1 X74.467 Y52.804 E0.10795
G1 X72.45 Y51.01 E0.11119
G1 X71.334 Y50.204 E0.05675
G1 X70.198 Y49.494 E0.05516
G1 X67.826 Y48.318 E0.10907
G1 X65.274 Y47.451 E0.11103
G1 X63.982 Y47.15 E0.05466
G1 X62.588 Y46.923 E0.05818
G1 X60.01 Y46.762 E0.10641
G1 X35.149 Y48.288 E1.0261
G1 X34.213 Y48.438 E0.03904
G1 X33.51 Y48.647 E0.03021
G1 X32.619 Y49.026 E0.03989
G1 X32.142 Y49.328 E0.02327
G1 X32.349 Y49.662 F27000
G1 F1800
G1 X32.002 Y49.878 E0.01687
G1 X31.084 Y50.715 E0.05116
G1 X30.559 Y51.376 E0.03478
G1 X30.185 Y51.997 E0.02982
G1 X29.715 Y53.165 E0.05189
G1 X29.465 Y54.593 E0.05972
G1 X29.488 Y65.675 E0.45655
G1 X29.647 Y66.588 E0.03817
G1 X29.919 Y67.43 E0.03645
G1 X30.314 Y68.24 E0.0371
G1 X30.808 Y68.958 E0.03593
G1 X31.654 Y69.846 E0.0505
G1 X32.609 Y70.516 E0.04804
G1 X33.735 Y71.018 E0.05081
G1 X34.988 Y71.295 E0.05285
G1 X59.807 Y72.84 E1.02441
G1 X62.145 Y72.728 E0.09642
G1 X63.461 Y72.543 E0.05475
G1 X64.85 Y72.25 E0.0585
G1 X66.137 Y71.882 E0.05514
G1 X67.433 Y71.412 E0.05677
G1 X69.507 Y70.437 E0.09442
G1 X70.974 Y69.559 E0.07044
G1 X71.88 Y68.925 E0.04555
G1 X73.36 Y67.709 E0.07891
G1 X75.125 Y65.892 E0.10436
G1 X76.304 Y64.367 E0.07941
G1 X77.441 Y62.499 E0.09009
G1 X77.879 Y61.193 E0.05673
G1 X78.001 Y59.837 E0.05609
G1 X77.804 Y58.492 E0.05603
G1 X77.295 Y57.211 E0.05678
G1 X75.861 Y55.024 E0.10775
G1 X74.186 Y53.083 E0.1056
G1 X72.209 Y51.324 E0.10901
G1 X69.996 Y49.835 E0.10988
G1 X67.67 Y48.682 E0.10695
G1 X65.173 Y47.834 E0.10863
G1 X63.907 Y47.539 E0.05355
G1 X62.539 Y47.316 E0.05711
G1 X60.011 Y47.159 E0.10434
G1 X35.2 Y48.682 E1.02401
G1 X34.316 Y48.821 E0.03688
G1 X33.671 Y49.01 E0.02768
G1 X32.828 Y49.364 E0.03766
G1 X32.349 Y49.662 E0.02323
G1 X32.552 Y49.998 F27000
G1 F1800
G1 X32.311 Y50.143 E0.01159
G1 X31.418 Y50.936 E0.04919
G1 X30.903 Y51.576 E0.03384
G1 X30.562 Y52.135 E0.02699
G1 X30.108 Y53.234 E0.04899
G1 X29.865 Y54.55 E0.05514
G1 X29.875 Y65.55 E0.45315
G1 X30.011 Y66.406 E0.03568
G1 X30.225 Y67.118 E0.03065
G1 X30.871 Y68.372 E0.05812
G1 X31.568 Y69.225 E0.04538
G1 X32.602 Y70.051 E0.05451
G1 X33.706 Y70.587 E0.05054
G1 X34.813 Y70.872 E0.04711
G1 X59.773 Y72.444 E1.03027
G1 X61.097 Y72.415 E0.05454
G1 X63.394 Y72.152 E0.09527
G1 X64.758 Y71.864 E0.05743
G1 X66.005 Y71.508 E0.05341
G1 X67.182 Y71.087 E0.05153
G1 X68.485 Y70.515 E0.05862
G1 X70.126 Y69.627 E0.07688
G1 X71.575 Y68.657 E0.07179
G1 X73.082 Y67.426 E0.08016
G1 X74.812 Y65.648 E0.10218
G1 X75.97 Y64.154 E0.07789
G1 X77.06 Y62.377 E0.08588
G1 X77.485 Y61.139 E0.05393
G1 X77.605 Y59.866 E0.05267
G1 X77.422 Y58.599 E0.05272
G1 X76.942 Y57.391 E0.05355
G1 X75.545 Y55.264 E0.10485
G1 X73.901 Y53.359 E0.10368
G1 X71.963 Y51.636 E0.10682
G1 X69.798 Y50.179 E0.10748
G1 X67.518 Y49.049 E0.10484
G1 X65.066 Y48.216 E0.10668
G1 X62.484 Y47.708 E0.10842
G1 X60.011 Y47.555 E0.10207
G1 X35.256 Y49.075 E1.02175
G1 X33.849 Y49.367 E0.05918
G1 X33.058 Y49.692 E0.03523
G1 X32.552 Y49.998 E0.02435
; INIT printing object 3DBenchy.stl id:0 copy 0
G1 E-1
G1 Z0.55 F27000
; printing object 3DBenchy.stl id:0 copy 0
G1 X62.107 Y59.82
G1 Z0.25
G1 E1 F1800
; custom gcode: feature_gcode
; External perimeter
;Perimeter
SET_VELOCITY_LIMIT ACCEL=800 ACCEL_TO_DECEL=400 SQUARE_CORNER_VELOCITY=8

; Overhang perimeter
; custom gcode end: feature_gcode

;TYPE:Internal perimeter
;WIDTH:0.5
G1 X62.381 Y60.488 E0.03352
G1 X62.977 Y62.099 E0.07966
G1 X63.243 Y62.706 E0.03077
G1 X63.052 Y63.117 E0.02102
G1 X62.843 Y63.663 E0.02716
G1 X62.758 Y63.804 E0.00761
G1 X62.128 Y63.995 E0.03057
G1 X61.957 Y63.715 E0.01523
G1 X62.263 Y63.399 E0.02044
G1 X62.446 Y63.036 E0.01884
G1 X62.497 Y62.623 E0.01928
G1 X62.436 Y62.215 E0.01917
G1 X62.252 Y61.802 E0.02098
G1 X61.591 Y60.702 E0.05955
G1 X62.107 Y59.82 E0.04742
G1 E-1
G1 Z0.55 F27000
G1 X67.703 Y60.213
G1 Z0.25
G1 E1 F1800
G1 X67.441 Y60.531 E0.01912
G1 X66.808 Y61.391 E0.04957
G1 X66.643 Y61.675 E0.01523
G1 X66.292 Y61.512 E0.01796
G1 X66.528 Y60.853 E0.03249
G1 X66.856 Y59.873 E0.04791
G1 X67.141 Y60.073 E0.01617
G1 X67.703 Y60.213 E0.02686
G1 E-1
G1 Z0.55 F27000
G1 X70.035 Y61.268
G1 Z0.25
G1 E1 F1800
G1 X70.401 Y60.787 E0.02803
G1 X70.966 Y59.977 E0.04581
G1 X71.127 Y59.666 E0.01623
G1 X71.211 Y59.414 E0.01236
G1 X71.256 Y59.106 E0.01443
G1 X71.233 Y58.695 E0.0191
G1 X71.534 Y58.59 E0.01482
G1 X71.84 Y59.023 E0.02461
G1 X72.293 Y59.769 E0.0405
G1 X72.331 Y59.871 E0.00503
G1 X72.348 Y59.984 E0.00533
G1 X72.337 Y60.099 E0.00535
G1 X72.292 Y60.232 E0.00652
G1 X71.854 Y60.957 E0.03927
G1 X71.149 Y61.978 E0.05757
G1 X70.879 Y61.638 E0.02012
G1 X70.506 Y61.439 E0.01965
G1 X70.035 Y61.268 E0.02321
G1 E-1
G1 Z0.55 F27000
G1 X57.038 Y58.116
G1 Z0.25
G1 E1 F1800
G1 X56.831 Y57.591 E0.02619
G1 X56.457 Y56.953 E0.03433
G1 X56.009 Y56.431 E0.03189
G1 X55.431 Y55.969 E0.03431
G1 X54.775 Y55.649 E0.0339
M73 P1 R83
G1 X54.072 Y55.465 E0.03371
G1 X53.45 Y55.384 E0.02907
G1 X51.669 Y55.343 E0.08268
G1 X51.081 Y55.406 E0.02743
G1 X50.421 Y55.662 E0.0328
G1 X50.098 Y55.912 E0.01899
G1 X49.871 Y55.737 E0.01331
G1 X49.4 Y55.483 E0.0248
G1 X49.001 Y55.341 E0.01964
G1 X48.504 Y55.234 E0.02362
G1 X48.069 Y55.187 E0.0203
G1 X47.492 Y55.186 E0.02677
G1 X47.019 Y55.237 E0.02205
G1 X46.492 Y55.357 E0.02508
G1 X45.958 Y55.571 E0.02672
G1 X45.824 Y55.655 E0.00731
G1 X45.436 Y55.461 E0.02014
G1 X44.95 Y55.358 E0.02304
G1 X41.528 Y55.367 E0.15877
G1 X40.746 Y55.317 E0.03632
G1 X40.128 Y55.43 E0.02914
G1 X39.621 Y55.707 E0.02681
G1 X39.407 Y55.575 E0.01169
G1 X38.89 Y55.364 E0.02589
G1 X38.333 Y55.235 E0.02653
G1 X38.363 Y54.87 E0.01702
G1 X59.237 Y53.597 E0.97021
G1 X60.059 Y53.574 E0.03814
G1 X61.025 Y53.608 E0.04483
G1 X61.748 Y53.681 E0.03373
G1 X62.475 Y53.797 E0.03414
G1 X63.465 Y54.021 E0.0471
G1 X64.176 Y54.232 E0.03437
G1 X65.135 Y54.588 E0.04746
G1 X65.896 Y54.933 E0.0388
G1 X66.721 Y55.376 E0.04343
G1 X67.361 Y55.774 E0.03499
G1 X68.189 Y56.37 E0.04731
G1 X68.702 Y56.8 E0.03107
G1 X67.556 Y56.808 E0.05318
G1 X66.775 Y57.034 E0.03771
G1 X66.711 Y56.991 E0.00359
