; generated by SuperSlicer 2.3.57 on 2022-04-05 at 17:54:14 UTC


;
;

;
;
; 

; external perimeters extrusion width = 0.42mm
; perimeters extrusion width = 0.45mm
; infill extrusion width = 0.72mm
; solid infill extrusion width = 0.56mm
; top infill extrusion width = 0.42mm

; object:{"name":"Voron_Design_Cube_v7","id":"Voron_Design_Cube_v7.stl id:0 copy 0","object_center":[60.000000,60.000000,0.000000],"boundingbox_center":[60.000000,60.000000,15.000000],"boundingbox_size":[30.000000,30.000000,30.000000]}
; plater:{"center":[60.000000,60.000000,0.000000],"boundingbox_center":[60.000000,60.000000,15.000000],"boundingbox_size":[30.000000,30.000000,30.000000]}

M73 P0 R68
;TYPE:Custom
; custom gcode: start_gcode
PRINT_START BED=50 HOTEND=200 CHAMBER=0
; custom gcode end: start_gcode
G21 ; set units to millimeters
G90 ; use absolute coordinates
M83 ; use relative distances for extrusion
; custom gcode: start_filament_gcode
; Filament gcode
; custom gcode end: start_filament_gcode
M104 S200 ; set temperature
M109 S200 ; set temperature and wait for it to be reached
M190 S50 ; set bed temperature and wait for it to be reached
;LAYER_CHANGE
;Z:0.25
;HEIGHT:0.25
G1 E-2 F2400
G1 Z0.3 F27000
G1 Z0.55
G1 X41.515 Y41.468
G1 Z0.25
G1 E2.02 F2400
; custom gcode: feature_gcode
; External perimeter
;Skirt
SET_VELOCITY_LIMIT ACCEL=5000 ACCEL_TO_DECEL=2500 SQUARE_CORNER_VELOCITY=8

; Support material
; custom gcode end: feature_gcode

;TYPE:Skirt
;WIDTH:0.452
G1 F1800
G1 X38.41 Y44.577 E0.17101
G1 X37.594 Y45.612 E0.05129
G1 X36.942 Y46.748 E0.051
G1 X36.575 Y47.63 E0.03718
G1 X36.303 Y48.546 E0.03718
G1 X36.129 Y49.486 E0.03718
G1 X36.057 Y50.438 E0.03718
G1 X36.055 Y69.484 E0.74125
G1 X36.142 Y70.606 E0.04381
G1 X36.366 Y71.702 E0.04352
G1 X36.705 Y72.713 E0.0415
G1 X37.164 Y73.683 E0.04179
G1 X37.736 Y74.592 E0.04179
G1 X38.412 Y75.426 E0.04179
G1 X44.571 Y81.585 E0.33898
G1 X45.606 Y82.401 E0.05129
G1 X46.748 Y83.058 E0.05129
G1 X47.63 Y83.425 E0.03718
G1 X48.546 Y83.697 E0.03718
G1 X49.486 Y83.871 E0.03718
G1 X50.438 Y83.943 E0.03718
G1 X69.484 Y83.945 E0.74125
G1 X70.606 Y83.858 E0.04381
G1 X71.702 Y83.634 E0.04352
G1 X72.72 Y83.293 E0.04179
G1 X73.69 Y82.832 E0.04179
G1 X74.598 Y82.259 E0.04179
G1 X75.426 Y81.588 E0.0415
G1 X81.585 Y75.429 E0.33898
G1 X82.401 Y74.394 E0.05129
G1 X83.058 Y73.252 E0.05129
G1 X83.433 Y72.349 E0.03805
G1 X83.708 Y71.411 E0.03805
G1 X83.879 Y70.448 E0.03805
G1 X83.945 Y69.473 E0.03805
G1 X83.943 Y50.42 E0.74154
G1 X83.786 Y48.955 E0.05733
G1 X83.391 Y47.536 E0.05733
G1 X82.674 Y46.034 E0.06479
G1 X81.697 Y44.695 E0.06451
G1 X75.054 Y38.09 E0.36459
G1 X73.784 Y37.22 E0.05991
G1 X72.384 Y36.58 E0.05991
G1 X70.895 Y36.187 E0.05991
G1 X69.362 Y36.054 E0.05991
G1 X50.457 Y36.056 E0.73577
G1 X49.123 Y36.184 E0.05215
G1 X47.83 Y36.506 E0.05186
G1 X46.913 Y36.865 E0.03834
G1 X46.047 Y37.319 E0.03805
G1 X45.235 Y37.863 E0.03805
G1 X44.481 Y38.498 E0.03834
G1 X41.529 Y41.454 E0.16259
G1 X41.811 Y41.735 F27000
G1 F1800
G1 X38.719 Y44.829 E0.17021
G1 X37.946 Y45.804 E0.04845
G1 X37.318 Y46.887 E0.04873
G1 X36.96 Y47.734 E0.03579
G1 X36.694 Y48.622 E0.03607
G1 X36.526 Y49.526 E0.03579
G1 X36.455 Y50.443 E0.03579
G1 X36.453 Y69.471 E0.74057
G1 X36.534 Y70.532 E0.04142
G1 X36.744 Y71.576 E0.04142
G1 X37.069 Y72.551 E0.04001
G1 X37.507 Y73.481 E0.04001
G1 X38.054 Y74.352 E0.04001
G1 X38.7 Y75.151 E0.04001
G1 X44.823 Y81.276 E0.33706
G1 X45.804 Y82.054 E0.04873
G1 X46.887 Y82.682 E0.04873
G1 X47.734 Y83.04 E0.03579
G1 X48.622 Y83.306 E0.03607
G1 X49.526 Y83.474 E0.03579
G1 X50.443 Y83.545 E0.03579
G1 X69.471 Y83.547 E0.74057
G1 X70.532 Y83.466 E0.04142
G1 X71.576 Y83.256 E0.04142
G1 X72.551 Y82.931 E0.04001
G1 X73.481 Y82.493 E0.04001
G1 X74.352 Y81.946 E0.04001
G1 X75.151 Y81.3 E0.04001
G1 X81.276 Y75.177 E0.33706
G1 X82.054 Y74.196 E0.04873
G1 X82.682 Y73.113 E0.04873
G1 X83.047 Y72.245 E0.03663
G1 X83.314 Y71.343 E0.03663
G1 X83.483 Y70.409 E0.03691
G1 X83.547 Y69.47 E0.03663
G1 X83.545 Y50.442 E0.74057
G1 X83.399 Y49.053 E0.05435
G1 X83.029 Y47.706 E0.05435
G1 X82.338 Y46.249 E0.06278
G1 X81.392 Y44.952 E0.0625
G1 X74.816 Y38.41 E0.36097
G1 X73.6 Y37.574 E0.05744
G1 X72.259 Y36.958 E0.05744
G1 X70.832 Y36.58 E0.05744
G1 X69.362 Y36.452 E0.05744
G1 X50.478 Y36.454 E0.73494
G1 X49.217 Y36.572 E0.04929
G1 X47.987 Y36.874 E0.04929
G1 X47.109 Y37.214 E0.03663
G1 X46.267 Y37.651 E0.03691
G1 X45.485 Y38.174 E0.03663
G1 X44.764 Y38.779 E0.03663
G1 X41.825 Y41.721 E0.16185
G1 X42.106 Y42.002 F27000
G1 F1800
G1 X39.025 Y45.084 E0.1696
G1 X38.285 Y46.013 E0.04621
G1 X37.69 Y47.032 E0.04594
G1 X37.344 Y47.845 E0.0344
G1 X37.086 Y48.698 E0.03467
G1 X36.922 Y49.567 E0.0344
G1 X36.853 Y50.455 E0.03467
G1 X36.852 Y69.463 E0.73977
G1 X36.927 Y70.471 E0.03935
G1 X37.124 Y71.455 E0.03907
G1 X37.433 Y72.388 E0.03825
G1 X37.85 Y73.278 E0.03825
G1 X38.376 Y74.117 E0.03852
G1 X38.993 Y74.881 E0.03825
G1 X45.079 Y80.97 E0.33505
G1 X46.007 Y81.711 E0.04621
G1 X47.032 Y82.31 E0.04621
G1 X47.845 Y82.656 E0.0344
G1 X48.698 Y82.914 E0.03467
G1 X49.567 Y83.078 E0.0344
G1 X50.455 Y83.147 E0.03467
G1 X69.463 Y83.148 E0.73977
G1 X70.464 Y83.074 E0.03907
G1 X71.455 Y82.876 E0.03935
G1 X72.388 Y82.567 E0.03825
G1 X73.278 Y82.15 E0.03825
G1 X74.111 Y81.628 E0.03825
G1 X74.881 Y81.007 E0.03852
G1 X80.97 Y74.921 E0.33505
G1 X81.711 Y73.993 E0.04621
G1 X82.31 Y72.968 E0.04621
G1 X82.663 Y72.135 E0.03522
G1 X82.923 Y71.268 E0.03522
G1 X83.086 Y70.37 E0.0355
G1 X83.148 Y69.467 E0.03522
G1 X83.147 Y50.467 E0.7395
G1 X83.012 Y49.152 E0.05143
G1 X82.667 Y47.877 E0.05143
G1 X82.006 Y46.47 E0.06048
G1 X81.092 Y45.214 E0.06048
G1 X74.586 Y38.737 E0.3573
G1 X73.418 Y37.929 E0.05527
G1 X72.135 Y37.337 E0.055
G1 X70.769 Y36.974 E0.055
G1 X69.361 Y36.851 E0.055
G1 X50.495 Y36.852 E0.73427
G1 X49.306 Y36.961 E0.04649
G1 X48.138 Y37.244 E0.04676
G1 X47.293 Y37.568 E0.03522
G1 X46.488 Y37.983 E0.03522
G1 X45.735 Y38.484 E0.03522
G1 X45.041 Y39.065 E0.03522
G1 X42.12 Y41.988 E0.16081
; INIT printing object Voron_Design_Cube_v7.stl id:0 copy 0
G1 E-2 F2400
G1 Z0.55 F27000
; printing object Voron_Design_Cube_v7.stl id:0 copy 0
G1 X53.425 Y53.542
G1 Z0.25
G1 E2.02 F2400
; custom gcode: feature_gcode
; External perimeter
;Perimeter
SET_VELOCITY_LIMIT ACCEL=800 ACCEL_TO_DECEL=400 SQUARE_CORNER_VELOCITY=8

; Overhang perimeter
; custom gcode end: feature_gcode

;TYPE:Internal perimeter
G1 F1800
G1 X52.793 Y54.256 E0.03712
G1 X52.238 Y55.031 E0.03712
G1 X51.769 Y55.856 E0.03694
G1 X51.453 Y56.561 E0.03005
G1 X51.223 Y57.192 E0.02614
G1 X50.981 Y58.105 E0.03679
G1 X50.833 Y59.048 E0.03712
G1 X50.784 Y60 E0.03712
G1 X50.833 Y60.952 E0.03712
G1 X50.981 Y61.895 E0.03712
G1 X51.225 Y62.817 E0.03712
G1 X51.563 Y63.708 E0.03712
G1 X51.991 Y64.56 E0.03712
G1 X52.506 Y65.364 E0.03712
G1 X53.095 Y66.102 E0.03677
G1 X53.559 Y66.588 E0.02615
G1 X54.132 Y67.106 E0.03006
G1 X54.894 Y67.672 E0.03693
G1 X55.714 Y68.158 E0.03712
G1 X56.58 Y68.558 E0.03712
G1 X57.483 Y68.865 E0.03712
G1 X58.412 Y69.078 E0.03712
G1 X59.359 Y69.193 E0.03712
G1 X60.312 Y69.21 E0.03712
G1 X61.263 Y69.129 E0.03712
G1 X62.199 Y68.949 E0.03712
G1 X63.103 Y68.677 E0.03673
G1 X63.727 Y68.426 E0.02619
G1 X64.421 Y68.085 E0.03011
G1 X65.229 Y67.589 E0.03689
G1 X65.985 Y67.008 E0.03712
G1 X66.677 Y66.352 E0.03712
G1 X67.298 Y65.628 E0.03712
G1 X67.84 Y64.843 E0.03712
G1 X68.299 Y64.007 E0.03712
G1 X68.668 Y63.128 E0.03712
G1 X68.945 Y62.215 E0.03711
G1 X69.126 Y61.279 E0.03711
G1 X69.208 Y60.34 E0.03668
G1 X69.208 Y59.66 E0.02649
G1 X69.126 Y58.721 E0.03668
G1 X68.945 Y57.785 E0.03711
G1 X68.67 Y56.878 E0.03686
G1 X68.377 Y56.162 E0.03014
G1 X68.075 Y55.56 E0.02621
G1 X67.579 Y54.758 E0.0367
G1 X66.997 Y54.002 E0.03712
G1 X66.339 Y53.311 E0.03712
G1 X65.614 Y52.692 E0.03712
G1 X64.829 Y52.151 E0.03712
G1 X63.997 Y51.697 E0.03689
G1 X63.286 Y51.392 E0.03011
G1 X62.65 Y51.174 E0.02619
G1 X61.733 Y50.949 E0.03673
G1 X60.788 Y50.818 E0.03712
G1 X59.835 Y50.786 E0.03712
G1 X58.884 Y50.852 E0.03712
G1 X57.945 Y51.016 E0.03712
G1 X57.032 Y51.275 E0.03691
G1 X56.312 Y51.557 E0.03008
G1 X55.706 Y51.846 E0.02616
G1 X54.894 Y52.328 E0.03676
G1 X54.128 Y52.897 E0.03712
G1 X53.44 Y53.528 E0.03634
G1 X53.71 Y53.821 F27000
G1 F1800
G1 X53.105 Y54.504 E0.03551
G1 X52.574 Y55.246 E0.03551
G1 X52.124 Y56.036 E0.03538
G1 X51.823 Y56.711 E0.02875
G1 X51.603 Y57.311 E0.02488
G1 X51.371 Y58.187 E0.03528
G1 X51.23 Y59.089 E0.03551
G1 X51.183 Y60 E0.03551
G1 X51.23 Y60.911 E0.03551
G1 X51.371 Y61.813 E0.03551
G1 X51.605 Y62.695 E0.03551
G1 X51.928 Y63.548 E0.03551
G1 X52.338 Y64.363 E0.03551
G1 X52.83 Y65.131 E0.03551
G1 X53.395 Y65.84 E0.03526
G1 X53.837 Y66.302 E0.02489
G1 X54.385 Y66.798 E0.02876
G1 X55.115 Y67.34 E0.03537
G1 X55.899 Y67.805 E0.03551
G1 X56.728 Y68.187 E0.03551
G1 X57.591 Y68.482 E0.03551
G1 X58.481 Y68.685 E0.03551
G1 X59.387 Y68.796 E0.03551
G1 X60.299 Y68.812 E0.03551
G1 X61.208 Y68.734 E0.03551
G1 X62.104 Y68.562 E0.03551
G1 X62.971 Y68.301 E0.03523
G1 X63.565 Y68.062 E0.02492
G1 X64.229 Y67.736 E0.02879
G1 X65.002 Y67.26 E0.03535
G1 X65.726 Y66.704 E0.03551
G1 X66.388 Y66.077 E0.03551
G1 X66.982 Y65.384 E0.03551
G1 X67.501 Y64.634 E0.03551
G1 X67.939 Y63.834 E0.03551
G1 X68.293 Y62.993 E0.03551
G1 X68.558 Y62.12 E0.03551
G1 X68.731 Y61.224 E0.03551
G1 X68.81 Y60.323 E0.0352
G1 X68.81 Y59.677 E0.02513
G1 X68.731 Y58.776 E0.0352
G1 X68.558 Y57.88 E0.03551
G1 X68.294 Y57.012 E0.03533
G1 X68.014 Y56.327 E0.02881
G1 X67.726 Y55.754 E0.02494
G1 X67.251 Y54.984 E0.03521
G1 X66.694 Y54.262 E0.03551
G1 X66.065 Y53.601 E0.03551
G1 X65.371 Y53.008 E0.03551
G1 X64.62 Y52.491 E0.03551
G1 X63.823 Y52.055 E0.03535
G1 X63.143 Y51.764 E0.02879
G1 X62.537 Y51.557 E0.02492
G1 X61.658 Y51.34 E0.03523
G1 X60.754 Y51.215 E0.03551
G1 X59.842 Y51.185 E0.03551
G1 X58.932 Y51.248 E0.03551
G1 X58.034 Y51.405 E0.03551
G1 X57.159 Y51.653 E0.03537
G1 X56.471 Y51.923 E0.02877
G1 X55.894 Y52.198 E0.0249
G1 X55.115 Y52.66 E0.03525
G1 X54.382 Y53.204 E0.03551
G1 X53.725 Y53.808 E0.03473
G1 X53.995 Y54.101 F27000
G1 F1800
G1 X53.417 Y54.753 E0.0339
G1 X52.91 Y55.462 E0.0339
G1 X52.48 Y56.217 E0.03383
G1 X52.192 Y56.861 E0.02745
G1 X51.984 Y57.431 E0.02363
G1 X51.762 Y58.269 E0.03376
G1 X51.627 Y59.13 E0.0339
G1 X51.582 Y60 E0.0339
G1 X51.627 Y60.87 E0.0339
G1 X51.762 Y61.731 E0.0339
G1 X51.985 Y62.573 E0.0339
G1 X52.293 Y63.387 E0.0339
G1 X52.685 Y64.166 E0.0339
G1 X53.154 Y64.899 E0.0339
G1 X53.695 Y65.578 E0.03376
G1 X54.115 Y66.016 E0.02363
G1 X54.638 Y66.489 E0.02746
G1 X55.336 Y67.008 E0.03382
G1 X56.085 Y67.452 E0.0339
G1 X56.876 Y67.817 E0.0339
G1 X57.7 Y68.098 E0.0339
G1 X58.55 Y68.292 E0.0339
G1 X59.414 Y68.398 E0.0339
G1 X60.285 Y68.413 E0.0339
G1 X61.153 Y68.339 E0.0339
G1 X62.009 Y68.175 E0.0339
G1 X62.839 Y67.925 E0.03374
G1 X63.403 Y67.698 E0.02365
G1 X64.036 Y67.387 E0.02748
G1 X64.776 Y66.932 E0.0338
G1 X65.467 Y66.401 E0.0339
G1 X66.099 Y65.802 E0.0339
G1 X66.666 Y65.14 E0.0339
G1 X67.161 Y64.424 E0.0339
G1 X67.58 Y63.66 E0.0339
G1 X67.918 Y62.857 E0.0339
G1 X68.171 Y62.024 E0.0339
G1 X68.336 Y61.168 E0.0339
G1 X68.412 Y60.305 E0.03372
G1 X68.412 Y59.695 E0.02378
G1 X68.336 Y58.832 E0.03372
G1 X68.171 Y57.976 E0.0339
G1 X67.919 Y57.145 E0.03379
G1 X67.651 Y56.492 E0.02749
G1 X67.378 Y55.949 E0.02366
G1 X66.923 Y55.211 E0.03372
G1 X66.391 Y54.522 E0.0339
G1 X65.791 Y53.89 E0.0339
G1 X65.128 Y53.325 E0.0339
G1 X64.411 Y52.83 E0.0339
G1 X63.649 Y52.414 E0.03381
G1 X63 Y52.136 E0.02747
G1 X62.425 Y51.939 E0.02365
G1 X61.583 Y51.732 E0.03374
G1 X60.72 Y51.613 E0.0339
G1 X59.85 Y51.583 E0.0339
G1 X58.981 Y51.644 E0.0339
G1 X58.123 Y51.794 E0.0339
G1 X57.287 Y52.031 E0.03382
G1 X56.629 Y52.288 E0.02746
G1 X56.081 Y52.55 E0.02364
G1 X55.336 Y52.992 E0.03375
G1 X54.636 Y53.512 E0.0339
G1 X54.009 Y54.087 E0.03313
G1 X54.268 Y54.369 F27000
; custom gcode: feature_gcode
; External perimeter
;ExternalPerimeter
SET_VELOCITY_LIMIT ACCEL=450 ACCEL_TO_DECEL=250 SQUARE_CORNER_VELOCITY=8

; Perimeter
; custom gcode end: feature_gcode

;TYPE:External perimeter
;WIDTH:0.42
G1 F1800
G1 X53.716 Y54.992 E0.02977
G1 X53.233 Y55.668 E0.02976
G1 X52.821 Y56.39 E0.02974
G1 X52.546 Y57.004 E0.0241
M73 P0 R67
G1 X52.349 Y57.546 E0.02062
G1 X52.136 Y58.348 E0.02972
G1 X52.008 Y59.17 E0.02976
G1 X51.965 Y60 E0.02976
G1 X52.008 Y60.83 E0.02976
G1 X52.136 Y61.652 E0.02976
G1 X52.349 Y62.456 E0.02976
G1 X52.644 Y63.233 E0.02976
G1 X53.017 Y63.976 E0.02976
G1 X53.466 Y64.676 E0.02976
G1 X53.983 Y65.326 E0.02971
G1 X54.382 Y65.742 E0.02062
G1 X54.881 Y66.193 E0.0241
G1 X55.548 Y66.689 E0.02974
G1 X56.263 Y67.113 E0.02976
G1 X57.018 Y67.461 E0.02976
G1 X57.805 Y67.73 E0.02976
G1 X58.616 Y67.915 E0.02976
G1 X59.441 Y68.016 E0.02976
G1 X60.272 Y68.031 E0.02976
G1 X61.101 Y67.959 E0.02976
G1 X61.917 Y67.803 E0.02976
G1 X62.712 Y67.563 E0.02971
G1 X63.247 Y67.349 E0.02063
G1 X63.851 Y67.052 E0.02411
G1 X64.559 Y66.617 E0.02973
G1 X65.218 Y66.11 E0.02976
G1 X65.822 Y65.538 E0.02976
G1 X66.363 Y64.907 E0.02976
G1 X66.836 Y64.223 E0.02976
G1 X67.235 Y63.494 E0.02976
G1 X67.558 Y62.727 E0.02976
G1 X67.799 Y61.932 E0.02976
G1 X67.957 Y61.115 E0.02976
G1 X68.029 Y60.289 E0.0297
G1 X68.029 Y59.711 E0.02067
G1 X67.957 Y58.885 E0.0297
G1 X67.799 Y58.068 E0.02976
G1 X67.558 Y57.274 E0.02973
G1 X67.303 Y56.65 E0.02411
G1 X67.044 Y56.135 E0.02063
G1 X66.608 Y55.429 E0.0297
G1 X66.1 Y54.771 E0.02976
G1 X65.527 Y54.168 E0.02976
G1 X64.895 Y53.628 E0.02976
G1 X64.21 Y53.156 E0.02976
G1 X63.481 Y52.758 E0.02973
G1 X62.862 Y52.493 E0.02411
G1 X62.317 Y52.306 E0.02063
G1 X61.511 Y52.108 E0.02971
G1 X60.687 Y51.994 E0.02976
G1 X59.856 Y51.966 E0.02976
G1 X59.027 Y52.024 E0.02976
G1 X58.208 Y52.167 E0.02976
G1 X57.409 Y52.394 E0.02973
G1 X56.782 Y52.639 E0.0241
G1 X56.262 Y52.887 E0.02062
G1 X55.548 Y53.311 E0.02971
G1 X54.88 Y53.807 E0.02976
G1 X54.283 Y54.356 E0.02904
;WIPE_START
G1 X54.268 Y54.369 F27000
;WIPE_END
G1 E-2 F2400
G1 Z0.55 F27000
G1 X46.564 Y68.517
G1 Z0.25
G1 E2.02 F2400
; custom gcode: feature_gcode
; External perimeter
;Perimeter
SET_VELOCITY_LIMIT ACCEL=800 ACCEL_TO_DECEL=400 SQUARE_CORNER_VELOCITY=8

; Overhang perimeter
; custom gcode end: feature_gcode

;TYPE:Internal perimeter
;WIDTH:0.452
G1 F1800
G1 X46.564 Y51.483 E0.66294
G1 X51.483 Y46.564 E0.27075
G1 X68.517 Y46.564 E0.66294
G1 X73.436 Y51.483 E0.27075
G1 X73.436 Y68.517 E0.66294
G1 X68.517 Y73.436 E0.27075
G1 X51.483 Y73.436 E0.66294
G1 X46.578 Y68.531 E0.26997
G1 X46.297 Y68.813 F27000
G1 F1800
G1 X46.166 Y68.682 E0.0072
G1 X46.166 Y51.318 E0.67579
G1 X51.318 Y46.166 E0.28359
G1 X68.682 Y46.166 E0.67579
G1 X73.834 Y51.318 E0.28359
G1 X73.834 Y68.682 E0.67579
G1 X68.682 Y73.834 E0.28359
G1 X51.318 Y73.834 E0.67579
M73 P1 R67
G1 X46.311 Y68.827 E0.27561
G1 E-2 F2400
G1 Z0.55 F27000
G1 X74.233 Y51.153
G1 Z0.25
G1 E2.02 F2400
G1 F1800
G1 X74.233 Y68.847 E0.68863
G1 X68.847 Y74.233 E0.29643
G1 X51.153 Y74.233 E0.68863
G1 X45.767 Y68.847 E0.29643
G1 X45.767 Y51.153 E0.68863
G1 X51.153 Y45.767 E0.29643
G1 X68.847 Y45.767 E0.68863
G1 X74.219 Y51.139 E0.29566
G1 X74.489 Y50.869 F27000
; custom gcode: feature_gcode
; External perimeter
;ExternalPerimeter
SET_VELOCITY_LIMIT ACCEL=450 ACCEL_TO_DECEL=250 SQUARE_CORNER_VELOCITY=8

; Perimeter
; custom gcode end: feature_gcode

;TYPE:External perimeter
;WIDTH:0.42
G1 F1800
G1 X74.615 Y50.995 E0.00638
G1 X74.615 Y69.005 E0.64465
G1 X69.005 Y74.615 E0.28396
G1 X50.995 Y74.615 E0.64465
G1 X45.385 Y69.005 E0.28396
G1 X45.385 Y50.995 E0.64465
G1 X50.995 Y45.385 E0.28396
G1 X69.005 Y45.385 E0.64465
G1 X69.255 Y45.635 E0.01265
G1 X74.475 Y50.854 E0.26421
;WIPE_START
G1 X74.443 Y51.041 F27000
;WIPE_END
G1 X73.392 Y51.823
; custom gcode: feature_gcode
; External perimeter
;SolidInfill
SET_VELOCITY_LIMIT ACCEL=3800 ACCEL_TO_DECEL=2000 SQUARE_CORNER_VELOCITY=8

; Bridge infill
; custom gcode end: feature_gcode

;TYPE:Solid infill
;WIDTH:0.540822
G1 F3600
G1 X68.394 Y46.825 E0.33771
G1 X67.678 Y46.825 E0.03421
G1 X73.175 Y52.322 E0.37138
G1 X73.175 Y53.038 E0.03421
G1 X66.962 Y46.825 E0.41977
G1 X66.246 Y46.825 E0.03421
G1 X73.175 Y53.754 E0.46815
