; generated by SuperSlicer 2.3.57 on 2022-04-05 at 10:16:31 UTC


;
;

;
;
; 

; external perimeters extrusion width = 0.40mm
; perimeters extrusion width = 0.45mm
; infill extrusion width = 0.72mm
; solid infill extrusion width = 0.56mm
; top infill extrusion width = 0.42mm
; first layer extrusion width = 0.52mm

; object:{"name":"3DBenchy","id":"3DBenchy.stl id:0 copy 0","object_center":[62.870854,62.870854,0.000000],"boundingbox_center":[62.870854,62.870854,24.000000],"boundingbox_size":[50.826130,50.826130,48.000000]}
; plater:{"center":[62.870854,62.870854,0.000000],"boundingbox_center":[62.870854,62.870854,24.000000],"boundingbox_size":[50.826130,50.826130,48.000000]}

M73 P0 R59
;TYPE:Custom
; custom gcode: start_gcode
PRINT_START BED=50 HOTEND=205 CHAMBER=0
; custom gcode end: start_gcode
G21 ; set units to millimeters
G90 ; use absolute coordinates
M83 ; use relative distances for extrusion
; custom gcode: start_filament_gcode
; Filament gcode
; custom gcode end: start_filament_gcode
M109 S205 ; set temperature and wait for it to be reached
M190 S50 ; set bed temperature and wait for it to be reached
;LAYER_CHANGE
;Z:0.25
;HEIGHT:0.25
G1 E-2 F2400
G1 Z0.25 F27000
G1 Z0.55
G1 X46.934 Y47.048
G1 Z0.25
G1 E2.5 F1800
; custom gcode: feature_gcode
; External perimeter
;Skirt
SET_VELOCITY_LIMIT ACCEL=5000 ACCEL_TO_DECEL=2500 SQUARE_CORNER_VELOCITY=8

; Support material
; custom gcode end: feature_gcode

;TYPE:Skirt
;WIDTH:0.45
G1 X46.263 Y47.873 E0.04117
G1 X45.622 Y49.054 E0.05204
G1 X45.087 Y50.995 E0.07798
G1 X44.771 Y53.136 E0.08379
G1 X44.682 Y55.184 E0.07939
G1 X44.79 Y57.122 E0.07515
G1 X45.093 Y59.083 E0.07683
G1 X45.6 Y61.049 E0.07863
G1 X46.322 Y63.003 E0.08067
G1 X47.084 Y64.582 E0.0679
G1 X48.322 Y66.597 E0.09159
G1 X49.151 Y67.704 E0.05352
G1 X50.129 Y68.834 E0.05789
G1 X51.166 Y69.866 E0.05664
G1 X69.669 Y86.148 E0.95444
G1 X70.279 Y86.536 E0.02797
G1 X71.241 Y86.996 E0.04129
G1 X72.106 Y87.256 E0.03498
G1 X73.08 Y87.404 E0.03817
G1 X73.994 Y87.408 E0.03538
G1 X74.968 Y87.271 E0.03809
G1 X75.941 Y86.98 E0.03934
G1 X76.718 Y86.624 E0.03309
G1 X77.597 Y86.064 E0.04035
G1 X78.324 Y85.438 E0.03717
G1 X85.468 Y78.293 E0.39125
G1 X85.992 Y77.693 E0.03084
G1 X86.443 Y77.039 E0.03077
G1 X86.861 Y76.235 E0.0351
G1 X87.148 Y75.45 E0.03233
G1 X87.346 Y74.543 E0.03597
G1 X87.412 Y73.868 E0.02627
G1 X87.395 Y72.966 E0.03491
G1 X87.251 Y72.082 E0.03469
G1 X86.982 Y71.205 E0.03553
G1 X86.641 Y70.46 E0.03175
G1 X85.759 Y69.179 E0.06019
G1 X70.096 Y51.418 E0.91704
G1 X69.11 Y50.391 E0.05513
G1 X68.084 Y49.464 E0.05356
G1 X66.708 Y48.398 E0.0674
G1 X65.233 Y47.449 E0.0679
G1 X63.654 Y46.615 E0.06916
G1 X62.004 Y45.924 E0.06927
G1 X60.316 Y45.387 E0.06858
G1 X58.633 Y45.006 E0.06683
G1 X56.814 Y44.76 E0.07109
G1 X55.045 Y44.682 E0.06858
G1 X53.589 Y44.733 E0.05641
G1 X52.154 Y44.889 E0.0559
G1 X49.812 Y45.368 E0.09257
G1 X48.783 Y45.739 E0.04236
G1 X47.814 Y46.298 E0.04332
G1 X46.98 Y47.009 E0.04246
G1 X47.235 Y47.31 F27000
G1 F1800
G1 X47.222 Y47.321 E0.00065
G1 X46.589 Y48.098 E0.03882
G1 X45.981 Y49.224 E0.04953
G1 X45.473 Y51.085 E0.07473
G1 X45.164 Y53.186 E0.0822
G1 X45.078 Y55.187 E0.07759
G1 X45.186 Y57.093 E0.07392
G1 X45.481 Y59.002 E0.0748
G1 X45.98 Y60.937 E0.07736
G1 X46.689 Y62.853 E0.07913
G1 X47.445 Y64.416 E0.06722
G1 X48.655 Y66.381 E0.08936
G1 X49.467 Y67.465 E0.05244
G1 X50.42 Y68.566 E0.05641
G1 X51.442 Y69.581 E0.05576
G1 X69.887 Y85.816 E0.95152
G1 X70.452 Y86.179 E0.02602
G1 X71.366 Y86.619 E0.03928
G1 X72.183 Y86.868 E0.03308
G1 X73.104 Y87.008 E0.03607
G1 X73.969 Y87.013 E0.0335
G1 X74.897 Y86.881 E0.03631
G1 X75.818 Y86.603 E0.03723
G1 X76.552 Y86.263 E0.03135
G1 X77.369 Y85.74 E0.03757
G1 X78.049 Y85.152 E0.03478
G1 X85.181 Y78.02 E0.3906
G1 X86.091 Y76.854 E0.05728
G1 X86.494 Y76.084 E0.03365
G1 X86.766 Y75.342 E0.03061
G1 X87.016 Y73.856 E0.05834
G1 X87 Y73.002 E0.03307
G1 X86.864 Y72.167 E0.03279
G1 X86.609 Y71.337 E0.0336
G1 X86.28 Y70.625 E0.03038
G1 X85.458 Y69.436 E0.05597
G1 X69.797 Y51.679 E0.91685
G1 X68.835 Y50.676 E0.05383
G1 X67.838 Y49.774 E0.05206
G1 X66.478 Y48.721 E0.0666
G1 X65.037 Y47.793 E0.06636
G1 X63.484 Y46.973 E0.06802
G1 X61.871 Y46.298 E0.06773
G1 X60.216 Y45.771 E0.06723
G1 X58.562 Y45.396 E0.06567
G1 X56.778 Y45.155 E0.06974
G1 X55.046 Y45.078 E0.06711
G1 X53.623 Y45.127 E0.05512
G1 X52.236 Y45.277 E0.05405
G1 X49.928 Y45.748 E0.0912
G1 X48.974 Y46.088 E0.03925
G1 X48.052 Y46.615 E0.0411
G1 X47.28 Y47.271 E0.03922
G1 X47.536 Y47.572 F27000
G1 F1800
G1 X47.506 Y47.596 E0.00147
G1 X46.916 Y48.323 E0.03624
G1 X46.339 Y49.395 E0.04716
G1 X45.86 Y51.174 E0.07136
G1 X45.557 Y53.234 E0.08061
G1 X45.475 Y55.185 E0.07562
G1 X45.582 Y57.069 E0.07308
G1 X45.87 Y58.927 E0.0728
G1 X46.36 Y60.824 E0.07588
G1 X47.054 Y62.698 E0.07739
G1 X47.805 Y64.248 E0.06669
G1 X48.986 Y66.164 E0.08717
G1 X49.783 Y67.225 E0.05137
G1 X50.712 Y68.297 E0.05494
G1 X51.717 Y69.296 E0.05487
G1 X70.113 Y85.49 E0.94905
G1 X70.635 Y85.828 E0.02409
G1 X71.501 Y86.247 E0.03724
G1 X72.271 Y86.481 E0.03116
G1 X73.137 Y86.613 E0.03395
G1 X73.948 Y86.617 E0.0314
G1 X74.825 Y86.491 E0.03429
G1 X75.692 Y86.227 E0.03511
G1 X76.389 Y85.901 E0.02978
G1 X77.144 Y85.413 E0.03483
G1 X77.773 Y84.868 E0.03224
G1 X84.893 Y77.747 E0.38996
G1 X85.74 Y76.667 E0.05312
G1 X86.128 Y75.934 E0.03214
G1 X86.383 Y75.238 E0.02868
G1 X86.62 Y73.845 E0.05474
G1 X86.605 Y73.039 E0.03121
G1 X86.476 Y72.247 E0.03107
G1 X86.234 Y71.466 E0.03165
G1 X85.918 Y70.788 E0.02896
G1 X85.156 Y69.694 E0.05165
G1 X69.499 Y51.94 E0.91665
G1 X68.556 Y50.958 E0.05274
G1 X67.591 Y50.085 E0.05038
G1 X66.253 Y49.047 E0.06558
G1 X64.836 Y48.135 E0.06523
G1 X63.314 Y47.331 E0.06666
G1 X61.733 Y46.669 E0.06639
G1 X60.111 Y46.153 E0.06589
G1 X58.492 Y45.786 E0.0643
G1 X56.741 Y45.55 E0.0684
G1 X55.048 Y45.475 E0.06566
G1 X53.653 Y45.523 E0.05405
G1 X52.306 Y45.667 E0.05243
G1 X50.034 Y46.13 E0.08981
G1 X49.162 Y46.438 E0.03578
G1 X48.29 Y46.933 E0.03884
G1 X47.581 Y47.533 E0.03597
; INIT printing object 3DBenchy.stl id:0 copy 0
G1 E-2 F2400
G1 Z0.55 F27000
; printing object 3DBenchy.stl id:0 copy 0
G1 X58.429 Y58.579
G1 Z0.25
G1 E2.5 F1800
; custom gcode: feature_gcode
; External perimeter
;Perimeter
SET_VELOCITY_LIMIT ACCEL=800 ACCEL_TO_DECEL=400 SQUARE_CORNER_VELOCITY=8

; Overhang perimeter
; custom gcode end: feature_gcode

;TYPE:Internal perimeter
;WIDTH:0.52
G1 X59.407 Y56.421 E0.10797
G1 X59.645 Y55.812 E0.02979
G1 X60.054 Y55.668 E0.01975
G1 X60.6 Y55.424 E0.02725
G1 X60.727 Y55.388 E0.00602
G1 X60.813 Y55.421 E0.0042
G1 X61.187 Y55.634 E0.0196
G1 X61.102 Y55.962 E0.0154
G1 X60.798 Y55.966 E0.01389
G1 X60.42 Y56.092 E0.01814
G1 X60.155 Y56.278 E0.01474
G1 X59.904 Y56.56 E0.0172
G1 X59.762 Y56.812 E0.01318
G1 X59.65 Y57.136 E0.01563
G1 X59.347 Y58.354 E0.0572
G1 X58.488 Y58.565 E0.0403
G1 E-2 F2400
G1 Z0.55 F27000
G1 X76.06 Y71.314
G1 Z0.25
G1 E2.5 F1800
G1 X76.22 Y70.692 E0.02927
G1 X76.155 Y69.97 E0.03306
G1 X75.882 Y69.361 E0.03037
G1 X75.589 Y68.98 E0.02192
G1 X75.239 Y68.658 E0.02167
G1 X74.714 Y68.368 E0.02732
G1 X74.182 Y68.242 E0.02492
G1 X73.599 Y68.246 E0.02656
G1 X73.231 Y68.368 E0.01767
G1 X73.257 Y67.553 E0.03714
G1 X73.167 Y67.026 E0.02438
G1 X73.031 Y66.63 E0.01906
G1 X72.814 Y66.199 E0.02199
G1 X72.569 Y65.825 E0.02039
G1 X72.086 Y65.268 E0.03358
G1 X71.501 Y64.767 E0.03509
G1 X70.868 Y64.405 E0.03323
G1 X70.312 Y64.216 E0.02677
G1 X69.941 Y64.147 E0.01718
G1 X69.846 Y63.569 E0.02668
G1 X69.634 Y63.1 E0.02347
G1 X69.34 Y62.714 E0.02207
G1 X68.873 Y62.317 E0.02797
G1 X68.31 Y61.743 E0.03661
G1 X67.696 Y61.202 E0.03729
G1 X67.189 Y60.853 E0.02804
G1 X66.733 Y60.637 E0.02299
G1 X66.629 Y59.908 E0.03353
G1 X66.449 Y59.415 E0.02393
G1 X66.19 Y58.983 E0.02294
G1 X65.858 Y58.606 E0.02289
G1 X65.467 Y58.301 E0.0226
G1 X64.996 Y58.054 E0.02422
G1 X64.537 Y57.934 E0.02162
G1 X64.232 Y57.436 E0.02659
G1 X63.687 Y56.905 E0.03465
G1 X63.145 Y56.734 E0.02593
G1 X62.986 Y56.244 E0.02343
G1 X63.155 Y56.118 E0.00959
G1 X63.543 Y55.64 E0.02805
G1 X63.864 Y54.92 E0.03595
G1 X64.402 Y55.412 E0.03321
G1 X65.029 Y56.075 E0.04162
M73 P0 R58
G1 X78.678 Y71.495 E0.93826
G1 X78.44 Y71.787 E0.01716
G1 X78.127 Y71.607 E0.01646
G1 X77.613 Y71.397 E0.02526
G1 X77.054 Y71.271 E0.02612
G1 X76.449 Y71.246 E0.0276
G1 X76.119 Y71.304 E0.01527
G1 X80.02 Y74.759 F27000
G1 F1800
G1 X79.815 Y74.128 E0.03022
G1 X79.674 Y73.801 E0.01623
G1 X79.477 Y73.454 E0.01821
G1 X79.257 Y73.145 E0.01728
G1 X78.89 Y72.737 E0.025
G1 X78.503 Y72.398 E0.02341
G1 X78.223 Y72.2 E0.01565
G1 X77.921 Y72.027 E0.01587
G1 X77.473 Y71.843 E0.02205
G1 X76.993 Y71.735 E0.02242
G1 X76.48 Y71.714 E0.0234
G1 X75.864 Y71.822 E0.02847
G1 X75.419 Y72.011 E0.02205
G1 X75.208 Y71.753 E0.01518
G1 X75.617 Y71.163 E0.0327
G1 X75.748 Y70.654 E0.02397
G1 X75.697 Y70.089 E0.02583
G1 X75.479 Y69.602 E0.02433
G1 X75.244 Y69.296 E0.01757
G1 X74.964 Y69.04 E0.01729
G1 X74.544 Y68.807 E0.02188
G1 X74.129 Y68.709 E0.01945
G1 X73.676 Y68.712 E0.02065
G1 X73.073 Y68.912 E0.02897
G1 X72.597 Y69.269 E0.02708
G1 X72.326 Y69.026 E0.01656
G1 X72.658 Y68.466 E0.02964
G1 X72.777 Y67.983 E0.02269
G1 X72.79 Y67.586 E0.0181
G1 X72.714 Y67.142 E0.02052
G1 X72.6 Y66.811 E0.0159
G1 X72.41 Y66.432 E0.01933
G1 X72.196 Y66.107 E0.01774
G1 X71.756 Y65.6 E0.03058
G1 X71.231 Y65.15 E0.0315
G1 X70.675 Y64.832 E0.02917
G1 X70.193 Y64.668 E0.02321
G1 X69.813 Y64.597 E0.01762
G1 X69.422 Y64.59 E0.01784
G1 X69.462 Y64.108 E0.022
G1 X69.396 Y63.705 E0.01861
G1 X69.231 Y63.34 E0.01826
G1 X69 Y63.037 E0.01736
G1 X68.554 Y62.658 E0.02664
G1 X67.989 Y62.082 E0.03679
G1 X67.408 Y61.571 E0.03525
G1 X66.955 Y61.259 E0.02508
G1 X66.199 Y60.899 E0.03815
G1 X66.248 Y60.541 E0.01648
G1 X66.174 Y60.022 E0.02387
G1 X66.026 Y59.616 E0.01969
G1 X65.812 Y59.259 E0.01898
G1 X65.537 Y58.947 E0.01895
G1 X65.213 Y58.695 E0.01872
G1 X64.826 Y58.492 E0.01989
G1 X64.464 Y58.397 E0.01706
G1 X64.261 Y58.376 E0.00929
G1 X63.865 Y57.73 E0.03455
G1 X63.441 Y57.316 E0.02696
G1 X62.775 Y57.106 E0.03183
G1 X62.556 Y56.429 E0.03244
G1 X62.342 Y56.145 E0.0162
G1 X62.829 Y55.78 E0.02776
G1 X63.142 Y55.394 E0.02262
G1 X63.365 Y54.894 E0.02493
G1 X63.474 Y53.983 E0.04183
G1 X63.959 Y54.375 E0.02842
G1 X64.729 Y55.079 E0.04755
G1 X65.373 Y55.761 E0.04274
G1 X80.842 Y73.237 E1.0634
G1 X80.961 Y73.401 E0.00922
G1 X80.979 Y73.437 E0.00184
G1 X80.999 Y73.497 E0.00288
G1 X81.007 Y73.545 E0.0022
G1 X81.009 Y73.616 E0.00326
G1 X80.977 Y73.725 E0.00518
G1 X80.936 Y73.809 E0.00423
G1 X80.892 Y73.874 E0.0036
G1 X80.799 Y73.978 E0.00636
G1 X80.062 Y74.717 E0.04752
G1 E-2 F2400
G1 Z0.55 F27000
G1 X58.208 Y53.19
G1 Z0.25
G1 E2.5 F1800
G1 X58.179 Y52.273 E0.0418
G1 X57.737 Y51.392 E0.04489
G1 X58.319 Y51.519 E0.02716
G1 X58.879 Y51.666 E0.02636
G1 X59.403 Y51.826 E0.02499
G1 X60.116 Y52.077 E0.03442
G1 X60.105 Y52.402 E0.01481
G1 X59.898 Y52.46 E0.00981
G1 X58.714 Y52.953 E0.05842
G1 X58.263 Y53.165 E0.02272
G1 E-2 F2400
G1 Z0.55 F27000
G1 X70.452 Y69.596
G1 Z0.25
G1 E2.5 F1800
G1 X70.765 Y69.67 E0.01469
G1 X71.157 Y69.67 E0.01783
G1 X71.547 Y69.576 E0.01827
G1 X72.025 Y69.334 E0.02441
G1 X72.248 Y69.633 E0.01699
G1 X72.014 Y69.879 E0.01547
G1 X70.45 Y71.444 E0.10082
G1 X70.098 Y71.16 E0.02061
G1 X69.364 Y70.79 E0.03744
G1 X69.783 Y70.563 E0.0217
G1 X70.111 Y70.276 E0.01986
G1 X70.414 Y69.795 E0.02591
G1 X70.44 Y69.655 E0.00649
G1 E-2 F2400
G1 Z0.55 F27000
G1 X74.032 Y73.501
G1 Z0.25
G1 E2.5 F1800
G1 X74.288 Y74.284 E0.03749
G1 X73.786 Y74.218 E0.02304
G1 X73.607 Y73.932 E0.01541
G1 X73.99 Y73.544 E0.02481
G1 X75.362 Y76.561 F27000
G1 F1800
G1 X75.245 Y76.09 E0.02211
G1 X75.091 Y75.675 E0.02016
G1 X74.827 Y75.259 E0.02244
G1 X74.433 Y74.909 E0.02401
G1 X73.993 Y74.715 E0.02194
G1 X73.507 Y74.652 E0.02229
G1 X73.185 Y74.136 E0.02774
G1 X72.968 Y73.915 E0.01412
G1 X74.551 Y72.312 E0.10269
G1 X74.862 Y72.555 E0.01799
G1 X74.711 Y72.803 E0.01323
G1 X74.597 Y73.259 E0.02142
G1 X74.614 Y73.779 E0.02372
G1 X74.788 Y74.314 E0.02565
G1 X75.169 Y74.844 E0.02973
G1 X75.661 Y75.195 E0.0275
G1 X76.497 Y75.412 E0.03935
G1 X76.22 Y75.781 E0.02102
G1 X75.87 Y76.147 E0.02309
G1 X75.408 Y76.523 E0.02711
G1 E-2 F2400
G1 Z0.55 F27000
G1 X70.11 Y68.897
G1 Z0.25
G1 E2.5 F1800
G1 X70.521 Y69.133 E0.02162
G1 X70.82 Y69.203 E0.01396
G1 X71.102 Y69.203 E0.01285
G1 X71.385 Y69.135 E0.01326
G1 X71.655 Y68.998 E0.0138
G1 X71.963 Y68.724 E0.01882
G1 X72.221 Y68.288 E0.02308
G1 X72.312 Y67.919 E0.01732
G1 X72.322 Y67.618 E0.01371
G1 X72.26 Y67.257 E0.01666
G1 X72.169 Y66.993 E0.01275
G1 X72.005 Y66.666 E0.01667
G1 X71.824 Y66.389 E0.01509
G1 X71.426 Y65.932 E0.02759
G1 X70.961 Y65.533 E0.02792
G1 X70.483 Y65.259 E0.0251
G1 X70.075 Y65.121 E0.01964
G1 X69.765 Y65.063 E0.01435
G1 X69.223 Y65.052 E0.02469
G1 X68.682 Y65.149 E0.02505
G1 X68.967 Y64.429 E0.03529
G1 X68.993 Y64.127 E0.0138
G1 X68.946 Y63.842 E0.01318
G1 X68.828 Y63.581 E0.01304
G1 X68.659 Y63.36 E0.01266
G1 X68.236 Y63 E0.02531
G1 X67.668 Y62.42 E0.03697
G1 X67.121 Y61.939 E0.0332
G1 X66.721 Y61.664 E0.02211
G1 X66.198 Y61.415 E0.0264
G1 X65.611 Y61.299 E0.02725
G1 X65.721 Y60.95 E0.01667
G1 X65.777 Y60.542 E0.01875
G1 X65.72 Y60.137 E0.01866
G1 X65.603 Y59.818 E0.01546
G1 X65.434 Y59.535 E0.01501
G1 X65.216 Y59.288 E0.01501
G1 X64.959 Y59.088 E0.01484
G1 X64.657 Y58.929 E0.01557
G1 X64.381 Y58.857 E0.01299
G1 X63.981 Y58.816 E0.01833
G1 X63.757 Y58.853 E0.01032
G1 X63.723 Y58.389 E0.0212
G1 X63.498 Y58.023 E0.01958
G1 X63.195 Y57.728 E0.01926
G1 X62.734 Y57.582 E0.02204
G1 X62.214 Y57.647 E0.02386
G1 X62.273 Y57.07 E0.0264
G1 X62.136 Y56.647 E0.02026
G1 X61.942 Y56.39 E0.01469
G1 X61.723 Y56.199 E0.01324
G1 X61.531 Y56.098 E0.00988
G1 X61.593 Y55.775 E0.01496
G1 X61.994 Y55.732 E0.01839
G1 X62.266 Y55.619 E0.01343
G1 X62.503 Y55.441 E0.01351
G1 X62.741 Y55.148 E0.01719
G1 X62.91 Y54.769 E0.0189
G1 X62.969 Y54.272 E0.02279
G1 X62.85 Y53.83 E0.02088
G1 X62.555 Y53.425 E0.02284
G1 X62.145 Y53.116 E0.0234
G1 X61.642 Y52.873 E0.02543
G1 X61.238 Y52.762 E0.01909
G1 X60.753 Y52.743 E0.02214
G1 X60.46 Y52.787 E0.01347
G1 X60.051 Y52.901 E0.01939
G1 X58.903 Y53.379 E0.05665
G1 X57.455 Y54.059 E0.07288
G1 X57.236 Y53.793 E0.0157
G1 X57.565 Y53.345 E0.02531
G1 X57.731 Y52.875 E0.02272
G1 X57.716 Y52.391 E0.02209
G1 X57.486 Y51.933 E0.02332
G1 X56.931 Y51.415 E0.03461
G1 X56.564 Y51.05 E0.02357
G1 X56.702 Y50.766 E0.01442
G1 X57.108 Y50.815 E0.01862
G1 X57.853 Y50.94 E0.03442
G1 X58.428 Y51.066 E0.02682
G1 X59.006 Y51.217 E0.02723
G1 X59.549 Y51.383 E0.02586
G1 X60.133 Y51.589 E0.02823
G1 X60.71 Y51.821 E0.02832
G1 X61.255 Y52.069 E0.02726
G1 X61.856 Y52.376 E0.03076
G1 X62.352 Y52.658 E0.02603
G1 X63.303 Y53.276 E0.05167
G1 X63.731 Y53.591 E0.02418
G1 X64.263 Y54.021 E0.03118
G1 X65.056 Y54.746 E0.04898
G1 X65.718 Y55.446 E0.04385
G1 X81.206 Y72.945 E1.06477
G1 X81.361 Y73.159 E0.01203
G1 X81.412 Y73.26 E0.00515
G1 X81.452 Y73.383 E0.00592
G1 X81.473 Y73.498 E0.00532
G1 X81.475 Y73.62 E0.00557
G1 X81.463 Y73.725 E0.0048
G1 X81.413 Y73.894 E0.00803
G1 X81.34 Y74.044 E0.00759
G1 X81.26 Y74.161 E0.00648
G1 X81.139 Y74.298 E0.00831
G1 X79.613 Y75.827 E0.09842
G1 X79.557 Y75.017 E0.03697
G1 X79.475 Y74.591 E0.01979
G1 X79.379 Y74.293 E0.01425
G1 X79.256 Y74.01 E0.01408
G1 X79.083 Y73.705 E0.01598
G1 X78.892 Y73.437 E0.01498
G1 X78.561 Y73.069 E0.02254
G1 X78.215 Y72.765 E0.02101
G1 X77.972 Y72.594 E0.01354
G1 X77.715 Y72.446 E0.01348
G1 X77.333 Y72.29 E0.01884
G1 X76.932 Y72.2 E0.01872
G1 X76.511 Y72.182 E0.0192
G1 X75.997 Y72.272 E0.02374
G1 X75.555 Y72.461 E0.02193
G1 X75.344 Y72.662 E0.01326
G1 X75.146 Y72.985 E0.01729
G1 X75.065 Y73.309 E0.01521
G1 X75.078 Y73.698 E0.01773
G1 X75.209 Y74.101 E0.01931
G1 X75.503 Y74.509 E0.02292
G1 X75.862 Y74.765 E0.02007
G1 X76.342 Y74.89 E0.02262
G1 X76.577 Y74.863 E0.01077
G1 X76.698 Y74.953 E0.00687
G1 X76.787 Y75.048 E0.00593
G1 X76.847 Y75.139 E0.00497
G1 X76.909 Y75.296 E0.0077
G1 X76.925 Y75.399 E0.00476
G1 X76.906 Y75.511 E0.00518
G1 X76.809 Y75.751 E0.01178
G1 X76.745 Y75.858 E0.0057
G1 X76.576 Y76.083 E0.01281
G1 X76.187 Y76.491 E0.02568
G1 X75.846 Y76.768 E0.02002
G1 X75.736 Y76.839 E0.00595
