; generated by SuperSlicer 2.3.57 on 2022-04-06 at 11:10:42 UTC


;
;

;
;
; 

; external perimeters extrusion width = 0.40mm
; perimeters extrusion width = 0.45mm
; infill extrusion width = 0.72mm
; solid infill extrusion width = 0.56mm
; top infill extrusion width = 0.40mm
; first layer extrusion width = 0.50mm

; object:{"name":"Voron_Design_Cube_v7","id":"Voron_Design_Cube_v7.stl id:0 copy 0","object_center":[57.309550,56.937866,0.000000],"boundingbox_center":[57.309550,56.937866,15.000000],"boundingbox_size":[30.000000,30.000000,30.000000]}
; plater:{"center":[57.309550,56.937866,0.000000],"boundingbox_center":[57.309550,56.937866,15.000000],"boundingbox_size":[30.000000,30.000000,30.000000]}

M73 P0 R67
;TYPE:Custom
; custom gcode: start_gcode
PRINT_START BED=50 HOTEND=200 CHAMBER=0
; custom gcode end: start_gcode
G21 ; set units to millimeters
G90 ; use absolute coordinates
M83 ; use relative distances for extrusion
; custom gcode: start_filament_gcode
; Filament gcode
; custom gcode end: start_filament_gcode
M104 S200 ; set temperature
M109 S200 ; set temperature and wait for it to be reached
M190 S50 ; set bed temperature and wait for it to be reached
;LAYER_CHANGE
;Z:0.28125
;HEIGHT:0.28125
G1 E-1 F1800
G1 Z0.28125 F18000
G1 Z0.48125
G1 X40.13 Y40.122
G1 Z0.28125
G1 E1 F1800
; custom gcode: feature_gcode
; External perimeter
;Skirt
SET_VELOCITY_LIMIT ACCEL=5000 ACCEL_TO_DECEL=2500 SQUARE_CORNER_VELOCITY=8

; Support material
; custom gcode end: feature_gcode

;TYPE:Skirt
;WIDTH:0.5
G1 X37.279 Y42.974 E0.2073
G1 X36.635 Y43.772 E0.05275
G1 X36.11 Y44.661 E0.05308
G1 X35.574 Y46.124 E0.08004
G1 X35.371 Y47.667 E0.08004
G1 X35.37 Y66.143 E0.94981
G1 X35.435 Y67.022 E0.04532
G1 X35.609 Y67.887 E0.04532
G1 X35.879 Y68.698 E0.04397
G1 X36.247 Y69.477 E0.0443
G1 X36.704 Y70.201 E0.04397
G1 X37.244 Y70.864 E0.04397
G1 X43.345 Y76.968 E0.44372
G1 X44.144 Y77.612 E0.05275
G1 X45.033 Y78.138 E0.05308
G1 X46.495 Y78.673 E0.08004
G1 X48.039 Y78.877 E0.08004
G1 X66.515 Y78.878 E0.94981
G1 X67.394 Y78.812 E0.04532
G1 X68.258 Y78.639 E0.04532
G1 X69.076 Y78.366 E0.0443
G1 X69.849 Y78 E0.04397
G1 X70.572 Y77.544 E0.04397
G1 X71.235 Y77.004 E0.04397
G1 X77.34 Y70.902 E0.44372
G1 X77.984 Y70.103 E0.05275
G1 X78.509 Y69.214 E0.05308
G1 X79.051 Y67.727 E0.08139
G1 X79.249 Y66.156 E0.08139
G1 X79.249 Y47.68 E0.94981
G1 X79.135 Y46.548 E0.05848
G1 X78.845 Y45.455 E0.05814
G1 X78.261 Y44.204 E0.07095
G1 X77.446 Y43.09 E0.07095
G1 X71.003 Y36.667 E0.4677
G1 X69.992 Y35.956 E0.06354
G1 X68.867 Y35.429 E0.06388
G1 X67.667 Y35.106 E0.06388
G1 X66.435 Y34.997 E0.06354
G1 X48.071 Y34.998 E0.94406
G1 X47.036 Y35.092 E0.05342
G1 X46.032 Y35.333 E0.05308
G1 X44.587 Y35.98 E0.08139
G1 X43.326 Y36.926 E0.08105
G1 X40.153 Y40.099 E0.23071
G1 X40.464 Y40.41 F18000
G1 F1800
G1 X37.611 Y43.262 E0.20735
G1 X37.009 Y44.004 E0.04912
G1 X36.517 Y44.831 E0.04945
G1 X36.005 Y46.215 E0.07588
G1 X35.811 Y47.678 E0.07588
G1 X35.809 Y66.13 E0.94855
G1 X35.869 Y66.95 E0.04225
G1 X36.029 Y67.756 E0.04225
G1 X36.628 Y69.256 E0.08304
M73 P0 R66
G1 X37.566 Y70.564 E0.08272
G1 X43.634 Y76.636 E0.44131
G1 X44.376 Y77.238 E0.04912
G1 X45.202 Y77.73 E0.04945
G1 X46.587 Y78.242 E0.07588
G1 X48.05 Y78.437 E0.07588
G1 X66.502 Y78.438 E0.94855
G1 X67.321 Y78.378 E0.04225
G1 X68.128 Y78.218 E0.04225
G1 X69.628 Y77.62 E0.08304
G1 X70.936 Y76.682 E0.08272
G1 X77.008 Y70.613 E0.44131
G1 X77.61 Y69.871 E0.04912
G1 X78.102 Y69.045 E0.04945
G1 X78.619 Y67.642 E0.07686
G1 X78.809 Y66.153 E0.07719
G1 X78.809 Y47.701 E0.94855
G1 X78.707 Y46.649 E0.05435
G1 X78.441 Y45.632 E0.05402
G1 X77.891 Y44.442 E0.06741
G1 X77.113 Y43.378 E0.06773
G1 X70.738 Y37.019 E0.46291
G1 X69.787 Y36.346 E0.0599
G1 X68.727 Y35.846 E0.06023
G1 X67.596 Y35.54 E0.06023
G1 X66.435 Y35.437 E0.0599
G1 X48.092 Y35.438 E0.94298
G1 X47.134 Y35.522 E0.04945
G1 X46.198 Y35.742 E0.04945
G1 X44.83 Y36.347 E0.07686
G1 X43.632 Y37.242 E0.07686
G1 X40.486 Y40.388 E0.22871
G1 X40.797 Y40.698 F18000
G1 F1800
G1 X37.943 Y43.552 E0.2075
G1 X37.382 Y44.239 E0.04557
G1 X36.925 Y44.999 E0.04557
G1 X36.436 Y46.306 E0.07175
G1 X36.25 Y47.689 E0.07175
G1 X36.249 Y66.118 E0.94738
G1 X36.451 Y67.629 E0.07836
G1 X37.011 Y69.04 E0.07804
G1 X37.892 Y70.269 E0.07773
G1 X43.924 Y76.305 E0.4387
G1 X44.611 Y76.865 E0.04557
G1 X45.37 Y77.323 E0.04557
G1 X46.678 Y77.812 E0.07175
G1 X48.061 Y77.997 E0.07175
G1 X66.49 Y77.998 E0.94737
G1 X68 Y77.797 E0.07836
G1 X69.406 Y77.24 E0.07773
G1 X70.64 Y76.356 E0.07804
G1 X76.676 Y70.323 E0.4387
G1 X77.237 Y69.637 E0.04557
G1 X77.694 Y68.877 E0.04557
G1 X78.188 Y67.552 E0.07269
G1 X78.369 Y66.15 E0.07269
G1 X78.369 Y47.715 E0.94769
G1 X78.277 Y46.747 E0.04999
G1 X78.037 Y45.81 E0.04968
G1 X77.517 Y44.675 E0.06419
G1 X76.781 Y43.666 E0.06419
G1 X70.475 Y37.373 E0.458
G1 X69.584 Y36.737 E0.05631
G1 X68.589 Y36.264 E0.05662
G1 X67.526 Y35.975 E0.05662
G1 X66.435 Y35.877 E0.05631
G1 X48.105 Y35.878 E0.94231
G1 X47.222 Y35.953 E0.04557
G1 X46.352 Y36.155 E0.04589
G1 X45.063 Y36.721 E0.07238
G1 X43.934 Y37.562 E0.07238
G1 X40.82 Y40.676 E0.22639
; INIT printing object Voron_Design_Cube_v7.stl id:0 copy 0
;WIPE_START
G1 F14400
G1 X37.943 Y43.552 E-0.48313
G1 X37.382 Y44.239 E-0.10527
G1 X36.925 Y44.999 E-0.10527
G1 X36.436 Y46.306 E-0.16574
G1 X36.334 Y47.062 E-0.09059
;WIPE_END
G1 E-0.05 F1800
G1 Z0.48125 F18000
; printing object Voron_Design_Cube_v7.stl id:0 copy 0
G1 X50.621 Y50.361
G1 Z0.28125
G1 E1 F1800
; custom gcode: feature_gcode
; External perimeter
;Perimeter
SET_VELOCITY_LIMIT ACCEL=400 ACCEL_TO_DECEL=200 SQUARE_CORNER_VELOCITY=8

; Overhang perimeter
; custom gcode end: feature_gcode

;TYPE:Internal perimeter
G1 X49.977 Y51.088 E0.04993
G1 X49.411 Y51.878 E0.04993
G1 X48.932 Y52.718 E0.04973
G1 X48.598 Y53.467 E0.04212
G1 X48.376 Y54.08 E0.03356
G1 X48.13 Y55.008 E0.04935
G1 X47.979 Y55.968 E0.04993
G1 X47.929 Y56.938 E0.04993
G1 X47.979 Y57.908 E0.04993
G1 X48.13 Y58.868 E0.04993
G1 X48.378 Y59.806 E0.04993
G1 X48.723 Y60.715 E0.04993
G1 X49.16 Y61.582 E0.04993
G1 X49.684 Y62.4 E0.04993
G1 X50.282 Y63.15 E0.04933
G1 X50.733 Y63.623 E0.03358
G1 X51.34 Y64.174 E0.04214
G1 X52.117 Y64.75 E0.04971
G1 X52.953 Y65.245 E0.04993
G1 X53.835 Y65.651 E0.04993
G1 X54.755 Y65.964 E0.04993
G1 X55.702 Y66.179 E0.04993
G1 X56.666 Y66.296 E0.04993
G1 X57.637 Y66.312 E0.04993
G1 X58.605 Y66.228 E0.04993
G1 X59.559 Y66.045 E0.04993
G1 X60.476 Y65.767 E0.04927
G1 X61.083 Y65.524 E0.03363
G1 X61.82 Y65.162 E0.04221
G1 X62.642 Y64.655 E0.04966
G1 X63.412 Y64.062 E0.04993
G1 X64.116 Y63.393 E0.04993
G1 X64.747 Y62.654 E0.04993
G1 X65.298 Y61.854 E0.04993
G1 X65.763 Y61.002 E0.04993
G1 X66.138 Y60.106 E0.04993
G1 X66.419 Y59.176 E0.04993
G1 X66.601 Y58.222 E0.04993
G1 X66.683 Y57.268 E0.0492
G1 X66.683 Y56.607 E0.03399
G1 X66.601 Y55.654 E0.0492
G1 X66.419 Y54.7 E0.04993
G1 X66.14 Y53.775 E0.04963
G1 X65.828 Y53.015 E0.04225
G1 X65.534 Y52.43 E0.03366
G1 X65.033 Y51.614 E0.04923
G1 X64.441 Y50.844 E0.04993
G1 X63.772 Y50.139 E0.04993
G1 X63.035 Y49.508 E0.04993
G1 X62.236 Y48.955 E0.04993
G1 X61.388 Y48.491 E0.04967
G1 X60.633 Y48.168 E0.04221
G1 X60.014 Y47.957 E0.03363
G1 X59.084 Y47.727 E0.04927
G1 X58.122 Y47.593 E0.04993
G1 X57.151 Y47.559 E0.04993
G1 X56.182 Y47.626 E0.04993
G1 X55.225 Y47.792 E0.04993
G1 X54.295 Y48.055 E0.0497
G1 X53.532 Y48.355 E0.04216
G1 X52.942 Y48.637 E0.0336
G1 X52.117 Y49.126 E0.04931
G1 X51.337 Y49.705 E0.04993
G1 X50.644 Y50.339 E0.04829
G1 X50.942 Y50.664 F18000
G1 F1800
G1 X50.321 Y51.363 E0.04806
G1 X49.782 Y52.115 E0.04759
G1 X49.325 Y52.917 E0.04744
G1 X49.006 Y53.631 E0.0402
G1 X48.796 Y54.212 E0.03175
G1 X48.561 Y55.099 E0.04717
G1 X48.417 Y56.013 E0.04759
G1 X48.369 Y56.938 E0.04759
G1 X48.417 Y57.862 E0.04759
G1 X48.561 Y58.777 E0.04759
G1 X48.798 Y59.672 E0.04759
G1 X49.126 Y60.537 E0.04759
G1 X49.542 Y61.364 E0.04759
G1 X50.041 Y62.144 E0.04759
G1 X50.614 Y62.861 E0.04716
G1 X51.04 Y63.308 E0.03176
G1 X51.62 Y63.833 E0.04022
G1 X52.361 Y64.383 E0.04743
G1 X53.157 Y64.855 E0.04759
G1 X53.998 Y65.242 E0.04759
G1 X54.874 Y65.54 E0.04759
G1 X55.777 Y65.746 E0.04759
G1 X56.696 Y65.857 E0.04759
G1 X57.622 Y65.872 E0.04759
G1 X58.544 Y65.792 E0.04759
G1 X59.453 Y65.617 E0.04759
G1 X60.33 Y65.352 E0.04711
G1 X60.904 Y65.122 E0.0318
G1 X61.607 Y64.777 E0.04026
G1 X62.392 Y64.293 E0.0474
G1 X63.125 Y63.727 E0.04759
G1 X63.796 Y63.09 E0.04759
G1 X64.398 Y62.386 E0.04759
G1 X64.923 Y61.624 E0.04759
G1 X65.367 Y60.811 E0.04759
G1 X65.724 Y59.957 E0.04759
G1 X65.991 Y59.071 E0.04759
G1 X66.165 Y58.162 E0.04759
G1 X66.243 Y57.25 E0.04706
G1 X66.243 Y56.626 E0.03206
G1 X66.165 Y55.714 E0.04706
G1 X65.991 Y54.805 E0.04759
G1 X65.725 Y53.922 E0.04737
G1 X65.428 Y53.197 E0.04029
G1 X65.15 Y52.644 E0.03182
G1 X64.67 Y51.864 E0.04708
G1 X64.106 Y51.13 E0.04759
G1 X63.469 Y50.458 E0.04759
G1 X62.766 Y49.856 E0.04759
G1 X62.004 Y49.33 E0.04759
G1 X61.196 Y48.887 E0.0474
G1 X60.476 Y48.579 E0.04026
G1 X59.89 Y48.379 E0.0318
G1 X59.001 Y48.159 E0.04711
G1 X58.084 Y48.031 E0.04759
G1 X57.159 Y47.999 E0.04759
G1 X56.235 Y48.063 E0.04759
G1 X55.323 Y48.221 E0.04759
G1 X54.436 Y48.472 E0.04742
G1 X53.707 Y48.758 E0.04023
G1 X53.15 Y49.025 E0.03177
G1 X52.361 Y49.492 E0.04714
G1 X51.617 Y50.044 E0.04759
G1 X50.965 Y50.642 E0.04547
G1 X51.262 Y50.966 F18000
G1 F1800
G1 X51.249 Y50.978 E0.00095
G1 X50.665 Y51.637 E0.04525
G1 X50.152 Y52.353 E0.04525
G1 X49.717 Y53.116 E0.04516
G1 X49.414 Y53.796 E0.03828
G1 X49.216 Y54.343 E0.02993
G1 X48.991 Y55.189 E0.04499
G1 X48.855 Y56.059 E0.04525
G1 X48.81 Y56.938 E0.04525
G1 X48.855 Y57.817 E0.04525
G1 X48.991 Y58.686 E0.04525
G1 X49.217 Y59.537 E0.04525
G1 X49.529 Y60.36 E0.04525
G1 X49.925 Y61.146 E0.04525
G1 X50.399 Y61.887 E0.04525
G1 X50.945 Y62.571 E0.04498
G1 X51.347 Y62.993 E0.02994
G1 X51.899 Y63.493 E0.03829
G1 X52.604 Y64.017 E0.04515
G1 X53.361 Y64.465 E0.04525
G1 X54.161 Y64.833 E0.04525
G1 X54.994 Y65.116 E0.04525
G1 X55.853 Y65.312 E0.04525
G1 X56.726 Y65.418 E0.04525
G1 X57.606 Y65.433 E0.04525
G1 X58.483 Y65.356 E0.04525
G1 X59.347 Y65.19 E0.04525
G1 X60.184 Y64.936 E0.04495
G1 X60.725 Y64.72 E0.02997
G1 X61.395 Y64.391 E0.03832
G1 X62.142 Y63.93 E0.04513
G1 X62.839 Y63.393 E0.04525
G1 X63.477 Y62.787 E0.04525
G1 X64.049 Y62.118 E0.04525
G1 X64.548 Y61.393 E0.04524
G1 X64.97 Y60.621 E0.04524
G1 X65.31 Y59.809 E0.04524
G1 X65.564 Y58.966 E0.04524
G1 X65.729 Y58.102 E0.04524
G1 X65.804 Y57.231 E0.04492
G1 X65.804 Y56.645 E0.03012
G1 X65.729 Y55.774 E0.04492
G1 X65.564 Y54.91 E0.04524
G1 X65.31 Y54.07 E0.04511
G1 X65.028 Y53.379 E0.03834
G1 X64.766 Y52.858 E0.02998
G1 X64.308 Y52.114 E0.04493
G1 X63.771 Y51.416 E0.04524
G1 X63.166 Y50.778 E0.04525
G1 X62.497 Y50.205 E0.04525
G1 X61.773 Y49.705 E0.04525
G1 X61.003 Y49.283 E0.04513
G1 X60.318 Y48.99 E0.03832
G1 X59.766 Y48.801 E0.02996
G1 X58.917 Y48.592 E0.04495
G1 X58.046 Y48.47 E0.04525
G1 X57.166 Y48.439 E0.04525
G1 X56.288 Y48.5 E0.04525
G1 X55.421 Y48.65 E0.04525
G1 X54.576 Y48.89 E0.04514
G1 X53.882 Y49.162 E0.0383
G1 X53.357 Y49.413 E0.02995
G1 X52.604 Y49.859 E0.04497
G1 X51.897 Y50.384 E0.04525
G1 X51.286 Y50.944 E0.04266
G1 X51.583 Y51.268 F18000
; custom gcode: feature_gcode
; External perimeter
;ExternalPerimeter
SET_VELOCITY_LIMIT ACCEL=300 ACCEL_TO_DECEL=200 SQUARE_CORNER_VELOCITY=8

; Perimeter
; custom gcode end: feature_gcode

;TYPE:External perimeter
G1 F1500
G1 X51.563 Y51.287 E0.00142
G1 X51.009 Y51.912 E0.0429
G1 X50.523 Y52.59 E0.0429
G1 X50.11 Y53.315 E0.04287
G1 X49.822 Y53.961 E0.03636
G1 X49.635 Y54.475 E0.02812
G1 X49.422 Y55.28 E0.04281
G1 X49.293 Y56.104 E0.0429
G1 X49.25 Y56.938 E0.0429
G1 X49.293 Y57.771 E0.0429
G1 X49.422 Y58.596 E0.0429
G1 X49.636 Y59.403 E0.0429
G1 X49.932 Y60.183 E0.0429
G1 X50.307 Y60.928 E0.0429
G1 X50.757 Y61.631 E0.0429
G1 X51.277 Y62.282 E0.04281
G1 X51.654 Y62.678 E0.02812
G1 X52.178 Y63.153 E0.03637
G1 X52.848 Y63.65 E0.04287
G1 X53.566 Y64.075 E0.0429
G1 X54.324 Y64.424 E0.0429
G1 X55.114 Y64.693 E0.0429
G1 X55.928 Y64.878 E0.0429
G1 X56.757 Y64.978 E0.0429
G1 X57.591 Y64.993 E0.0429
G1 X58.422 Y64.92 E0.0429
G1 X59.242 Y64.762 E0.0429
G1 X60.039 Y64.521 E0.0428
G1 X60.547 Y64.318 E0.02813
G1 X61.182 Y64.006 E0.03638
G1 X61.891 Y63.568 E0.04286
G1 X62.552 Y63.059 E0.0429
G1 X63.157 Y62.484 E0.0429
G1 X63.699 Y61.849 E0.0429
G1 X64.173 Y61.162 E0.0429
G1 X64.573 Y60.43 E0.0429
G1 X64.895 Y59.66 E0.0429
G1 X65.136 Y58.861 E0.0429
G1 X65.293 Y58.041 E0.0429
G1 X65.364 Y57.212 E0.04278
G1 X65.364 Y56.664 E0.02819
G1 X65.293 Y55.834 E0.04278
G1 X65.136 Y55.015 E0.0429
G1 X64.895 Y54.217 E0.04285
G1 X64.627 Y53.562 E0.03638
G1 X64.381 Y53.073 E0.02814
G1 X63.945 Y52.364 E0.04279
G1 X63.437 Y51.702 E0.0429
G1 X62.862 Y51.097 E0.0429
G1 X62.229 Y50.554 E0.0429
G1 X61.542 Y50.079 E0.0429
G1 X60.811 Y49.679 E0.04286
G1 X60.16 Y49.4 E0.03638
G1 X59.642 Y49.223 E0.02813
G1 X58.834 Y49.024 E0.0428
G1 X58.008 Y48.909 E0.0429
G1 X57.174 Y48.879 E0.0429
G1 X56.341 Y48.937 E0.0429
G1 X55.519 Y49.08 E0.0429
G1 X54.716 Y49.307 E0.04287
G1 X54.058 Y49.565 E0.03637
G1 X53.564 Y49.801 E0.02813
G1 X52.848 Y50.226 E0.0428
G1 X52.178 Y50.723 E0.0429
G1 X51.607 Y51.247 E0.03984
;WIPE_START
G1 X51.557 Y51.26 F18000
;WIPE_END
;WIPE_START
G1 F14400
G1 X50.852 Y51.787 E-0.10441
G1 X50.354 Y52.482 E-0.10157
G1 X49.932 Y53.224 E-0.10143
G1 X49.637 Y53.886 E-0.08601
G1 X49.444 Y54.415 E-0.06686
G1 X49.226 Y55.239 E-0.10118
G1 X49.094 Y56.084 E-0.10157
G1 X49.05 Y56.938 E-0.10157
G1 X49.094 Y57.792 E-0.10157
G1 X49.203 Y58.489 E-0.08382
;WIPE_END
G1 E-0.05 F1800
G1 Z0.48125 F18000
G1 X44.038 Y65.407
G1 Z0.28125
G1 E1 F1800
; custom gcode: feature_gcode
; External perimeter
;Perimeter
SET_VELOCITY_LIMIT ACCEL=400 ACCEL_TO_DECEL=200 SQUARE_CORNER_VELOCITY=8

; Overhang perimeter
; custom gcode end: feature_gcode

;TYPE:Internal perimeter
G1 X44.038 Y48.468 E0.87079
G1 X48.84 Y43.666 E0.34913
G1 X65.779 Y43.666 E0.87079
G1 X70.581 Y48.468 E0.34913
G1 X70.581 Y65.407 E0.87079
G1 X65.779 Y70.21 E0.34913
G1 X48.84 Y70.21 E0.87079
G1 X44.06 Y65.43 E0.34749
;WIPE_START
G1 F14400
G1 X44.05 Y57.43 E-0.95
;WIPE_END
G1 E-0.05 F1800
G1 Z0.48125 F18000
G1 X65.961 Y43.227
G1 Z0.28125
G1 E1 F1800
G1 X71.021 Y48.286 E0.36785
G1 X71.021 Y65.589 E0.88951
G1 X65.961 Y70.649 E0.36785
G1 X48.658 Y70.649 E0.88951
G1 X43.598 Y65.589 E0.36785
G1 X43.598 Y48.286 E0.88951
G1 X48.658 Y43.227 E0.36785
G1 X65.929 Y43.227 E0.88786
;WIPE_START
M73 P1 R66
G1 F14400
G1 X71.021 Y48.286 E-0.85242
G1 X71.021 Y49.108 E-0.09758
;WIPE_END
G1 E-0.05 F1800
G1 Z0.48125 F18000
G1 X43.159 Y65.772
G1 Z0.28125
G1 E1 F1800
G1 X43.159 Y48.104 E0.90823
G1 X48.476 Y42.787 E0.38658
G1 X66.143 Y42.787 E0.90823
G1 X66.252 Y42.896 E0.0079
G1 X71.461 Y48.104 E0.37867
G1 X71.461 Y65.772 E0.90823
G1 X66.143 Y71.089 E0.38658
G1 X48.476 Y71.089 E0.90823
G1 X43.181 Y65.794 E0.38493
;WIPE_START
G1 F14400
G1 X43.171 Y57.794 E-0.95
;WIPE_END
G1 E-0.05 F1800
G1 Z0.48125 F18000
G1 X66.325 Y42.347
G1 Z0.28125
G1 E1 F1800
; custom gcode: feature_gcode
; External perimeter
;ExternalPerimeter
SET_VELOCITY_LIMIT ACCEL=300 ACCEL_TO_DECEL=200 SQUARE_CORNER_VELOCITY=8

; Perimeter
; custom gcode end: feature_gcode

;TYPE:External perimeter
G1 F1500
G1 X66.563 Y42.585 E0.01727
G1 X71.9 Y47.922 E0.38804
G1 X71.9 Y65.954 E0.92696
G1 X66.325 Y71.528 E0.4053
G1 X48.294 Y71.528 E0.92696
G1 X42.719 Y65.954 E0.4053
G1 X42.719 Y47.922 E0.92696
G1 X48.294 Y42.347 E0.4053
G1 X66.293 Y42.347 E0.92531
;WIPE_START
G1 X66.325 Y42.683 F18000
;WIPE_END
G1 X70.515 Y48.776
; custom gcode: feature_gcode
; External perimeter
;SolidInfill
SET_VELOCITY_LIMIT ACCEL=3800 ACCEL_TO_DECEL=2000 SQUARE_CORNER_VELOCITY=8

; Bridge infill
; custom gcode end: feature_gcode

;TYPE:Solid infill
;WIDTH:0.486761
G1 F3000
G1 X65.661 Y43.921 E0.34358
G1 X65.039 Y43.921 E0.03112
G1 X70.326 Y49.208 E0.37421
G1 X70.326 Y49.83 E0.03112
G1 X64.417 Y43.921 E0.41821
G1 X63.796 Y43.921 E0.03112
G1 X70.326 Y50.452 E0.46222
G1 X70.326 Y51.074 E0.03112
G1 X63.174 Y43.921 E0.50622
G1 X62.552 Y43.921 E0.03112
G1 X70.326 Y51.695 E0.55023
G1 X70.326 Y52.317 E0.03112
