; generated by SuperSlicer 2.3.57 on 2022-04-03 at 14:12:41 UTC


;
;

;
;
; 

; external perimeters extrusion width = 0.40mm
; perimeters extrusion width = 0.45mm
; infill extrusion width = 0.72mm
; solid infill extrusion width = 0.56mm
; top infill extrusion width = 0.40mm
; first layer extrusion width = 0.50mm

; object:{"name":"Voron_Design_Cube_v7","id":"Voron_Design_Cube_v7.stl id:0 copy 0","object_center":[60.155341,59.633155,0.000000],"boundingbox_center":[60.155341,59.633155,15.000000],"boundingbox_size":[30.000000,30.000000,30.000000]}
; plater:{"center":[60.155341,59.633155,0.000000],"boundingbox_center":[60.155341,59.633155,15.000000],"boundingbox_size":[30.000000,30.000000,30.000000]}

M73 P0 R59
;TYPE:Custom
; custom gcode: start_gcode
PRINT_START BED=50 HOTEND=200 CHAMBER=0
; custom gcode end: start_gcode
G21 ; set units to millimeters
G90 ; use absolute coordinates
M83 ; use relative distances for extrusion
; custom gcode: start_filament_gcode
; Filament gcode
; custom gcode end: start_filament_gcode
M104 S200 ; set temperature
M109 S200 ; set temperature and wait for it to be reached
M190 S50 ; set bed temperature and wait for it to be reached
;LAYER_CHANGE
;Z:0.25
;HEIGHT:0.25
G1 E-1 F1800
G1 Z0.25 F27000
G1 Z0.55
G1 X44.204 Y44.225
G1 Z0.25
G1 E1 F1800
; custom gcode: feature_gcode
; External perimeter
;Skirt
SET_VELOCITY_LIMIT ACCEL=5000 ACCEL_TO_DECEL=2500 SQUARE_CORNER_VELOCITY=8

; Support material
; custom gcode end: feature_gcode

;TYPE:Skirt
;WIDTH:0.45
G1 X41.598 Y46.83 E0.1518
G1 X41.167 Y47.346 E0.02772
G1 X40.807 Y47.921 E0.02794
G1 X40.376 Y49.018 E0.04854
G1 X40.215 Y50.18 E0.04832
G1 X40.215 Y69.022 E0.77622
G1 X40.359 Y70.18 E0.04809
G1 X40.807 Y71.347 E0.05148
G1 X41.531 Y72.365 E0.05148
G1 X47.352 Y78.19 E0.33924
G1 X47.868 Y78.621 E0.02772
G1 X48.443 Y78.982 E0.02794
G1 X49.54 Y79.412 E0.04854
G1 X50.702 Y79.573 E0.04832
G1 X69.544 Y79.574 E0.77622
G1 X70.702 Y79.429 E0.04809
G1 X71.869 Y78.981 E0.05148
G1 X72.887 Y78.257 E0.05148
G1 X78.712 Y72.437 E0.33924
G1 X79.144 Y71.92 E0.02772
G1 X79.504 Y71.346 E0.02794
G1 X79.937 Y70.238 E0.04899
G1 X80.096 Y69.065 E0.04877
G1 X80.096 Y50.223 E0.77622
G1 X80.034 Y49.492 E0.03021
G1 X79.865 Y48.778 E0.03021
G1 X79.439 Y47.804 E0.0438
G1 X78.813 Y46.938 E0.04402
G1 X72.8 Y40.931 E0.35014
G1 X72.079 Y40.404 E0.03678
G1 X71.27 Y40.013 E0.03701
G1 X70.41 Y39.774 E0.03678
G1 X69.515 Y39.692 E0.03701
G1 X50.756 Y39.692 E0.77281
M73 P0 R58
G1 X50.085 Y39.744 E0.02772
G1 X49.427 Y39.885 E0.02772
G1 X48.345 Y40.338 E0.04832
G1 X47.399 Y41.031 E0.04832
G1 X44.204 Y44.225 E0.18608
G1 X44.484 Y44.505 F27000
G1 F1800
G1 X41.892 Y47.096 E0.151
G1 X41.166 Y48.089 E0.05068
G1 X40.763 Y49.106 E0.04505
G1 X40.612 Y50.189 E0.04505
G1 X40.611 Y69.016 E0.77561
G1 X40.741 Y70.075 E0.04397
G1 X41.155 Y71.156 E0.04765
G1 X41.825 Y72.099 E0.04765
G1 X47.618 Y77.897 E0.33766
G1 X48.611 Y78.622 E0.05068
G1 X49.628 Y79.025 E0.04505
G1 X50.711 Y79.177 E0.04505
G1 X69.538 Y79.178 E0.77561
G1 X70.598 Y79.047 E0.04397
G1 X71.678 Y78.634 E0.04765
G1 X72.621 Y77.964 E0.04765
G1 X78.419 Y72.17 E0.33766
G1 X79.145 Y71.177 E0.05068
G1 X79.549 Y70.155 E0.04527
G1 X79.699 Y69.062 E0.04548
G1 X79.7 Y50.234 E0.77561
G1 X79.645 Y49.57 E0.02746
G1 X79.494 Y48.92 E0.02746
G1 X79.097 Y48.004 E0.04115
G1 X78.515 Y47.199 E0.04093
G1 X72.556 Y41.244 E0.34703
G1 X71.888 Y40.752 E0.0342
G1 X71.141 Y40.388 E0.0342
G1 X70.342 Y40.165 E0.0342
G1 X69.515 Y40.089 E0.0342
G1 X50.762 Y40.089 E0.77255
G1 X49.554 Y40.261 E0.05024
G1 X48.545 Y40.681 E0.04505
G1 X47.666 Y41.324 E0.04483
G1 X44.484 Y44.505 E0.18535
G1 X44.764 Y44.785 F27000
G1 F1800
G1 X42.186 Y47.362 E0.15019
G1 X41.524 Y48.26 E0.04595
G1 X41.147 Y49.203 E0.04181
G1 X41.008 Y50.203 E0.04161
G1 X41.007 Y69.015 E0.77496
G1 X41.125 Y69.977 E0.03995
G1 X41.506 Y70.972 E0.04388
G1 X42.121 Y71.836 E0.04367
G1 X47.884 Y77.603 E0.33588
G1 X48.782 Y78.264 E0.04595
G1 X49.725 Y78.641 E0.04181
G1 X50.725 Y78.781 E0.04161
G1 X69.537 Y78.781 E0.77496
G1 X70.499 Y78.663 E0.03995
G1 X71.494 Y78.283 E0.04388
G1 X72.358 Y77.667 E0.04367
G1 X78.125 Y71.904 E0.33588
G1 X78.786 Y71.006 E0.04595
G1 X79.163 Y70.064 E0.04181
G1 X79.303 Y69.053 E0.04202
G1 X79.303 Y50.242 E0.77496
G1 X79.123 Y49.06 E0.04925
G1 X78.756 Y48.206 E0.03829
G1 X78.214 Y47.457 E0.03808
G1 X72.304 Y41.55 E0.34422
G1 X71.69 Y41.096 E0.03144
G1 X71.01 Y40.762 E0.03124
G1 X70.275 Y40.555 E0.03144
G1 X69.515 Y40.485 E0.03144
G1 X50.769 Y40.485 E0.77225
G1 X49.679 Y40.638 E0.04533
G1 X48.75 Y41.02 E0.0414
G1 X47.934 Y41.616 E0.04161
G1 X44.764 Y44.785 E0.18465
; INIT printing object Voron_Design_Cube_v7.stl id:0 copy 0
G1 E-1
G1 Z0.55 F27000
; printing object Voron_Design_Cube_v7.stl id:0 copy 0
G1 X53.438 Y53.035
G1 Z0.25
G1 E1 F1800
; custom gcode: feature_gcode
; External perimeter
;Perimeter
SET_VELOCITY_LIMIT ACCEL=800 ACCEL_TO_DECEL=400 SQUARE_CORNER_VELOCITY=8

; Overhang perimeter
; custom gcode end: feature_gcode

;TYPE:Internal perimeter
;WIDTH:0.5
G1 X52.792 Y53.764 E0.04521
G1 X52.225 Y54.557 E0.04521
G1 X51.745 Y55.399 E0.04496
G1 X51.423 Y56.119 E0.03659
G1 X51.187 Y56.765 E0.03191
G1 X50.94 Y57.697 E0.04476
G1 X50.79 Y58.66 E0.0452
G1 X50.739 Y59.633 E0.04521
G1 X50.79 Y60.606 E0.04521
G1 X50.94 Y61.569 E0.0452
G1 X51.19 Y62.511 E0.04521
G1 X51.535 Y63.422 E0.04521
G1 X51.973 Y64.293 E0.04521
G1 X52.498 Y65.113 E0.04521
G1 X53.099 Y65.867 E0.04473
G1 X53.575 Y66.364 E0.03192
G1 X54.16 Y66.894 E0.03661
G1 X54.938 Y67.472 E0.04495
G1 X55.776 Y67.969 E0.04521
G1 X56.661 Y68.377 E0.04521
G1 X57.583 Y68.691 E0.04521
G1 X58.533 Y68.908 E0.04521
G1 X59.5 Y69.026 E0.04521
G1 X60.474 Y69.044 E0.0452
G1 X61.445 Y68.96 E0.0452
G1 X62.402 Y68.777 E0.0452
G1 X63.324 Y68.499 E0.04467
G1 X63.964 Y68.242 E0.03198
G1 X64.674 Y67.894 E0.03668
G1 X65.498 Y67.387 E0.04489
G1 X66.27 Y66.793 E0.0452
G1 X66.977 Y66.123 E0.0452
G1 X67.612 Y65.383 E0.0452
G1 X68.166 Y64.582 E0.0452
G1 X68.634 Y63.727 E0.0452
G1 X69.012 Y62.829 E0.0452
G1 X69.295 Y61.897 E0.0452
G1 X69.48 Y60.94 E0.0452
G1 X69.564 Y59.982 E0.04461
G1 X69.564 Y59.284 E0.03239
G1 X69.48 Y58.326 E0.04461
G1 X69.295 Y57.37 E0.0452
G1 X69.014 Y56.444 E0.04486
G1 X68.714 Y55.712 E0.03671
G1 X68.405 Y55.095 E0.03201
G1 X67.899 Y54.277 E0.04463
G1 X67.304 Y53.505 E0.0452
G1 X66.633 Y52.799 E0.0452
G1 X65.892 Y52.166 E0.0452
G1 X65.089 Y51.613 E0.0452
G1 X64.24 Y51.15 E0.04489
G1 X63.513 Y50.838 E0.03667
G1 X62.861 Y50.615 E0.03198
G1 X61.926 Y50.385 E0.04468
G1 X60.961 Y50.252 E0.0452
G1 X59.987 Y50.219 E0.0452
G1 X59.015 Y50.286 E0.0452
G1 X58.055 Y50.454 E0.04521
G1 X57.124 Y50.719 E0.04493
G1 X56.388 Y51.006 E0.03663
G1 X55.767 Y51.303 E0.03194
G1 X54.938 Y51.795 E0.04472
G1 X54.156 Y52.376 E0.04521
G1 X53.438 Y53.035 E0.04521
G1 X53.757 Y53.348 F27000
G1 F1800
G1 X53.141 Y54.043 E0.04306
G1 X52.601 Y54.798 E0.04306
G1 X52.144 Y55.601 E0.04289
G1 X51.837 Y56.287 E0.03486
G1 X51.613 Y56.899 E0.03023
G1 X51.378 Y57.789 E0.04274
G1 X51.234 Y58.706 E0.04306
G1 X51.186 Y59.633 E0.04306
G1 X51.234 Y60.56 E0.04306
G1 X51.378 Y61.477 E0.04306
G1 X51.615 Y62.374 E0.04306
G1 X51.944 Y63.242 E0.04306
G1 X52.361 Y64.071 E0.04306
G1 X52.862 Y64.853 E0.04306
G1 X53.436 Y65.573 E0.04272
G1 X53.886 Y66.044 E0.03024
G1 X54.444 Y66.548 E0.03487
G1 X55.186 Y67.1 E0.04287
G1 X55.984 Y67.573 E0.04306
G1 X56.827 Y67.962 E0.04306
G1 X57.705 Y68.261 E0.04306
G1 X58.61 Y68.468 E0.04306
G1 X59.531 Y68.581 E0.04306
G1 X60.459 Y68.597 E0.04306
G1 X61.384 Y68.518 E0.04306
G1 X62.296 Y68.343 E0.04306
G1 X63.176 Y68.078 E0.04268
G1 X63.782 Y67.834 E0.03028
G1 X64.458 Y67.503 E0.03492
G1 X65.244 Y67.019 E0.04283
G1 X65.98 Y66.453 E0.04306
G1 X66.654 Y65.815 E0.04306
G1 X67.258 Y65.11 E0.04306
G1 X67.786 Y64.347 E0.04306
G1 X68.232 Y63.533 E0.04306
G1 X68.592 Y62.677 E0.04306
G1 X68.861 Y61.789 E0.04306
G1 X69.037 Y60.878 E0.04306
G1 X69.117 Y59.963 E0.04263
G1 X69.117 Y59.304 E0.03058
G1 X69.037 Y58.388 E0.04263
G1 X68.861 Y57.477 E0.04306
G1 X68.593 Y56.594 E0.04281
G1 X68.308 Y55.897 E0.03495
G1 X68.015 Y55.313 E0.0303
G1 X67.532 Y54.531 E0.04265
G1 X66.965 Y53.796 E0.04306
G1 X66.325 Y53.124 E0.04306
G1 X65.619 Y52.521 E0.04306
G1 X64.855 Y51.994 E0.04306
G1 X64.045 Y51.552 E0.04284
G1 X63.353 Y51.255 E0.03492
G1 X62.735 Y51.044 E0.03028
G1 X61.842 Y50.824 E0.04268
G1 X60.923 Y50.697 E0.04306
G1 X59.995 Y50.665 E0.04306
G1 X59.069 Y50.73 E0.04306
G1 X58.155 Y50.89 E0.04306
G1 X57.266 Y51.142 E0.04286
G1 X56.566 Y51.416 E0.03489
G1 X55.977 Y51.697 E0.03025
G1 X55.186 Y52.167 E0.04271
G1 X54.441 Y52.72 E0.04306
G1 X53.757 Y53.348 E0.04306
G1 X54.076 Y53.661 F27000
G1 F1800
G1 X53.491 Y54.321 E0.04091
G1 X52.978 Y55.039 E0.04091
G1 X52.542 Y55.803 E0.04081
G1 X52.251 Y56.455 E0.03312
G1 X52.04 Y57.033 E0.02855
G1 X51.815 Y57.881 E0.04072
G1 X51.679 Y58.752 E0.04091
G1 X51.633 Y59.633 E0.04091
G1 X51.679 Y60.514 E0.04091
G1 X51.815 Y61.385 E0.04091
G1 X52.041 Y62.238 E0.04091
G1 X52.353 Y63.062 E0.04091
G1 X52.75 Y63.85 E0.04091
G1 X53.225 Y64.593 E0.04091
G1 X53.772 Y65.279 E0.04071
G1 X54.198 Y65.724 E0.02856
G1 X54.727 Y66.203 E0.03313
G1 X55.433 Y66.728 E0.0408
G1 X56.192 Y67.178 E0.04091
G1 X56.993 Y67.547 E0.04091
G1 X57.827 Y67.831 E0.04091
G1 X58.687 Y68.028 E0.04091
G1 X59.562 Y68.135 E0.04091
G1 X60.444 Y68.15 E0.04091
G1 X61.323 Y68.075 E0.04091
G1 X62.189 Y67.909 E0.04091
G1 X63.029 Y67.656 E0.04068
G1 X63.6 Y67.426 E0.02858
G1 X64.242 Y67.111 E0.03316
G1 X64.99 Y66.651 E0.04078
G1 X65.69 Y66.113 E0.04091
G1 X66.33 Y65.507 E0.04091
G1 X66.904 Y64.837 E0.04091
G1 X67.405 Y64.112 E0.04091
G1 X67.829 Y63.339 E0.04091
G1 X68.171 Y62.526 E0.04091
G1 X68.427 Y61.682 E0.04091
G1 X68.595 Y60.816 E0.04091
G1 X68.671 Y59.943 E0.04065
G1 X68.671 Y59.323 E0.02876
G1 X68.595 Y58.45 E0.04065
G1 X68.427 Y57.584 E0.04091
G1 X68.172 Y56.744 E0.04076
G1 X67.901 Y56.082 E0.03318
G1 X67.625 Y55.531 E0.0286
G1 X67.164 Y54.785 E0.04066
G1 X66.625 Y54.087 E0.04091
G1 X66.018 Y53.448 E0.04091
G1 X65.347 Y52.875 E0.04091
G1 X64.621 Y52.375 E0.04091
G1 X63.849 Y51.954 E0.04078
G1 X63.192 Y51.672 E0.03316
G1 X62.61 Y51.472 E0.02858
G1 X61.758 Y51.263 E0.04068
G1 X60.884 Y51.142 E0.04091
G1 X60.003 Y51.112 E0.04091
G1 X59.123 Y51.174 E0.04091
G1 X58.255 Y51.326 E0.04091
G1 X57.409 Y51.566 E0.04079
G1 X56.743 Y51.826 E0.03314
G1 X56.188 Y52.091 E0.02857
G1 X55.433 Y52.539 E0.0407
G1 X54.725 Y53.065 E0.04091
G1 X54.076 Y53.661 E0.04091
G1 X54.394 Y53.974 F27000
; custom gcode: feature_gcode
; External perimeter
;ExternalPerimeter
SET_VELOCITY_LIMIT ACCEL=450 ACCEL_TO_DECEL=250 SQUARE_CORNER_VELOCITY=8

; Perimeter
; custom gcode end: feature_gcode

;TYPE:External perimeter
G1 F1800
G1 X53.84 Y54.6 E0.03877
G1 X53.354 Y55.279 E0.03877
G1 X52.941 Y56.005 E0.03873
G1 X52.665 Y56.623 E0.03139
G1 X52.466 Y57.167 E0.02688
G1 X52.252 Y57.973 E0.0387
G1 X52.123 Y58.799 E0.03877
G1 X52.08 Y59.633 E0.03877
G1 X52.123 Y60.468 E0.03877
G1 X52.252 Y61.293 E0.03877
G1 X52.466 Y62.101 E0.03877
G1 X52.763 Y62.883 E0.03877
G1 X53.138 Y63.629 E0.03877
G1 X53.588 Y64.333 E0.03877
G1 X54.108 Y64.985 E0.03869
G1 X54.509 Y65.404 E0.02688
G1 X55.011 Y65.858 E0.03139
G1 X55.681 Y66.355 E0.03873
G1 X56.4 Y66.782 E0.03877
G1 X57.158 Y67.132 E0.03877
G1 X57.949 Y67.401 E0.03877
G1 X58.764 Y67.588 E0.03877
G1 X59.594 Y67.689 E0.03877
G1 X60.429 Y67.704 E0.03877
G1 X61.262 Y67.632 E0.03877
G1 X62.082 Y67.475 E0.03877
G1 X62.881 Y67.234 E0.03868
G1 X63.418 Y67.018 E0.02689
G1 X64.026 Y66.72 E0.0314
G1 X64.737 Y66.283 E0.03872
G1 X65.399 Y65.774 E0.03877
G1 X66.006 Y65.199 E0.03877
G1 X66.55 Y64.564 E0.03877
G1 X67.025 Y63.877 E0.03877
G1 X67.427 Y63.144 E0.03877
G1 X67.751 Y62.374 E0.03877
G1 X67.993 Y61.574 E0.03877
G1 X68.152 Y60.754 E0.03877
G1 X68.225 Y59.924 E0.03867
G1 X68.225 Y59.343 E0.02695
G1 X68.152 Y58.512 E0.03867
G1 X67.993 Y57.692 E0.03877
G1 X67.751 Y56.893 E0.03871
G1 X67.495 Y56.267 E0.03141
G1 X67.234 Y55.749 E0.02689
G1 X66.796 Y55.039 E0.03868
G1 X66.286 Y54.378 E0.03877
G1 X65.71 Y53.772 E0.03877
G1 X65.075 Y53.23 E0.03877
G1 X64.387 Y52.755 E0.03877
G1 X63.654 Y52.355 E0.03872
G1 X63.032 Y52.089 E0.0314
G1 X62.484 Y51.901 E0.02689
G1 X61.674 Y51.702 E0.03868
G1 X60.846 Y51.588 E0.03877
G1 X60.011 Y51.559 E0.03877
G1 X59.177 Y51.617 E0.03877
G1 X58.354 Y51.761 E0.03877
G1 X57.551 Y51.989 E0.03872
G1 X56.921 Y52.236 E0.0314
G1 X56.398 Y52.485 E0.02688
G1 X55.681 Y52.911 E0.03869
G1 X55.01 Y53.409 E0.03877
G1 X54.394 Y53.974 E0.03877
;WIPE_START
G1 X54.005 Y53.881 F27000
;WIPE_END
G1 X46.919 Y68.067
; custom gcode: feature_gcode
; External perimeter
;Perimeter
SET_VELOCITY_LIMIT ACCEL=800 ACCEL_TO_DECEL=400 SQUARE_CORNER_VELOCITY=8

; Overhang perimeter
; custom gcode end: feature_gcode

;TYPE:Internal perimeter
G1 F1800
G1 X46.919 Y51.199 E0.78255
G1 X51.721 Y46.397 E0.31505
G1 X68.589 Y46.397 E0.78255
G1 X73.391 Y51.199 E0.31505
G1 X73.391 Y68.067 E0.78255
G1 X68.589 Y72.869 E0.31505
G1 X51.721 Y72.869 E0.78255
G1 X46.919 Y68.067 E0.31505
G1 X46.473 Y68.067 F27000
G1 F1800
G1 X46.473 Y51.014 E0.79113
G1 X51.536 Y45.951 E0.3322
G1 X68.774 Y45.951 E0.79971
G1 X73.838 Y51.014 E0.3322
M73 P1 R58
G1 X73.838 Y68.252 E0.79971
G1 X68.774 Y73.315 E0.3322
G1 X51.536 Y73.315 E0.79971
G1 X46.473 Y68.252 E0.3322
G1 X46.473 Y68.067 E0.00858
G1 X46.027 Y68.437 F27000
G1 F1800
G1 X46.027 Y50.829 E0.81686
G1 X51.352 Y45.505 E0.34936
G1 X68.959 Y45.505 E0.81686
G1 X69.067 Y45.612 E0.00705
G1 X74.284 Y50.829 E0.34231
G1 X74.284 Y68.437 E0.81686
G1 X68.959 Y73.762 E0.34936
G1 X51.352 Y73.762 E0.81686
G1 X46.027 Y68.437 E0.34936
G1 X45.58 Y68.437 F27000
; custom gcode: feature_gcode
; External perimeter
;ExternalPerimeter
SET_VELOCITY_LIMIT ACCEL=450 ACCEL_TO_DECEL=250 SQUARE_CORNER_VELOCITY=8

; Perimeter
; custom gcode end: feature_gcode

;TYPE:External perimeter
G1 F1800
G1 X45.58 Y50.644 E0.82544
G1 X51.167 Y45.058 E0.36651
G1 X69.144 Y45.058 E0.83402
G1 X69.382 Y45.296 E0.01563
G1 X74.73 Y50.644 E0.35089
G1 X74.73 Y68.622 E0.83402
G1 X69.144 Y74.208 E0.36651
G1 X51.167 Y74.208 E0.83402
G1 X45.58 Y68.622 E0.36651
G1 X45.58 Y68.437 E0.00858
;WIPE_START
G1 X45.927 Y68.237 F27000
;WIPE_END
G1 E-1 F1800
G1 Z0.55 F27000
G1 X68.278 Y46.464
G1 Z0.25
G1 E1 F1800
; custom gcode: feature_gcode
; External perimeter
;SolidInfill
SET_VELOCITY_LIMIT ACCEL=3800 ACCEL_TO_DECEL=2000 SQUARE_CORNER_VELOCITY=8

; Bridge infill
; custom gcode end: feature_gcode

;TYPE:Solid infill
;WIDTH:0.483317
G1 F3600
G1 X73.132 Y51.319 E0.3079
G1 X73.132 Y51.95 E0.02831
G1 X67.838 Y46.656 E0.33576
G1 X67.207 Y46.656 E0.02831
G1 X73.132 Y52.581 E0.37579
G1 X73.132 Y53.213 E0.02831
G1 X66.576 Y46.656 E0.41582
G1 X65.945 Y46.656 E0.02831
G1 X73.132 Y53.844 E0.45586
G1 X73.132 Y54.475 E0.02831
G1 X65.313 Y46.656 E0.49589
G1 X64.682 Y46.656 E0.02831
G1 X73.132 Y55.106 E0.53592
G1 X73.132 Y55.738 E0.02831
G1 X64.051 Y46.656 E0.57595
G1 X63.42 Y46.656 E0.02831
G1 X73.132 Y56.369 E0.61599
G1 X73.132 Y57 E0.02831
G1 X62.788 Y46.656 E0.65602
G1 X62.157 Y46.656 E0.02831
G1 X73.132 Y57.631 E0.69605
G1 X73.132 Y58.263 E0.02831
G1 X61.526 Y46.656 E0.73609
G1 X60.895 Y46.656 E0.02831
G1 X73.132 Y58.894 E0.77612
G1 X73.132 Y59.525 E0.02831
G1 X68.686 Y55.079 E0.28199
G1 X68.631 Y54.969 E0.00551
G1 X68.112 Y54.129 E0.04426
G1 X67.501 Y53.336 E0.0449
G1 X66.811 Y52.611 E0.0449
G1 X66.05 Y51.961 E0.0449
G1 X65.225 Y51.393 E0.0449
G1 X64.729 Y51.122 E0.02533
G1 X60.263 Y46.656 E0.28323
G1 X59.632 Y46.656 E0.02831
G1 X63.555 Y50.579 E0.2488
G1 X62.934 Y50.366 E0.02944
G1 X62.639 Y50.294 E0.01366
G1 X59.001 Y46.656 E0.2307
G1 X58.37 Y46.656 E0.02831
G1 X61.823 Y50.11 E0.21902
G1 X61.091 Y50.008 E0.03316
G1 X57.738 Y46.656 E0.2126
G1 X57.107 Y46.656 E0.02831
G1 X60.426 Y49.974 E0.21045
G1 X59.983 Y49.959 E0.01989
G1 X59.793 Y49.973 E0.00853
G1 X56.476 Y46.656 E0.21034
G1 X55.845 Y46.656 E0.02831
G1 X59.203 Y50.014 E0.21295
G1 X58.984 Y50.029 E0.00984
G1 X58.646 Y50.088 E0.01539
G1 X55.214 Y46.656 E0.21767
G1 X54.582 Y46.656 E0.02831
G1 X58.108 Y50.182 E0.22362
G1 X57.997 Y50.202 E0.00505
G1 X57.607 Y50.312 E0.01819
