; generated by SuperSlicer 2.3.57 on 2022-04-05 at 11:26:08 UTC


;
;

;
;
; 

; external perimeters extrusion width = 0.42mm
; perimeters extrusion width = 0.45mm
; infill extrusion width = 0.72mm
; solid infill extrusion width = 0.56mm
; top infill extrusion width = 0.42mm

; object:{"name":"3DBenchy","id":"3DBenchy.stl id:0 copy 0","object_center":[57.499725,57.673312,0.000000],"boundingbox_center":[57.499725,57.673312,24.000000],"boundingbox_size":[50.826130,50.826130,48.000000]}
; plater:{"center":[57.499725,57.673312,0.000000],"boundingbox_center":[57.499725,57.673312,24.000000],"boundingbox_size":[50.826130,50.826130,48.000000]}

M73 P0 R69
;TYPE:Custom
; custom gcode: start_gcode
PRINT_START BED=50 HOTEND=205 CHAMBER=0
; custom gcode end: start_gcode
G21 ; set units to millimeters
G90 ; use absolute coordinates
M83 ; use relative distances for extrusion
; custom gcode: start_filament_gcode
; Filament gcode
; custom gcode end: start_filament_gcode
M104 S205 ; set temperature
M109 S205 ; set temperature and wait for it to be reached
M190 S50 ; set bed temperature and wait for it to be reached
;LAYER_CHANGE
;Z:0.25
;HEIGHT:0.25
G1 E-2 F2400
G1 Z0.25 F27000
G1 Z0.55
G1 X38.799 Y38.948
G1 Z0.25
G1 E2.02 F1800
; custom gcode: feature_gcode
; External perimeter
;Skirt
SET_VELOCITY_LIMIT ACCEL=5000 ACCEL_TO_DECEL=2500 SQUARE_CORNER_VELOCITY=8

; Support material
; custom gcode end: feature_gcode

;TYPE:Skirt
;WIDTH:0.452
G1 X37.729 Y40.206 E0.06427
G1 X36.795 Y41.775 E0.07107
G1 X36.411 Y42.69 E0.03862
G1 X36.061 Y43.836 E0.04663
G1 X35.572 Y46.244 E0.09563
G1 X35.332 Y48.7 E0.09607
G1 X35.339 Y51.096 E0.09326
G1 X35.588 Y53.516 E0.09466
G1 X36.094 Y55.954 E0.09691
G1 X36.8 Y58.205 E0.09183
G1 X37.654 Y60.23 E0.08553
G1 X38.739 Y62.258 E0.08952
G1 X39.841 Y63.941 E0.0783
G1 X41.637 Y66.156 E0.11095
G1 X42.929 Y67.467 E0.07166
G1 X61.144 Y83.553 E0.94577
G1 X62.036 Y84.258 E0.04425
G1 X63.359 Y85.052 E0.06006
G1 X64.443 Y85.541 E0.04628
G1 X65.764 Y85.945 E0.05378
G1 X67.183 Y86.181 E0.05597
G1 X68.636 Y86.221 E0.05658
G1 X70.04 Y86.065 E0.05496
G1 X71.214 Y85.787 E0.04697
G1 X72.605 Y85.271 E0.05774
G1 X74.128 Y84.422 E0.06787
G1 X74.899 Y83.862 E0.03709
G1 X75.68 Y83.174 E0.04048
G1 X83.042 Y75.81 E0.40526
G1 X83.849 Y74.866 E0.04834
G1 X84.574 Y73.788 E0.05056
G1 X85.171 Y72.617 E0.05117
G1 X85.608 Y71.419 E0.04963
G1 X85.863 Y70.36 E0.04237
G1 X86.035 Y69.013 E0.05286
G1 X86.029 Y67.624 E0.05407
G1 X85.86 Y66.359 E0.04967
G1 X85.587 Y65.267 E0.04381
G1 X85.111 Y64.003 E0.05255
G1 X84.397 Y62.679 E0.05856
G1 X83.381 Y61.32 E0.06602
G1 X67.646 Y43.479 E0.92584
G1 X66.4 Y42.198 E0.06957
G1 X64.627 Y40.661 E0.09134
G1 X62.849 Y39.388 E0.08509
G1 X61.021 Y38.313 E0.08252
G1 X59.081 Y37.389 E0.08366
G1 X57.332 Y36.73 E0.07272
G1 X55.842 Y36.285 E0.06054
G1 X53.831 Y35.843 E0.08014
G1 X51.78 Y35.572 E0.08053
G1 X49.677 Y35.479 E0.08189
G1 X47.705 Y35.559 E0.07683
G1 X44.974 Y35.936 E0.10728
G1 X43.014 Y36.413 E0.0785
G1 X41.564 Y36.986 E0.0607
G1 X40.118 Y37.839 E0.06534
G1 X38.845 Y38.91 E0.06472
G1 X39.101 Y39.214 F27000
G1 F1800
G1 X39.076 Y39.235 E0.00129
G1 X38.045 Y40.449 E0.06196
G1 X37.139 Y41.978 E0.06919
G1 X36.778 Y42.847 E0.03663
G1 X36.438 Y43.967 E0.04553
G1 X35.963 Y46.327 E0.09368
G1 X35.729 Y48.736 E0.0942
G1 X35.738 Y51.1 E0.09202
G1 X35.982 Y53.457 E0.09224
M73 P0 R68
G1 X36.482 Y55.864 E0.09565
G1 X37.177 Y58.076 E0.09027
G1 X38.028 Y60.089 E0.08502
G1 X39.089 Y62.067 E0.08737
G1 X40.17 Y63.715 E0.07671
G1 X41.942 Y65.899 E0.10946
G1 X43.211 Y67.186 E0.07035
G1 X61.403 Y83.25 E0.94456
G1 X62.253 Y83.923 E0.04217
G1 X63.223 Y84.528 E0.04451
G1 X64.581 Y85.167 E0.05841
G1 X65.859 Y85.558 E0.05199
G1 X67.229 Y85.785 E0.05406
G1 X68.63 Y85.822 E0.05455
G1 X69.989 Y85.67 E0.05321
G1 X71.115 Y85.4 E0.04507
G1 X72.465 Y84.897 E0.05605
G1 X73.909 Y84.089 E0.06442
G1 X75.406 Y82.885 E0.07478
G1 X82.743 Y75.547 E0.40385
G1 X83.521 Y74.639 E0.04654
G1 X84.22 Y73.603 E0.04863
G1 X84.802 Y72.465 E0.04975
G1 X85.224 Y71.312 E0.0478
G1 X85.469 Y70.298 E0.04057
G1 X85.637 Y68.987 E0.05143
G1 X85.631 Y67.642 E0.05235
G1 X85.466 Y66.421 E0.04796
G1 X85.201 Y65.368 E0.04226
G1 X84.736 Y64.141 E0.05105
G1 X84.052 Y62.879 E0.05587
G1 X83.077 Y61.578 E0.06328
G1 X67.35 Y43.746 E0.92537
G1 X66.125 Y42.486 E0.06841
G1 X64.377 Y40.971 E0.09
G1 X62.629 Y39.721 E0.08364
G1 X60.831 Y38.663 E0.08119
G1 X58.923 Y37.754 E0.08227
G1 X57.198 Y37.105 E0.07171
G1 X55.745 Y36.671 E0.05904
G1 X53.768 Y36.236 E0.07878
G1 X51.742 Y35.968 E0.07955
G1 X49.677 Y35.878 E0.08044
G1 X47.745 Y35.956 E0.07526
G1 X45.057 Y36.326 E0.10559
G1 X43.146 Y36.789 E0.07653
G1 X41.756 Y37.336 E0.05815
G1 X40.358 Y38.158 E0.06311
G1 X39.147 Y39.175 E0.06155
G1 X39.403 Y39.48 F27000
G1 F1800
G1 X39.353 Y39.522 E0.00256
G1 X38.358 Y40.697 E0.05991
G1 X37.484 Y42.18 E0.06699
G1 X37.145 Y43.003 E0.03467
G1 X36.817 Y44.09 E0.04416
G1 X36.353 Y46.408 E0.09203
G1 X36.127 Y48.756 E0.09179
G1 X36.136 Y51.095 E0.09105
G1 X36.377 Y53.406 E0.0904
G1 X36.872 Y55.78 E0.09438
G1 X37.554 Y57.947 E0.08844
G1 X38.401 Y59.946 E0.08447
G1 X39.434 Y61.869 E0.08497
G1 X40.497 Y63.488 E0.0754
G1 X42.241 Y65.637 E0.10769
G1 X43.498 Y66.91 E0.06961
G1 X61.668 Y82.952 E0.94337
G1 X62.464 Y83.584 E0.03955
G1 X63.399 Y84.17 E0.04292
G1 X64.706 Y84.788 E0.05631
G1 X65.945 Y85.17 E0.05045
G1 X67.267 Y85.389 E0.05214
G1 X68.623 Y85.424 E0.05279
G1 X69.937 Y85.275 E0.05145
G1 X71.015 Y85.014 E0.04319
G1 X72.323 Y84.524 E0.05435
G1 X73.897 Y83.614 E0.07076
G1 X75.133 Y82.595 E0.06233
G1 X82.449 Y75.277 E0.40274
G1 X83.198 Y74.406 E0.04474
G1 X83.864 Y73.424 E0.04616
G1 X84.431 Y72.32 E0.04831
G1 X84.838 Y71.211 E0.04597
G1 X85.075 Y70.236 E0.03907
G1 X85.239 Y68.969 E0.0497
G1 X85.233 Y67.662 E0.05089
G1 X85.071 Y66.477 E0.04652
G1 X84.816 Y65.47 E0.04045
G1 X84.362 Y64.281 E0.04953
G1 X83.712 Y63.086 E0.05293
G1 X82.774 Y61.836 E0.06084
G1 X67.055 Y44.013 E0.92491
G1 X65.855 Y42.779 E0.06698
G1 X64.134 Y41.286 E0.08867
G1 X62.41 Y40.054 E0.08246
G1 X60.642 Y39.013 E0.07987
G1 X58.765 Y38.12 E0.08089
G1 X57.071 Y37.482 E0.07042
G1 X55.648 Y37.057 E0.05782
G1 X53.705 Y36.629 E0.07742
G1 X51.711 Y36.366 E0.07829
G1 X49.676 Y36.276 E0.07926
G1 X47.784 Y36.352 E0.0737
G1 X45.14 Y36.716 E0.1039
G1 X43.277 Y37.165 E0.07456
G1 X41.94 Y37.689 E0.05588
G1 X40.586 Y38.485 E0.06115
G1 X39.449 Y39.441 E0.05782
; INIT printing object 3DBenchy.stl id:0 copy 0
G1 E-2 F2400
G1 Z0.55 F27000
; printing object 3DBenchy.stl id:0 copy 0
G1 X74.737 Y69.196
G1 Z0.25
G1 E2.02 F1800
; custom gcode: feature_gcode
; External perimeter
;Perimeter
SET_VELOCITY_LIMIT ACCEL=800 ACCEL_TO_DECEL=400 SQUARE_CORNER_VELOCITY=8

; Overhang perimeter
; custom gcode end: feature_gcode

;TYPE:Internal perimeter
G1 X74.628 Y68.861 E0.01369
G1 X74.479 Y68.516 E0.01464
G1 X74.271 Y68.151 E0.01636
G1 X74.039 Y67.824 E0.01559
G1 X73.657 Y67.399 E0.02225
G1 X73.254 Y67.046 E0.02085
G1 X72.957 Y66.837 E0.01412
G1 X72.636 Y66.652 E0.01441
G1 X72.161 Y66.458 E0.01999
G1 X71.648 Y66.342 E0.02048
G1 X71.096 Y66.32 E0.0215
G1 X70.122 Y66.49 E0.03847
G1 X70.427 Y66.049 E0.02087
G1 X70.576 Y65.472 E0.02316
G1 X70.519 Y64.841 E0.02467
G1 X70.278 Y64.303 E0.02295
G1 X70.018 Y63.965 E0.01657
G1 X69.709 Y63.682 E0.01635
G1 X69.245 Y63.424 E0.02065
G1 X68.78 Y63.314 E0.01858
G1 X68.272 Y63.318 E0.01976
G1 X67.406 Y63.606 E0.03555
G1 X67.601 Y62.812 E0.03183
G1 X67.615 Y62.374 E0.01703
G1 X67.533 Y61.895 E0.01892
G1 X67.411 Y61.538 E0.01472
G1 X67.209 Y61.137 E0.01747
G1 X66.982 Y60.79 E0.01611
G1 X66.524 Y60.263 E0.0272
G1 X65.974 Y59.791 E0.0282
G1 X65.385 Y59.455 E0.02637
G1 X64.872 Y59.28 E0.0211
G1 X64.462 Y59.204 E0.01623
G1 X64.264 Y59.2 E0.00772
G1 X64.289 Y58.903 E0.01159
G1 X64.214 Y58.45 E0.01785
G1 X64.029 Y58.041 E0.01747
G1 X63.772 Y57.704 E0.01653
G1 X63.317 Y57.317 E0.02323
G1 X62.753 Y56.742 E0.03136
G1 X62.158 Y56.218 E0.03084
G1 X61.682 Y55.89 E0.02248
G1 X61.042 Y55.586 E0.0276
G1 X61.075 Y55.343 E0.00955
G1 X60.995 Y54.777 E0.02226
G1 X60.833 Y54.334 E0.01834
G1 X60.6 Y53.945 E0.01764
G1 X60.301 Y53.606 E0.0176
G1 X59.949 Y53.331 E0.01739
G1 X59.527 Y53.11 E0.01855
G1 X59.128 Y53.005 E0.01604
G1 X59.007 Y52.993 E0.00475
G1 X58.648 Y52.408 E0.02668
G1 X58.174 Y51.946 E0.0258
G1 X57.56 Y51.752 E0.02507
G1 X57.361 Y51.139 E0.02506
G1 X57.246 Y50.986 E0.00745
G1 X57.595 Y50.725 E0.01698
G1 X57.94 Y50.3 E0.02128
G1 X58.185 Y49.75 E0.02346
G1 X58.258 Y49.141 E0.02386
G1 X59.22 Y50.021 E0.05077
G1 X59.857 Y50.696 E0.0361
G1 X75.318 Y68.163 E0.90785
G1 X75.453 Y68.349 E0.00899
G1 X75.422 Y68.457 E0.00435
G1 X75.395 Y68.512 E0.0024
G1 X75.365 Y68.555 E0.00204
G1 X75.285 Y68.646 E0.00473
G1 X74.779 Y69.153 E0.02787
G1 E-2 F2400
G1 Z0.55 F27000
G1 X64.443 Y65.599
G1 Z0.25
G1 E2.02 F1800
G1 X64.89 Y65.207 E0.02316
G1 X65.248 Y64.639 E0.02612
G1 X65.372 Y64.668 E0.00494
G1 X65.809 Y64.669 E0.01703
G1 X66.045 Y64.612 E0.00946
G1 X66.185 Y64.862 E0.01115
G1 X65.065 Y65.983 E0.06169
G1 X64.834 Y65.796 E0.01155
G1 X64.496 Y65.626 E0.01473
G1 E-2 F2400
G1 Z0.55 F27000
G1 X67.894 Y68.696
G1 Z0.25
G1 E2.02 F1800
G1 X68.81 Y67.769 E0.05072
G1 X69.062 Y67.91 E0.01123
G1 X69.029 Y68.041 E0.00523
G1 X69.047 Y68.616 E0.02241
G1 X69.381 Y69.637 E0.04179
G1 X68.675 Y69.327 E0.03001
G1 X68.254 Y69.272 E0.01653
G1 X67.926 Y68.747 E0.0241
G1 X70.813 Y70.336 F27000
G1 F1800
G1 X70.365 Y70.805 E0.02526
G1 X70.124 Y71.002 E0.01211
G1 X69.845 Y70.249 E0.03124
G1 X70.067 Y70.079 E0.01088
G1 X70.205 Y70.178 E0.00661
G1 X70.755 Y70.321 E0.02213
G1 E-2 F2400
G1 Z0.55 F27000
G1 X63.739 Y59.588
G1 Z0.25
G1 E2.02 F1800
G1 X63.856 Y59.292 E0.01237
G1 X63.888 Y58.919 E0.01458
G1 X63.83 Y58.567 E0.01389
G1 X63.685 Y58.247 E0.01366
G1 X63.481 Y57.979 E0.01309
G1 X63.045 Y57.609 E0.02226
G1 X62.479 Y57.031 E0.03149
G1 X61.913 Y56.533 E0.02935
G1 X61.483 Y56.237 E0.02032
G1 X60.91 Y55.965 E0.02466
G1 X60.596 Y55.902 E0.01248
G1 X60.673 Y55.344 E0.02194
G1 X60.606 Y54.874 E0.01846
G1 X60.472 Y54.506 E0.01525
G1 X60.277 Y54.181 E0.01474
G1 X60.027 Y53.897 E0.01473
G1 X59.732 Y53.667 E0.01456
G1 X59.382 Y53.484 E0.01539
G1 X59.057 Y53.398 E0.01307
G1 X58.629 Y53.355 E0.01676
G1 X58.61 Y53.108 E0.00962
G1 X58.335 Y52.659 E0.0205
G1 X57.963 Y52.297 E0.02018
G1 X57.387 Y52.115 E0.02351
G1 X57.14 Y52.146 E0.00971
G1 X57.171 Y51.844 E0.0118
G1 X57.003 Y51.326 E0.0212
G1 X56.622 Y50.821 E0.02462
G1 X57.027 Y50.653 E0.01708
G1 X57.317 Y50.435 E0.0141
G1 X57.597 Y50.09 E0.01731
G1 X57.797 Y49.643 E0.01906
G1 X57.867 Y49.056 E0.02301
G1 X57.739 Y48.579 E0.0192
G1 X57.96 Y48.428 E0.01045
G1 X58.198 Y48.603 E0.01149
G1 X58.72 Y49.024 E0.02609
G1 X59.5 Y49.737 E0.04115
G1 X60.151 Y50.427 E0.03692
G1 X75.629 Y67.913 E0.90885
G1 X75.763 Y68.098 E0.00891
G1 X75.795 Y68.163 E0.0028
G1 X75.824 Y68.25 E0.00358
G1 X75.838 Y68.327 E0.00303
G1 X75.84 Y68.41 E0.00324
G1 X75.832 Y68.474 E0.00251
G1 X75.795 Y68.601 E0.00513
G1 X75.74 Y68.713 E0.00486
G1 X75.68 Y68.801 E0.00414
G1 X75.575 Y68.919 E0.00615
G1 X74.49 Y70.006 E0.05977
G1 X74.361 Y69.327 E0.0269
G1 X74.255 Y69.002 E0.01331
G1 X74.122 Y68.694 E0.01307
G1 X73.935 Y68.365 E0.01473
G1 X73.728 Y68.074 E0.01391
G1 X73.376 Y67.683 E0.02045
G1 X73.007 Y67.359 E0.01911
G1 X72.743 Y67.173 E0.01259
G1 X72.461 Y67.011 E0.01267
G1 X72.041 Y66.839 E0.01765
G1 X71.595 Y66.739 E0.01778
G1 X71.122 Y66.719 E0.01844
G1 X70.551 Y66.819 E0.02257
G1 X70.036 Y67.039 E0.02179
G1 X69.765 Y67.297 E0.01454
G1 X69.528 Y67.684 E0.01769
G1 X69.429 Y68.083 E0.016
G1 X69.443 Y68.547 E0.01804
G1 X69.6 Y69.024 E0.01956
G1 X69.943 Y69.502 E0.02287
G1 X70.377 Y69.811 E0.02074
G1 X70.952 Y69.961 E0.02314
G1 X71.157 Y69.937 E0.00804
G1 X71.24 Y70.063 E0.00588
G1 X71.295 Y70.202 E0.00581
G1 X71.2 Y70.436 E0.00979
G1 X71.154 Y70.514 E0.00353
G1 X71.003 Y70.715 E0.00978
G1 X70.636 Y71.099 E0.02068
G1 X70.32 Y71.356 E0.01587
G1 X70.235 Y71.41 E0.0039
G1 X70.084 Y71.484 E0.00653
G1 X70.047 Y71.496 E0.00154
G1 X70.001 Y71.504 E0.00182
G1 X69.815 Y71.495 E0.00723
G1 X69.68 Y70.952 E0.02178
G1 X69.538 Y70.568 E0.01596
G1 X69.301 Y70.194 E0.01723
G1 X68.952 Y69.884 E0.01816
G1 X68.567 Y69.715 E0.01638
G1 X68.192 Y69.666 E0.01471
G1 X67.947 Y69.69 E0.00957
G1 X67.897 Y69.453 E0.00943
G1 X67.654 Y69.064 E0.01784
G1 X67.313 Y68.718 E0.01895
G1 X69.26 Y66.746 E0.10784
G1 X69.758 Y66.315 E0.02564
G1 X70.059 Y65.88 E0.02059
G1 X70.173 Y65.44 E0.01771
G1 X70.128 Y64.943 E0.01939
G1 X69.933 Y64.509 E0.01854
G1 X69.724 Y64.235 E0.0134
G1 X69.475 Y64.007 E0.01316
G1 X69.1 Y63.799 E0.01668
G1 X68.735 Y63.713 E0.01459
G1 X68.338 Y63.716 E0.01545
G1 X67.796 Y63.896 E0.02223
G1 X67.345 Y64.234 E0.02197
G1 X66.788 Y64.822 E0.03151
G1 X65.076 Y66.536 E0.09427
G1 X64.929 Y66.385 E0.00817
G1 X64.617 Y66.133 E0.01562
G1 X64.166 Y65.906 E0.01967
G1 X63.943 Y65.865 E0.0088
G1 X63.95 Y65.629 E0.00918
G1 X63.92 Y65.402 E0.0089
G1 X64.295 Y65.199 E0.01661
G1 X64.584 Y64.946 E0.01494
G1 X64.851 Y64.522 E0.0195
G1 X64.922 Y64.153 E0.0146
G1 X65.418 Y64.27 E0.01985
G1 X65.762 Y64.27 E0.01339
G1 X66.105 Y64.188 E0.01375
G1 X66.434 Y64.021 E0.01433
G1 X66.799 Y63.696 E0.01902
G1 X67.098 Y63.191 E0.02284
G1 X67.204 Y62.757 E0.01739
G1 X67.216 Y62.402 E0.01384
G1 X67.146 Y61.994 E0.0161
G1 X67.043 Y61.692 E0.01242
G1 X66.863 Y61.336 E0.01553
G1 X66.664 Y61.031 E0.01417
G1 X66.242 Y60.546 E0.02501
G1 X65.743 Y60.118 E0.02558
G1 X65.221 Y59.82 E0.02341
G1 X64.771 Y59.667 E0.0185
G1 X64.421 Y59.602 E0.01384
G1 X63.799 Y59.589 E0.02421
G1 E-2 F2400
G1 Z0.55 F27000
G1 X53.023 Y47.675
G1 Z0.25
G1 E2.02 F1800
G1 X53.002 Y47.026 E0.02529
G1 X52.721 Y46.465 E0.02442
G1 X53.454 Y46.658 E0.0295
G1 X53.971 Y46.815 E0.02104
G1 X54.577 Y47.029 E0.025
G1 X53.079 Y47.652 E0.06316
G1 X55.499 Y46.987 F27000
G1 F1800
G1 X55.46 Y47.267 E0.011
G1 X55.034 Y47.331 E0.01674
G1 X54.593 Y47.454 E0.01783
G1 X53.425 Y47.94 E0.04925
G1 X52.373 Y48.433 E0.0452
G1 X52.626 Y47.719 E0.0295
G1 X52.607 Y47.126 E0.02307
G1 X52.33 Y46.575 E0.02402
G1 X51.917 Y46.189 E0.02199
G1 X52.042 Y45.937 E0.01095
G1 X52.432 Y46.002 E0.0154
G1 X52.995 Y46.125 E0.02244
G1 X53.563 Y46.274 E0.02284
G1 X54.095 Y46.437 E0.02167
G1 X54.669 Y46.639 E0.02366
G1 X55.235 Y46.867 E0.02374
G1 X55.444 Y46.962 E0.00895
G1 X49.142 Y49.119 F27000
G1 F1800
G1 X49.73 Y49.062 E0.02297
G1 X50.771 Y48.904 E0.04101
G1 X51.152 Y48.811 E0.01523
G1 X51.486 Y48.672 E0.01412
G1 X51.844 Y48.397 E0.01755
G1 X52.074 Y48.084 E0.01512
G1 X52.226 Y47.657 E0.01765
G1 X52.212 Y47.227 E0.01674
G1 X52.006 Y46.817 E0.01784
G1 X51.467 Y46.314 E0.02871
G1 X50.771 Y45.622 E0.03819
G1 X50.889 Y45.379 E0.01052
G1 X51.756 Y45.485 E0.034
G1 X52.507 Y45.611 E0.02964
G1 X53.088 Y45.738 E0.02314
G1 X53.672 Y45.891 E0.02347
G1 X54.22 Y46.058 E0.02231
G1 X54.81 Y46.266 E0.02434
G1 X55.392 Y46.501 E0.02442
G1 X55.942 Y46.751 E0.02352
G1 X56.548 Y47.061 E0.02651
G1 X57.051 Y47.346 E0.0225
G1 X58.009 Y47.968 E0.04445
G1 X58.441 Y48.287 E0.02092
G1 X58.979 Y48.721 E0.02691
G1 X59.779 Y49.453 E0.04219
G1 X60.445 Y50.158 E0.03773
G1 X75.94 Y67.663 E0.90985
G1 X76.105 Y67.891 E0.01097
G1 X76.165 Y68.011 E0.00521
G1 X76.211 Y68.153 E0.0058
G1 X76.235 Y68.287 E0.00531
G1 X76.239 Y68.429 E0.00553
G1 X76.224 Y68.554 E0.0049
G1 X76.168 Y68.745 E0.00773
G1 X76.085 Y68.914 E0.00731
G1 X75.995 Y69.046 E0.00625
G1 X75.866 Y69.192 E0.00758
G1 X74.025 Y71.037 E0.10143
G1 X74.074 Y70.14 E0.03494
G1 X74.053 Y69.837 E0.01183
G1 X73.974 Y69.427 E0.01627
G1 X73.882 Y69.143 E0.0116
G1 X73.765 Y68.872 E0.0115
G1 X73.599 Y68.579 E0.0131
G1 X73.416 Y68.323 E0.01223
G1 X73.096 Y67.967 E0.01865
G1 X72.761 Y67.673 E0.01736
G1 X72.528 Y67.509 E0.01105
G1 X72.285 Y67.369 E0.01092
G1 X71.921 Y67.22 E0.01531
G1 X71.543 Y67.135 E0.01508
G1 X71.148 Y67.119 E0.01537
G1 X70.665 Y67.204 E0.01911
G1 X70.258 Y67.377 E0.01718
G1 X70.078 Y67.549 E0.0097
G1 X69.9 Y67.84 E0.01328
G1 X69.829 Y68.126 E0.01146
G1 X69.84 Y68.477 E0.01368
G1 X69.959 Y68.842 E0.01494
G1 X70.228 Y69.215 E0.01791
G1 X70.548 Y69.444 E0.01532
G1 X70.98 Y69.556 E0.01738
G1 X71.214 Y69.53 E0.00915
G1 X71.302 Y69.57 E0.00379
G1 X71.416 Y69.655 E0.00551
