; generated by SuperSlicer 2.3.57 on 2022-04-06 at 11:26:49 UTC


;
;

;
;
; 

; external perimeters extrusion width = 0.40mm
; perimeters extrusion width = 0.45mm
; infill extrusion width = 0.72mm
; solid infill extrusion width = 0.56mm
; top infill extrusion width = 0.40mm
; first layer extrusion width = 0.50mm

; object:{"name":"Voron_Design_Cube_v7","id":"Voron_Design_Cube_v7.stl id:0 copy 0","object_center":[60.929310,62.391859,0.000000],"boundingbox_center":[60.929310,62.391859,15.000000],"boundingbox_size":[30.000000,30.000000,30.000000]}
; plater:{"center":[60.929310,62.391859,0.000000],"boundingbox_center":[60.929310,62.391859,15.000000],"boundingbox_size":[30.000000,30.000000,30.000000]}

M73 P0 R93
;TYPE:Custom
; custom gcode: start_gcode
PRINT_START BED=50 HOTEND=200 CHAMBER=0
; custom gcode end: start_gcode
G21 ; set units to millimeters
G90 ; use absolute coordinates
M83 ; use relative distances for extrusion
; custom gcode: start_filament_gcode
; Filament gcode
; custom gcode end: start_filament_gcode
M109 S200 ; set temperature and wait for it to be reached
M190 S50 ; set bed temperature and wait for it to be reached
;LAYER_CHANGE
;Z:0.28125
;HEIGHT:0.28125
G1 E-1 F1800
G1 Z0.28125 F18000
G1 Z0.48125
G1 X44.667 Y44.658
G1 Z0.28125
G1 E1 F1800
; custom gcode: feature_gcode
; External perimeter
;Skirt
SET_VELOCITY_LIMIT ACCEL=5000 ACCEL_TO_DECEL=2500 SQUARE_CORNER_VELOCITY=8

; Support material
; custom gcode end: feature_gcode

;TYPE:Skirt
;WIDTH:0.5
G1 X40.899 Y48.428 E0.27401
G1 X40.255 Y49.226 E0.05275
G1 X39.729 Y50.115 E0.05308
G1 X39.194 Y51.578 E0.08004
G1 X38.991 Y53.121 E0.08004
G1 X38.989 Y71.597 E0.94981
G1 X39.055 Y72.476 E0.04532
G1 X39.229 Y73.341 E0.04532
G1 X39.498 Y74.152 E0.04397
G1 X39.867 Y74.931 E0.0443
G1 X40.323 Y75.655 E0.04397
G1 X40.863 Y76.318 E0.04397
G1 X46.965 Y82.422 E0.44372
G1 X47.764 Y83.066 E0.05275
G1 X48.653 Y83.592 E0.05308
G1 X50.115 Y84.127 E0.08004
G1 X51.659 Y84.331 E0.08004
G1 X70.135 Y84.332 E0.94981
G1 X71.014 Y84.266 E0.04532
G1 X71.878 Y84.093 E0.04532
G1 X72.696 Y83.82 E0.0443
G1 X73.469 Y83.454 E0.04397
G1 X74.192 Y82.998 E0.04397
G1 X74.855 Y82.458 E0.04397
G1 X80.96 Y76.356 E0.44372
G1 X81.604 Y75.557 E0.05275
G1 X82.129 Y74.668 E0.05308
G1 X82.671 Y73.181 E0.08139
G1 X82.869 Y71.61 E0.08139
G1 X82.868 Y53.134 E0.94981
G1 X82.755 Y52.002 E0.05848
G1 X82.465 Y50.909 E0.05814
G1 X81.881 Y49.658 E0.07095
G1 X81.066 Y48.544 E0.07095
G1 X74.623 Y42.121 E0.4677
G1 X73.612 Y41.41 E0.06354
G1 X72.486 Y40.883 E0.06388
G1 X71.286 Y40.56 E0.06388
G1 X70.055 Y40.451 E0.06354
G1 X51.691 Y40.452 E0.94406
G1 X50.656 Y40.546 E0.05342
G1 X49.652 Y40.787 E0.05308
G1 X48.207 Y41.434 E0.08139
G1 X46.946 Y42.38 E0.08105
G1 X44.69 Y44.636 E0.164
G1 X45.001 Y44.947 F18000
G1 F1800
G1 X41.231 Y48.716 E0.27406
G1 X40.629 Y49.458 E0.04912
G1 X40.137 Y50.285 E0.04945
G1 X39.625 Y51.669 E0.07588
G1 X39.43 Y53.132 E0.07588
G1 X39.429 Y71.584 E0.94855
G1 X39.489 Y72.404 E0.04225
G1 X39.649 Y73.21 E0.04225
G1 X40.248 Y74.71 E0.08304
G1 X41.185 Y76.018 E0.08272
G1 X47.254 Y82.09 E0.44131
G1 X47.996 Y82.692 E0.04912
G1 X48.822 Y83.184 E0.04945
G1 X50.207 Y83.696 E0.07588
G1 X51.67 Y83.891 E0.07588
G1 X70.121 Y83.892 E0.94855
G1 X70.941 Y83.832 E0.04225
G1 X71.747 Y83.672 E0.04225
G1 X73.248 Y83.074 E0.08304
G1 X74.555 Y82.136 E0.08272
G1 X80.627 Y76.067 E0.44131
G1 X81.229 Y75.325 E0.04912
G1 X81.722 Y74.499 E0.04945
G1 X82.238 Y73.096 E0.07686
G1 X82.429 Y71.607 E0.07719
G1 X82.429 Y53.155 E0.94855
G1 X82.326 Y52.103 E0.05435
G1 X82.061 Y51.086 E0.05402
G1 X81.51 Y49.896 E0.06741
G1 X80.733 Y48.832 E0.06773
G1 X74.357 Y42.473 E0.46291
G1 X73.406 Y41.8 E0.0599
G1 X72.347 Y41.3 E0.06023
G1 X71.216 Y40.994 E0.06023
G1 X70.055 Y40.891 E0.0599
G1 X51.712 Y40.892 E0.94298
G1 X50.753 Y40.976 E0.04945
G1 X49.817 Y41.196 E0.04945
G1 X48.45 Y41.801 E0.07686
G1 X47.252 Y42.696 E0.07686
G1 X45.024 Y44.924 E0.162
G1 X45.334 Y45.235 F18000
G1 F1800
G1 X41.562 Y49.006 E0.27421
G1 X41.002 Y49.693 E0.04557
G1 X40.545 Y50.453 E0.04557
G1 X40.055 Y51.76 E0.07175
G1 X39.87 Y53.143 E0.07175
G1 X39.869 Y71.572 E0.94738
G1 X40.071 Y73.083 E0.07836
G1 X40.63 Y74.494 E0.07804
G1 X41.511 Y75.723 E0.07773
G1 X47.544 Y81.759 E0.4387
G1 X48.231 Y82.319 E0.04557
G1 X48.99 Y82.776 E0.04557
G1 X50.297 Y83.266 E0.07175
G1 X51.681 Y83.451 E0.07175
G1 X70.109 Y83.452 E0.94737
G1 X71.62 Y83.251 E0.07836
G1 X73.026 Y82.694 E0.07773
G1 X74.26 Y81.81 E0.07804
G1 X80.296 Y75.777 E0.4387
G1 X80.857 Y75.091 E0.04557
G1 X81.314 Y74.331 E0.04557
G1 X81.808 Y73.006 E0.07269
G1 X81.989 Y71.604 E0.07269
G1 X81.989 Y53.169 E0.94769
G1 X81.897 Y52.201 E0.04999
G1 X81.657 Y51.264 E0.04968
G1 X81.137 Y50.129 E0.06419
G1 X80.401 Y49.12 E0.06419
G1 X74.095 Y42.827 E0.458
G1 X73.203 Y42.191 E0.05631
G1 X72.208 Y41.718 E0.05662
G1 X71.146 Y41.429 E0.05662
G1 X70.055 Y41.331 E0.05631
G1 X51.725 Y41.332 E0.94231
G1 X50.841 Y41.407 E0.04557
G1 X49.972 Y41.609 E0.04589
G1 X48.683 Y42.175 E0.07238
G1 X47.553 Y43.016 E0.07238
G1 X45.357 Y45.212 E0.15968
; INIT printing object Voron_Design_Cube_v7.stl id:0 copy 0
;WIPE_START
G1 F14400
G1 X41.562 Y49.006 E-0.63722
G1 X41.002 Y49.693 E-0.10527
G1 X40.545 Y50.453 E-0.10527
G1 X40.243 Y51.259 E-0.10223
;WIPE_END
G1 E-0.05 F1800
G1 Z0.48125 F18000
; printing object Voron_Design_Cube_v7.stl id:0 copy 0
G1 X54.696 Y55.398
G1 Z0.28125
G1 E1 F1800
; custom gcode: feature_gcode
; External perimeter
;Perimeter
SET_VELOCITY_LIMIT ACCEL=400 ACCEL_TO_DECEL=200 SQUARE_CORNER_VELOCITY=8

; Overhang perimeter
; custom gcode end: feature_gcode

;TYPE:Internal perimeter
G1 F1500
G1 X54.241 Y55.815 E0.03173
G1 X53.596 Y56.542 E0.04993
G1 X53.031 Y57.332 E0.04993
G1 X52.552 Y58.172 E0.04973
G1 X52.218 Y58.921 E0.04212
G1 X51.995 Y59.534 E0.03356
G1 X51.749 Y60.462 E0.04935
G1 X51.599 Y61.422 E0.04993
G1 X51.549 Y62.392 E0.04993
G1 X51.599 Y63.362 E0.04993
G1 X51.749 Y64.322 E0.04993
G1 X51.998 Y65.26 E0.04993
G1 X52.343 Y66.169 E0.04993
G1 X52.779 Y67.036 E0.04993
G1 X53.303 Y67.854 E0.04993
G1 X53.902 Y68.604 E0.04933
G1 X54.353 Y69.077 E0.03358
G1 X54.96 Y69.628 E0.04214
G1 X55.737 Y70.204 E0.04971
G1 X56.572 Y70.699 E0.04993
G1 X57.455 Y71.105 E0.04993
G1 X58.374 Y71.418 E0.04993
G1 X59.321 Y71.633 E0.04993
G1 X60.286 Y71.75 E0.04993
G1 X61.257 Y71.766 E0.04993
G1 X62.225 Y71.682 E0.04993
G1 X63.178 Y71.499 E0.04993
G1 X64.096 Y71.221 E0.04927
G1 X64.703 Y70.978 E0.03363
G1 X65.44 Y70.616 E0.04221
G1 X66.262 Y70.109 E0.04966
G1 X67.031 Y69.516 E0.04993
G1 X67.735 Y68.847 E0.04993
G1 X68.366 Y68.108 E0.04993
G1 X68.918 Y67.308 E0.04993
G1 X69.383 Y66.456 E0.04993
G1 X69.758 Y65.56 E0.04993
G1 X70.038 Y64.63 E0.04993
G1 X70.221 Y63.676 E0.04993
G1 X70.303 Y62.722 E0.0492
G1 X70.303 Y62.061 E0.03399
G1 X70.221 Y61.108 E0.0492
G1 X70.038 Y60.154 E0.04993
G1 X69.76 Y59.229 E0.04963
G1 X69.448 Y58.469 E0.04225
G1 X69.154 Y57.884 E0.03366
G1 X68.652 Y57.068 E0.04923
G1 X68.06 Y56.298 E0.04993
G1 X67.392 Y55.593 E0.04993
G1 X66.654 Y54.962 E0.04993
G1 X65.855 Y54.409 E0.04993
G1 X65.008 Y53.945 E0.04967
G1 X64.253 Y53.622 E0.04221
G1 X63.634 Y53.411 E0.03363
G1 X62.704 Y53.181 E0.04927
G1 X61.742 Y53.047 E0.04993
G1 X60.771 Y53.013 E0.04993
G1 X59.802 Y53.08 E0.04993
G1 X58.845 Y53.246 E0.04993
G1 X57.915 Y53.509 E0.0497
G1 X57.151 Y53.809 E0.04216
G1 X56.562 Y54.091 E0.0336
G1 X55.737 Y54.58 E0.04931
G1 X54.957 Y55.159 E0.04993
G1 X54.719 Y55.376 E0.01656
G1 X55.016 Y55.7 F18000
G1 F1500
G1 X54.555 Y56.124 E0.0322
G1 X53.941 Y56.817 E0.04759
G1 X53.401 Y57.569 E0.04759
G1 X52.945 Y58.371 E0.04744
G1 X52.626 Y59.085 E0.0402
G1 X52.415 Y59.666 E0.03175
G1 X52.18 Y60.553 E0.04717
G1 X52.037 Y61.467 E0.04759
G1 X51.989 Y62.392 E0.04759
G1 X52.037 Y63.316 E0.04759
G1 X52.18 Y64.231 E0.04759
G1 X52.417 Y65.126 E0.04759
G1 X52.746 Y65.991 E0.04759
G1 X53.162 Y66.818 E0.04759
G1 X53.661 Y67.598 E0.04759
G1 X54.233 Y68.315 E0.04716
G1 X54.66 Y68.762 E0.03176
G1 X55.239 Y69.287 E0.04022
G1 X55.98 Y69.837 E0.04743
G1 X56.777 Y70.309 E0.04759
G1 X57.618 Y70.696 E0.04759
G1 X58.494 Y70.994 E0.04759
G1 X59.397 Y71.2 E0.04759
G1 X60.316 Y71.311 E0.04759
G1 X61.241 Y71.326 E0.04759
G1 X62.164 Y71.246 E0.04759
G1 X63.073 Y71.071 E0.04759
G1 X63.95 Y70.806 E0.04711
G1 X64.524 Y70.576 E0.0318
G1 X65.227 Y70.231 E0.04026
G1 X66.012 Y69.747 E0.0474
G1 X66.745 Y69.181 E0.04759
G1 X67.416 Y68.544 E0.04759
G1 X68.017 Y67.84 E0.04759
G1 X68.543 Y67.078 E0.04759
G1 X68.986 Y66.265 E0.04759
G1 X69.344 Y65.411 E0.04759
G1 X69.611 Y64.525 E0.04759
G1 X69.785 Y63.616 E0.04759
G1 X69.863 Y62.704 E0.04706
G1 X69.863 Y62.08 E0.03206
G1 X69.785 Y61.168 E0.04706
G1 X69.611 Y60.259 E0.04759
G1 X69.345 Y59.376 E0.04737
G1 X69.048 Y58.651 E0.04029
G1 X68.77 Y58.098 E0.03182
G1 X68.29 Y57.318 E0.04708
G1 X67.726 Y56.584 E0.04759
G1 X67.089 Y55.912 E0.04759
G1 X66.386 Y55.31 E0.04759
G1 X65.624 Y54.784 E0.04759
G1 X64.816 Y54.341 E0.0474
G1 X64.095 Y54.033 E0.04026
G1 X63.51 Y53.833 E0.0318
G1 X62.62 Y53.613 E0.04711
G1 X61.704 Y53.485 E0.04759
G1 X60.778 Y53.453 E0.04759
G1 X59.855 Y53.517 E0.04759
G1 X58.943 Y53.675 E0.04759
G1 X58.055 Y53.926 E0.04742
G1 X57.327 Y54.212 E0.04023
G1 X56.769 Y54.479 E0.03177
G1 X55.98 Y54.946 E0.04714
G1 X55.237 Y55.498 E0.04759
G1 X55.04 Y55.679 E0.01374
G1 X55.337 Y56.003 F18000
G1 F1500
G1 X54.868 Y56.432 E0.03267
G1 X54.285 Y57.091 E0.04525
G1 X53.772 Y57.807 E0.04525
G1 X53.337 Y58.57 E0.04516
G1 X53.034 Y59.25 E0.03828
G1 X52.835 Y59.797 E0.02993
G1 X52.611 Y60.643 E0.04499
G1 X52.475 Y61.513 E0.04525
G1 X52.429 Y62.392 E0.04525
G1 X52.475 Y63.271 E0.04525
G1 X52.611 Y64.14 E0.04525
G1 X52.837 Y64.991 E0.04525
G1 X53.149 Y65.814 E0.04525
G1 X53.544 Y66.6 E0.04525
G1 X54.019 Y67.341 E0.04525
G1 X54.565 Y68.025 E0.04498
G1 X54.967 Y68.447 E0.02994
G1 X55.519 Y68.947 E0.03829
G1 X56.224 Y69.471 E0.04515
G1 X56.981 Y69.919 E0.04525
G1 X57.781 Y70.287 E0.04525
G1 X58.614 Y70.57 E0.04525
G1 X59.472 Y70.766 E0.04525
G1 X60.346 Y70.872 E0.04525
G1 X61.226 Y70.886 E0.04525
G1 X62.103 Y70.81 E0.04525
G1 X62.967 Y70.644 E0.04525
G1 X63.804 Y70.39 E0.04495
G1 X64.345 Y70.174 E0.02997
G1 X65.014 Y69.845 E0.03832
G1 X65.761 Y69.384 E0.04513
G1 X66.459 Y68.847 E0.04525
G1 X67.097 Y68.241 E0.04525
G1 X67.668 Y67.572 E0.04525
G1 X68.168 Y66.847 E0.04524
G1 X68.59 Y66.075 E0.04524
G1 X68.929 Y65.263 E0.04524
G1 X69.183 Y64.42 E0.04524
G1 X69.349 Y63.556 E0.04524
G1 X69.423 Y62.685 E0.04492
G1 X69.423 Y62.099 E0.03012
G1 X69.349 Y61.228 E0.04492
G1 X69.183 Y60.364 E0.04524
G1 X68.93 Y59.524 E0.04511
G1 X68.647 Y58.833 E0.03834
G1 X68.386 Y58.312 E0.02998
G1 X67.927 Y57.568 E0.04493
G1 X67.391 Y56.87 E0.04524
G1 X66.785 Y56.232 E0.04525
G1 X66.117 Y55.659 E0.04525
G1 X65.393 Y55.159 E0.04525
G1 X64.623 Y54.737 E0.04513
G1 X63.938 Y54.444 E0.03832
G1 X63.386 Y54.255 E0.02996
G1 X62.537 Y54.046 E0.04495
G1 X61.666 Y53.924 E0.04525
G1 X60.786 Y53.893 E0.04525
G1 X59.908 Y53.954 E0.04525
G1 X59.041 Y54.104 E0.04525
G1 X58.196 Y54.344 E0.04514
G1 X57.502 Y54.616 E0.0383
G1 X56.977 Y54.867 E0.02995
G1 X56.224 Y55.313 E0.04497
G1 X55.517 Y55.838 E0.04525
G1 X55.361 Y55.981 E0.01093
G1 X55.658 Y56.305 F18000
; custom gcode: feature_gcode
; External perimeter
;ExternalPerimeter
SET_VELOCITY_LIMIT ACCEL=300 ACCEL_TO_DECEL=200 SQUARE_CORNER_VELOCITY=8

; Perimeter
; custom gcode end: feature_gcode

;TYPE:External perimeter
G1 F1500
G1 X55.182 Y56.741 E0.03315
G1 X54.629 Y57.366 E0.0429
G1 X54.143 Y58.044 E0.0429
G1 X53.73 Y58.769 E0.04287
G1 X53.442 Y59.415 E0.03636
G1 X53.255 Y59.929 E0.02812
G1 X53.042 Y60.734 E0.04281
G1 X52.913 Y61.558 E0.0429
G1 X52.87 Y62.392 E0.0429
G1 X52.913 Y63.225 E0.0429
G1 X53.042 Y64.05 E0.0429
G1 X53.256 Y64.857 E0.0429
G1 X53.552 Y65.637 E0.0429
G1 X53.927 Y66.382 E0.0429
G1 X54.377 Y67.085 E0.0429
G1 X54.896 Y67.736 E0.04281
G1 X55.274 Y68.132 E0.02812
G1 X55.798 Y68.607 E0.03637
G1 X56.468 Y69.104 E0.04287
G1 X57.186 Y69.529 E0.0429
G1 X57.944 Y69.878 E0.0429
G1 X58.734 Y70.147 E0.0429
G1 X59.548 Y70.332 E0.0429
G1 X60.376 Y70.432 E0.0429
G1 X61.211 Y70.447 E0.0429
G1 X62.042 Y70.374 E0.0429
G1 X62.862 Y70.216 E0.0429
G1 X63.658 Y69.975 E0.0428
G1 X64.166 Y69.772 E0.02813
G1 X64.802 Y69.46 E0.03638
G1 X65.511 Y69.022 E0.04286
G1 X66.172 Y68.513 E0.0429
G1 X66.777 Y67.938 E0.0429
G1 X67.319 Y67.303 E0.0429
G1 X67.793 Y66.616 E0.0429
G1 X68.193 Y65.884 E0.0429
G1 X68.515 Y65.114 E0.0429
G1 X68.756 Y64.315 E0.0429
G1 X68.913 Y63.495 E0.0429
G1 X68.984 Y62.666 E0.04278
G1 X68.984 Y62.118 E0.02819
G1 X68.913 Y61.288 E0.04278
G1 X68.756 Y60.469 E0.0429
G1 X68.515 Y59.671 E0.04285
G1 X68.247 Y59.016 E0.03638
G1 X68.001 Y58.527 E0.02814
G1 X67.565 Y57.818 E0.04279
G1 X67.056 Y57.156 E0.0429
G1 X66.482 Y56.551 E0.0429
G1 X65.848 Y56.008 E0.0429
G1 X65.162 Y55.533 E0.0429
G1 X64.431 Y55.133 E0.04286
G1 X63.78 Y54.854 E0.03638
G1 X63.262 Y54.677 E0.02813
G1 X62.454 Y54.478 E0.0428
G1 X61.627 Y54.363 E0.0429
G1 X60.793 Y54.333 E0.0429
G1 X59.961 Y54.391 E0.0429
G1 X59.139 Y54.534 E0.0429
G1 X58.336 Y54.761 E0.04287
G1 X57.678 Y55.019 E0.03637
G1 X57.184 Y55.255 E0.02813
G1 X56.468 Y55.68 E0.0428
G1 X55.798 Y56.177 E0.0429
G1 X55.681 Y56.284 E0.00811
;WIPE_START
G1 X55.276 Y56.185 F18000
;WIPE_END
G1 X47.658 Y70.861
; custom gcode: feature_gcode
; External perimeter
;Perimeter
SET_VELOCITY_LIMIT ACCEL=400 ACCEL_TO_DECEL=200 SQUARE_CORNER_VELOCITY=8

; Overhang perimeter
; custom gcode end: feature_gcode

;TYPE:Internal perimeter
G1 F1500
G1 X47.658 Y53.922 E0.87079
G1 X52.46 Y49.12 E0.34913
G1 X69.399 Y49.12 E0.87079
G1 X74.201 Y53.922 E0.34913
G1 X74.201 Y70.861 E0.87079
G1 X69.399 Y75.664 E0.34913
G1 X52.46 Y75.664 E0.87079
G1 X47.68 Y70.884 E0.34749
;WIPE_START
G1 F14400
G1 X47.67 Y62.884 E-0.95
;WIPE_END
G1 E-0.05 F1800
G1 Z0.48125 F18000
G1 X69.581 Y48.681
G1 Z0.28125
G1 E1 F1800
G1 F1500
G1 X74.641 Y53.74 E0.36785
G1 X74.641 Y71.043 E0.88951
G1 X69.581 Y76.103 E0.36785
G1 X52.278 Y76.103 E0.88951
G1 X47.218 Y71.043 E0.36785
G1 X47.218 Y53.74 E0.88951
G1 X52.278 Y48.681 E0.36785
G1 X69.549 Y48.681 E0.88786
;WIPE_START
G1 F14400
G1 X74.641 Y53.74 E-0.85242
G1 X74.641 Y54.562 E-0.09758
;WIPE_END
G1 E-0.05 F1800
G1 Z0.48125 F18000
G1 X46.778 Y71.226
G1 Z0.28125
G1 E1 F1800
G1 F1500
G1 X46.778 Y53.558 E0.90823
G1 X52.096 Y48.241 E0.38658
G1 X69.763 Y48.241 E0.90823
G1 X69.872 Y48.35 E0.0079
G1 X75.08 Y53.558 E0.37867
G1 X75.08 Y71.226 E0.90823
G1 X69.763 Y76.543 E0.38658
G1 X52.096 Y76.543 E0.90823
G1 X46.801 Y71.248 E0.38493
;WIPE_START
G1 F14400
G1 X46.791 Y63.248 E-0.95
;WIPE_END
G1 E-0.05 F1800
G1 Z0.48125 F18000
G1 X69.945 Y47.801
G1 Z0.28125
G1 E1 F1800
; custom gcode: feature_gcode
; External perimeter
;ExternalPerimeter
SET_VELOCITY_LIMIT ACCEL=300 ACCEL_TO_DECEL=200 SQUARE_CORNER_VELOCITY=8

; Perimeter
; custom gcode end: feature_gcode

;TYPE:External perimeter
G1 F1500
G1 X70.183 Y48.039 E0.01727
G1 X75.52 Y53.376 E0.38804
G1 X75.52 Y71.408 E0.92696
G1 X69.945 Y76.982 E0.4053
G1 X51.914 Y76.982 E0.92696
G1 X46.339 Y71.408 E0.4053
G1 X46.339 Y53.376 E0.92696
G1 X51.914 Y47.801 E0.4053
M73 P0 R92
G1 X69.913 Y47.801 E0.92531
;WIPE_START
G1 X69.945 Y48.137 F18000
;WIPE_END
G1 X74.135 Y54.23
; custom gcode: feature_gcode
; External perimeter
;SolidInfill
SET_VELOCITY_LIMIT ACCEL=3800 ACCEL_TO_DECEL=2000 SQUARE_CORNER_VELOCITY=8

; Bridge infill
; custom gcode end: feature_gcode

;TYPE:Solid infill
;WIDTH:0.486761
G1 F3000
G1 X69.281 Y49.375 E0.34358
G1 X68.659 Y49.375 E0.03112
G1 X73.946 Y54.662 E0.37421
G1 X73.946 Y55.284 E0.03112
G1 X68.037 Y49.375 E0.41821
M73 P1 R92
G1 X67.415 Y49.375 E0.03112
G1 X73.946 Y55.906 E0.46222
G1 X73.946 Y56.528 E0.03112
G1 X66.794 Y49.375 E0.50622
G1 X66.172 Y49.375 E0.03112
G1 X73.946 Y57.149 E0.55023
G1 X73.946 Y57.771 E0.03112
G1 X65.55 Y49.375 E0.59423
G1 X64.928 Y49.375 E0.03112
G1 X73.946 Y58.393 E0.63824
G1 X73.946 Y59.015 E0.03112
G1 X64.307 Y49.375 E0.68224
G1 X63.685 Y49.375 E0.03112
G1 X73.946 Y59.636 E0.72625
G1 X73.946 Y60.258 E0.03112
G1 X63.063 Y49.375 E0.77025
G1 X62.441 Y49.375 E0.03112
G1 X73.946 Y60.88 E0.81426
G1 X73.946 Y61.502 E0.03112
