; generated by SuperSlicer 2.3.57 on 2022-04-05 at 14:17:56 UTC


;
;

;
;
; 

; external perimeters extrusion width = 0.42mm
; perimeters extrusion width = 0.45mm
; infill extrusion width = 0.72mm
; solid infill extrusion width = 0.56mm
; top infill extrusion width = 0.42mm

; object:{"name":"3DBenchy","id":"3DBenchy.stl id:0 copy 0","object_center":[62.870854,62.870854,0.000000],"boundingbox_center":[62.870854,62.870854,24.000000],"boundingbox_size":[50.826130,50.826130,48.000000]}
; plater:{"center":[62.870854,62.870854,0.000000],"boundingbox_center":[62.870854,62.870854,24.000000],"boundingbox_size":[50.826130,50.826130,48.000000]}

M73 P0 R90
;TYPE:Custom
; custom gcode: start_gcode
PRINT_START BED=50 HOTEND=205 CHAMBER=0
; custom gcode end: start_gcode
G21 ; set units to millimeters
G90 ; use absolute coordinates
M83 ; use relative distances for extrusion
; custom gcode: start_filament_gcode
; Filament gcode
; custom gcode end: start_filament_gcode
M109 S205 ; set temperature and wait for it to be reached
M190 S50 ; set bed temperature and wait for it to be reached
;LAYER_CHANGE
;Z:0.25
;HEIGHT:0.25
G1 E-2 F2400
G1 Z0.3 F27000
G1 Z0.55
G1 X44.171 Y44.146
G1 Z0.25
G1 E2.02 F2400
; custom gcode: feature_gcode
; External perimeter
;Skirt
SET_VELOCITY_LIMIT ACCEL=5000 ACCEL_TO_DECEL=2500 SQUARE_CORNER_VELOCITY=8

; Support material
; custom gcode end: feature_gcode

;TYPE:Skirt
;WIDTH:0.452
G1 F1800
G1 X43.101 Y45.403 E0.06427
G1 X42.166 Y46.972 E0.07107
G1 X41.782 Y47.887 E0.03862
G1 X41.432 Y49.033 E0.04663
G1 X40.943 Y51.441 E0.09563
G1 X40.703 Y53.898 E0.09607
G1 X40.71 Y56.294 E0.09326
G1 X40.959 Y58.713 E0.09466
G1 X41.465 Y61.151 E0.09691
G1 X42.171 Y63.403 E0.09183
G1 X43.025 Y65.428 E0.08553
G1 X44.11 Y67.456 E0.08952
G1 X45.213 Y69.139 E0.0783
G1 X47.008 Y71.353 E0.11095
G1 X48.3 Y72.665 E0.07166
G1 X66.515 Y88.75 E0.94577
G1 X67.407 Y89.455 E0.04425
G1 X68.73 Y90.249 E0.06006
G1 X69.814 Y90.738 E0.04628
G1 X71.136 Y91.143 E0.05378
G1 X72.554 Y91.379 E0.05597
G1 X74.008 Y91.418 E0.05658
G1 X75.411 Y91.263 E0.05496
G1 X76.585 Y90.984 E0.04697
G1 X77.976 Y90.469 E0.05774
G1 X79.499 Y89.619 E0.06787
G1 X80.27 Y89.059 E0.03709
G1 X81.051 Y88.372 E0.04048
G1 X88.413 Y81.008 E0.40526
G1 X89.22 Y80.064 E0.04834
G1 X89.945 Y78.986 E0.05056
G1 X90.542 Y77.814 E0.05117
G1 X90.979 Y76.616 E0.04963
G1 X91.234 Y75.558 E0.04237
G1 X91.406 Y74.211 E0.05286
G1 X91.4 Y72.821 E0.05407
G1 X91.231 Y71.556 E0.04967
G1 X90.958 Y70.464 E0.04381
G1 X90.483 Y69.201 E0.05255
G1 X89.768 Y67.877 E0.05856
G1 X88.752 Y66.518 E0.06602
G1 X73.017 Y48.677 E0.92584
G1 X71.771 Y47.395 E0.06957
G1 X69.998 Y45.858 E0.09134
G1 X68.22 Y44.586 E0.08509
G1 X66.393 Y43.51 E0.08252
G1 X64.452 Y42.586 E0.08366
G1 X62.704 Y41.927 E0.07272
G1 X61.213 Y41.482 E0.06054
G1 X59.202 Y41.04 E0.08014
G1 X57.151 Y40.769 E0.08053
G1 X55.049 Y40.677 E0.08189
G1 X53.076 Y40.757 E0.07683
G1 X50.345 Y41.134 E0.10728
G1 X48.385 Y41.61 E0.0785
G1 X46.935 Y42.184 E0.0607
G1 X45.489 Y43.037 E0.06534
G1 X44.186 Y44.133 E0.06628
G1 X44.447 Y44.433 F27000
G1 F1800
G1 X43.417 Y45.646 E0.06196
G1 X42.51 Y47.176 E0.06919
G1 X42.149 Y48.045 E0.03663
G1 X41.809 Y49.164 E0.04553
G1 X41.334 Y51.524 E0.09368
G1 X41.1 Y53.933 E0.0942
G1 X41.109 Y56.298 E0.09202
G1 X41.353 Y58.655 E0.09224
G1 X41.853 Y61.061 E0.09565
G1 X42.548 Y63.274 E0.09027
G1 X43.399 Y65.286 E0.08502
G1 X44.46 Y67.265 E0.08737
G1 X45.541 Y68.913 E0.07671
G1 X47.313 Y71.097 E0.10946
G1 X48.582 Y72.384 E0.07035
G1 X66.775 Y88.448 E0.94456
G1 X67.624 Y89.12 E0.04217
G1 X68.595 Y89.725 E0.04451
G1 X69.953 Y90.364 E0.05841
G1 X71.23 Y90.756 E0.05199
G1 X72.6 Y90.983 E0.05406
G1 X74.001 Y91.02 E0.05455
G1 X75.36 Y90.868 E0.05321
G1 X76.486 Y90.598 E0.04507
G1 X77.836 Y90.095 E0.05605
G1 X79.28 Y89.286 E0.06442
G1 X80.778 Y88.082 E0.07478
G1 X88.114 Y80.744 E0.40385
G1 X88.893 Y79.837 E0.04654
G1 X89.592 Y78.801 E0.04863
G1 X90.173 Y77.662 E0.04975
G1 X90.595 Y76.509 E0.0478
G1 X90.84 Y75.496 E0.04057
G1 X91.008 Y74.185 E0.05143
G1 X91.002 Y72.84 E0.05235
G1 X90.837 Y71.619 E0.04796
G1 X90.572 Y70.566 E0.04226
G1 X90.108 Y69.339 E0.05105
G1 X89.423 Y68.077 E0.05587
G1 X88.449 Y66.776 E0.06328
G1 X72.721 Y48.943 E0.92537
G1 X71.496 Y47.683 E0.06841
G1 X69.748 Y46.169 E0.09
G1 X68 Y44.919 E0.08364
G1 X66.203 Y43.86 E0.08119
G1 X64.294 Y42.952 E0.08227
G1 X62.57 Y42.302 E0.07171
G1 X61.116 Y41.868 E0.05904
G1 X59.139 Y41.434 E0.07878
G1 X57.113 Y41.166 E0.07955
G1 X55.048 Y41.075 E0.08044
G1 X53.116 Y41.153 E0.07526
G1 X50.428 Y41.524 E0.10559
G1 X48.517 Y41.986 E0.07653
G1 X47.127 Y42.534 E0.05815
G1 X45.729 Y43.355 E0.06311
G1 X44.462 Y44.42 E0.06439
G1 X44.724 Y44.719 F27000
G1 F1800
G1 X43.729 Y45.894 E0.05991
G1 X42.855 Y47.377 E0.06699
G1 X42.516 Y48.201 E0.03467
G1 X42.188 Y49.287 E0.04416
G1 X41.724 Y51.606 E0.09203
G1 X41.498 Y53.953 E0.09179
G1 X41.507 Y56.293 E0.09105
G1 X41.748 Y58.603 E0.0904
G1 X42.243 Y60.977 E0.09438
G1 X42.925 Y63.145 E0.08844
G1 X43.772 Y65.143 E0.08447
G1 X44.805 Y67.066 E0.08497
G1 X45.868 Y68.686 E0.0754
G1 X47.612 Y70.834 E0.10769
G1 X48.869 Y72.107 E0.06961
G1 X67.039 Y88.15 E0.94337
G1 X67.835 Y88.782 E0.03955
G1 X68.77 Y89.367 E0.04292
G1 X70.077 Y89.986 E0.05631
G1 X71.317 Y90.367 E0.05045
G1 X72.638 Y90.586 E0.05214
G1 X73.994 Y90.621 E0.05279
G1 X75.308 Y90.472 E0.05145
G1 X76.386 Y90.212 E0.04319
G1 X77.694 Y89.722 E0.05435
G1 X79.268 Y88.812 E0.07076
G1 X80.504 Y87.793 E0.06233
G1 X87.82 Y80.475 E0.40274
G1 X88.57 Y79.603 E0.04474
G1 X89.235 Y78.621 E0.04616
G1 X89.802 Y77.517 E0.04831
G1 X90.21 Y76.409 E0.04597
G1 X90.447 Y75.433 E0.03907
G1 X90.61 Y74.167 E0.0497
G1 X90.604 Y72.859 E0.05089
G1 X90.443 Y71.675 E0.04652
G1 X90.187 Y70.668 E0.04045
G1 X89.733 Y69.479 E0.04953
G1 X89.083 Y68.284 E0.05293
G1 X88.145 Y67.033 E0.06084
G1 X72.426 Y49.21 E0.92491
G1 X71.226 Y47.976 E0.06698
G1 X69.505 Y46.484 E0.08867
G1 X67.781 Y45.251 E0.08246
G1 X66.013 Y44.211 E0.07987
G1 X64.136 Y43.318 E0.08089
G1 X62.442 Y42.68 E0.07042
G1 X61.019 Y42.255 E0.05782
G1 X59.076 Y41.827 E0.07742
G1 X57.082 Y41.563 E0.07829
G1 X55.047 Y41.474 E0.07926
G1 X53.155 Y41.55 E0.0737
G1 X50.511 Y41.914 E0.1039
G1 X48.648 Y42.363 E0.07456
G1 X47.312 Y42.887 E0.05588
G1 X45.957 Y43.682 E0.06115
G1 X44.739 Y44.707 E0.06193
; INIT printing object 3DBenchy.stl id:0 copy 0
G1 E-2 F2400
G1 Z0.55 F27000
; printing object 3DBenchy.stl id:0 copy 0
G1 X80.108 Y74.392
G1 Z0.25
G1 E2.02 F2400
; custom gcode: feature_gcode
; External perimeter
;Perimeter
SET_VELOCITY_LIMIT ACCEL=800 ACCEL_TO_DECEL=400 SQUARE_CORNER_VELOCITY=8

; Overhang perimeter
; custom gcode end: feature_gcode

;TYPE:Internal perimeter
G1 F1800
G1 X79.999 Y74.059 E0.01366
G1 X79.85 Y73.714 E0.01464
G1 X79.643 Y73.348 E0.01636
G1 X79.41 Y73.022 E0.01559
G1 X79.028 Y72.597 E0.02225
G1 X78.625 Y72.243 E0.02085
G1 X78.328 Y72.035 E0.01412
G1 X78.007 Y71.85 E0.01441
G1 X77.532 Y71.655 E0.01999
G1 X77.019 Y71.54 E0.02048
G1 X76.467 Y71.517 E0.0215
G1 X75.493 Y71.687 E0.03847
G1 X75.798 Y71.246 E0.02087
G1 X75.947 Y70.67 E0.02316
G1 X75.89 Y70.039 E0.02467
G1 X75.649 Y69.501 E0.02295
G1 X75.39 Y69.163 E0.01657
G1 X75.08 Y68.879 E0.01635
G1 X74.616 Y68.622 E0.02065
G1 X74.151 Y68.512 E0.01858
G1 X73.644 Y68.515 E0.01976
G1 X72.777 Y68.804 E0.03555
G1 X72.972 Y68.009 E0.03183
G1 X72.986 Y67.572 E0.01703
G1 X72.904 Y67.093 E0.01892
G1 X72.782 Y66.735 E0.01472
G1 X72.58 Y66.334 E0.01747
G1 X72.353 Y65.988 E0.01611
G1 X71.895 Y65.46 E0.0272
G1 X71.345 Y64.989 E0.0282
G1 X70.756 Y64.653 E0.02637
G1 X70.243 Y64.478 E0.0211
G1 X69.833 Y64.401 E0.01623
G1 X69.635 Y64.397 E0.00772
G1 X69.66 Y64.101 E0.01159
G1 X69.585 Y63.648 E0.01785
G1 X69.4 Y63.239 E0.01747
G1 X69.147 Y62.906 E0.01628
G1 X68.616 Y62.447 E0.02732
G1 X67.971 Y61.793 E0.03574
G1 X67.373 Y61.299 E0.03021
G1 X66.78 Y60.935 E0.02706
G1 X66.438 Y60.804 E0.01426
G1 X66.437 Y60.384 E0.01637
G1 X66.361 Y59.944 E0.01736
G1 X66.188 Y59.491 E0.01886
G1 X65.84 Y58.967 E0.02452
G1 X65.362 Y58.548 E0.02473
G1 X64.938 Y58.321 E0.01871
G1 X64.495 Y58.179 E0.01812
G1 X64.34 Y58.163 E0.00606
G1 X64.082 Y57.583 E0.02471
G1 X63.465 Y57.093 E0.03066
G1 X62.934 Y56.943 E0.02148
G1 X62.796 Y56.484 E0.01864
G1 X62.62 Y56.182 E0.01362
G1 X62.966 Y55.922 E0.01683
G1 X63.311 Y55.498 E0.02128
G1 X63.556 Y54.947 E0.02346
G1 X63.629 Y54.339 E0.02386
G1 X64.591 Y55.219 E0.05077
G1 X65.228 Y55.893 E0.0361
G1 X80.689 Y73.36 E0.90785
G1 X80.825 Y73.547 E0.00899
G1 X80.793 Y73.654 E0.00435
G1 X80.766 Y73.71 E0.0024
G1 X80.737 Y73.753 E0.00204
G1 X80.656 Y73.843 E0.0047
G1 X80.122 Y74.378 E0.02943
G1 E-2 F2400
G1 Z0.55 F27000
G1 X69.864 Y70.754
G1 Z0.25
G1 E2.02 F2400
G1 F1800
G1 X70.262 Y70.409 E0.02051
G1 X70.622 Y69.838 E0.02628
G1 X70.743 Y69.866 E0.00482
G1 X71.18 Y69.866 E0.01703
G1 X71.416 Y69.809 E0.00946
G1 X71.556 Y70.059 E0.01115
G1 X70.446 Y71.17 E0.06113
G1 X69.881 Y70.766 E0.02705
G1 E-2 F2400
G1 Z0.55 F27000
G1 X73.261 Y73.898
G1 Z0.25
G1 E2.02 F2400
G1 F1800
G1 X74.181 Y72.966 E0.05094
G1 X74.433 Y73.108 E0.01123
G1 X74.4 Y73.238 E0.00523
G1 X74.418 Y73.814 E0.02241
G1 X74.755 Y74.843 E0.04216
G1 X74.1 Y74.539 E0.02808
G1 X73.646 Y74.452 E0.01802
G1 X73.272 Y73.914 E0.02549
G1 X76.185 Y75.534 F27000
G1 F1800
G1 X75.736 Y76.003 E0.02526
G1 X75.495 Y76.2 E0.01212
G1 X75.217 Y75.447 E0.0312
G1 X75.439 Y75.278 E0.01087
G1 X75.576 Y75.375 E0.00654
G1 X76.165 Y75.529 E0.02369
G1 E-2 F2400
G1 Z0.55 F27000
G1 X61.948 Y56.037
G1 Z0.25
G1 E2.02 F2400
G1 F1800
G1 X62.398 Y55.85 E0.01898
G1 X62.688 Y55.633 E0.0141
G1 X62.968 Y55.288 E0.01731
G1 X63.168 Y54.84 E0.01906
G1 X63.238 Y54.253 E0.02301
G1 X63.11 Y53.777 E0.0192
G1 X63.332 Y53.625 E0.01045
G1 X63.569 Y53.8 E0.01149
G1 X64.091 Y54.221 E0.02609
G1 X64.871 Y54.935 E0.04115
G1 X65.522 Y55.624 E0.03692
G1 X81 Y73.111 E0.90885
G1 X81.134 Y73.296 E0.00891
G1 X81.166 Y73.36 E0.0028
G1 X81.195 Y73.448 E0.00358
G1 X81.209 Y73.525 E0.00303
G1 X81.211 Y73.608 E0.00324
G1 X81.203 Y73.672 E0.00251
G1 X81.166 Y73.798 E0.00513
G1 X81.111 Y73.911 E0.00486
G1 X81.051 Y73.998 E0.00414
G1 X80.947 Y74.117 E0.00614
G1 X79.861 Y75.202 E0.05975
G1 X79.732 Y74.525 E0.02684
G1 X79.626 Y74.2 E0.01331
G1 X79.493 Y73.892 E0.01307
G1 X79.306 Y73.562 E0.01473
G1 X79.099 Y73.271 E0.01391
G1 X78.747 Y72.881 E0.02045
G1 X78.378 Y72.557 E0.01911
G1 X78.114 Y72.371 E0.01259
G1 X77.832 Y72.208 E0.01267
G1 X77.412 Y72.037 E0.01765
G1 X76.966 Y71.936 E0.01778
G1 X76.493 Y71.917 E0.01844
G1 X75.922 Y72.017 E0.02257
G1 X75.407 Y72.236 E0.02179
G1 X75.137 Y72.494 E0.01454
G1 X74.899 Y72.882 E0.01769
G1 X74.8 Y73.281 E0.016
G1 X74.815 Y73.744 E0.01804
G1 X74.971 Y74.222 E0.01956
G1 X75.314 Y74.699 E0.02287
G1 X75.748 Y75.008 E0.02074
G1 X76.323 Y75.158 E0.02314
G1 X76.528 Y75.135 E0.00804
G1 X76.611 Y75.261 E0.00588
G1 X76.666 Y75.4 E0.00581
G1 X76.571 Y75.633 E0.00979
G1 X76.525 Y75.711 E0.00353
G1 X76.374 Y75.912 E0.00978
G1 X76.007 Y76.296 E0.02068
G1 X75.691 Y76.554 E0.01587
G1 X75.606 Y76.608 E0.0039
G1 X75.456 Y76.681 E0.00653
G1 X75.418 Y76.694 E0.00154
G1 X75.372 Y76.702 E0.00182
G1 X75.186 Y76.693 E0.00723
G1 X75.052 Y76.151 E0.02174
G1 X74.912 Y75.77 E0.01578
G1 X74.678 Y75.393 E0.01727
G1 X74.332 Y75.086 E0.01799
G1 X73.977 Y74.921 E0.01524
G1 X73.631 Y74.855 E0.01373
G1 X73.334 Y74.862 E0.01157
G1 X73.259 Y74.593 E0.01089
G1 X72.982 Y74.195 E0.01885
G1 X72.664 Y73.935 E0.01599
G1 X74.631 Y71.944 E0.10895
G1 X75.129 Y71.513 E0.02564
G1 X75.43 Y71.078 E0.02059
G1 X75.544 Y70.637 E0.01771
G1 X75.499 Y70.141 E0.01939
G1 X75.305 Y69.706 E0.01854
G1 X75.095 Y69.433 E0.0134
M73 P0 R89
G1 X74.846 Y69.205 E0.01316
G1 X74.471 Y68.997 E0.01668
G1 X74.106 Y68.911 E0.01459
G1 X73.709 Y68.913 E0.01545
G1 X73.167 Y69.093 E0.02223
G1 X72.716 Y69.432 E0.02197
G1 X72.159 Y70.02 E0.03151
G1 X70.451 Y71.728 E0.09401
G1 X70.158 Y71.454 E0.01564
G1 X69.82 Y71.212 E0.01619
G1 X69.354 Y71.018 E0.01964
G1 X69.366 Y70.865 E0.00597
G1 X69.307 Y70.601 E0.01055
G1 X69.598 Y70.458 E0.01264
G1 X69.956 Y70.146 E0.01847
G1 X70.227 Y69.718 E0.01971
G1 X70.294 Y69.351 E0.01453
G1 X70.789 Y69.468 E0.01978
G1 X71.133 Y69.468 E0.01339
G1 X71.477 Y69.385 E0.01375
G1 X71.805 Y69.219 E0.01433
G1 X72.17 Y68.894 E0.01902
G1 X72.469 Y68.389 E0.02284
G1 X72.576 Y67.955 E0.01739
G1 X72.587 Y67.599 E0.01384
G1 X72.517 Y67.192 E0.0161
G1 X72.414 Y66.89 E0.01242
G1 X72.234 Y66.533 E0.01553
G1 X72.035 Y66.229 E0.01417
G1 X71.613 Y65.744 E0.02501
G1 X71.114 Y65.316 E0.02558
G1 X70.592 Y65.017 E0.02341
G1 X70.142 Y64.864 E0.0185
G1 X69.792 Y64.799 E0.01384
G1 X69.11 Y64.785 E0.02655
G1 X69.227 Y64.49 E0.01237
G1 X69.259 Y64.116 E0.01458
G1 X69.201 Y63.764 E0.01389
G1 X69.056 Y63.444 E0.01366
G1 X68.855 Y63.18 E0.01292
G1 X68.344 Y62.738 E0.02632
G1 X67.702 Y62.087 E0.03557
G1 X67.141 Y61.623 E0.02833
G1 X66.604 Y61.294 E0.02453
G1 X65.983 Y61.056 E0.02586
G1 X66.04 Y60.809 E0.00989
G1 X66.039 Y60.418 E0.0152
G1 X65.975 Y60.05 E0.01454
G1 X65.832 Y59.675 E0.01563
G1 X65.537 Y59.231 E0.02073
G1 X65.134 Y58.877 E0.02089
G1 X64.782 Y58.689 E0.01551
G1 X64.413 Y58.571 E0.0151
G1 X64.07 Y58.536 E0.01343
G1 X63.757 Y57.834 E0.0299
G1 X63.28 Y57.455 E0.02375
G1 X62.833 Y57.328 E0.01806
G1 X62.532 Y57.311 E0.01175
G1 X62.538 Y57.011 E0.01166
G1 X62.428 Y56.644 E0.01494
G1 X62.239 Y56.318 E0.01465
G1 X61.962 Y56.051 E0.01496
G1 E-2 F2400
G1 Z0.55 F27000
G1 X58.387 Y52.888
G1 Z0.25
G1 E2.02 F2400
G1 F1800
G1 X58.399 Y52.483 E0.01578
G1 X58.21 Y51.694 E0.03158
G1 X58.825 Y51.855 E0.02475
G1 X59.342 Y52.013 E0.02104
G1 X59.951 Y52.227 E0.02513
G1 X59.047 Y52.592 E0.03795
G1 X58.405 Y52.88 E0.02737
G1 X60.831 Y52.464 F27000
G1 F1800
G1 X60.405 Y52.528 E0.01674
G1 X59.969 Y52.65 E0.01761
G1 X59.203 Y52.958 E0.03216
G1 X57.752 Y53.61 E0.06191
G1 X57.987 Y52.946 E0.02744
G1 X57.999 Y52.524 E0.01641
G1 X57.905 Y52.131 E0.01573
G1 X57.614 Y51.677 E0.02101
G1 X57.301 Y51.394 E0.01641
G1 X57.424 Y51.139 E0.01099
G1 X57.806 Y51.201 E0.01509
G1 X58.366 Y51.323 E0.02231
G1 X58.934 Y51.472 E0.02284
G1 X59.467 Y51.635 E0.02167
G1 X60.04 Y51.836 E0.02366
G1 X60.606 Y52.064 E0.02374
G1 X60.87 Y52.184 E0.01128
G1 X60.833 Y52.445 E0.01022
G1 E-2 F2400
G1 Z0.55 F27000
G1 X62.036 Y57.782
G1 Z0.25
G1 E2.02 F2400
G1 F1800
G1 X62.129 Y57.485 E0.01209
G1 X62.139 Y57.066 E0.01633
G1 X62.06 Y56.803 E0.01067
G1 X61.922 Y56.566 E0.01067
G1 X61.659 Y56.312 E0.01423
G1 X61.347 Y56.153 E0.01366
G1 X61.093 Y56.096 E0.01012
G1 X60.82 Y56.1 E0.01062
G1 X60.48 Y56.213 E0.01393
G1 X60.245 Y56.379 E0.01121
G1 X60.014 Y56.638 E0.01352
G1 X59.885 Y56.867 E0.01023
G1 X59.779 Y57.174 E0.01265
G1 X59.457 Y58.465 E0.05177
G1 X58.205 Y58.778 E0.05024
G1 X58.566 Y57.931 E0.03582
G1 X59.283 Y56.37 E0.06685
G1 X59.533 Y55.731 E0.02671
G1 X59.628 Y55.676 E0.00427
G1 X60.004 Y55.543 E0.01554
G1 X60.554 Y55.297 E0.02344
G1 X60.663 Y55.267 E0.0044
G1 X60.735 Y55.262 E0.00282
G1 X60.795 Y55.27 E0.00233
G1 X60.871 Y55.3 E0.00317
G1 X61.272 Y55.529 E0.018
G1 X61.665 Y55.633 E0.0158
G1 X61.96 Y55.601 E0.01156
G1 X62.199 Y55.501 E0.01007
G1 X62.41 Y55.344 E0.01024
G1 X62.626 Y55.077 E0.01335
G1 X62.779 Y54.733 E0.01467
G1 X62.833 Y54.282 E0.01767
G1 X62.727 Y53.889 E0.01586
G1 X62.459 Y53.52 E0.01776
G1 X62.075 Y53.231 E0.0187
G1 X61.595 Y52.999 E0.02073
G1 X61.218 Y52.896 E0.01522
G1 X60.76 Y52.878 E0.01782
G1 X60.489 Y52.918 E0.0107
G1 X60.098 Y53.027 E0.01579
G1 X59.359 Y53.325 E0.031
G1 X58.239 Y53.828 E0.04779
G1 X56.032 Y54.875 E0.09507
G1 X55.324 Y55.229 E0.03081
G1 X54.99 Y55.366 E0.01405
G1 X54.963 Y55.059 E0.01197
G1 X54.85 Y54.754 E0.01269
G1 X54.565 Y54.332 E0.01981
G1 X55.112 Y54.261 E0.02145
G1 X56.143 Y54.101 E0.04064
G1 X56.523 Y54.009 E0.01519
G1 X56.857 Y53.869 E0.01412
G1 X57.215 Y53.595 E0.01755
G1 X57.445 Y53.282 E0.01512
G1 X57.59 Y52.872 E0.01693
G1 X57.599 Y52.566 E0.01192
G1 X57.533 Y52.289 E0.01105
G1 X57.307 Y51.936 E0.01632
G1 X56.835 Y51.508 E0.0248
G1 X55.874 Y50.553 E0.05274
G1 X56.94 Y50.658 E0.0417
G1 X57.88 Y50.809 E0.03707
G1 X58.459 Y50.935 E0.02306
G1 X59.043 Y51.088 E0.02347
G1 X59.591 Y51.256 E0.02231
G1 X60.181 Y51.464 E0.02434
