; generated by SuperSlicer 2.3.57 on 2022-04-06 at 12:28:35 UTC


;
;

;
;
; 

; external perimeters extrusion width = 0.40mm
; perimeters extrusion width = 0.45mm
; infill extrusion width = 0.72mm
; solid infill extrusion width = 0.56mm
; top infill extrusion width = 0.42mm
; first layer extrusion width = 0.50mm

; object:{"name":"Voron_Design_Cube_v7","id":"Voron_Design_Cube_v7.stl id:0 copy 0","object_center":[56.188416,47.858525,0.000000],"boundingbox_center":[56.188416,47.858525,15.000000],"boundingbox_size":[30.000000,30.000000,30.000000]}
; plater:{"center":[56.188416,47.858525,0.000000],"boundingbox_center":[56.188416,47.858525,15.000000],"boundingbox_size":[30.000000,30.000000,30.000000]}

M73 P0 R67
;TYPE:Custom
; custom gcode: start_gcode
PRINT_START BED=50 HOTEND=200 CHAMBER=0
; custom gcode end: start_gcode
G21 ; set units to millimeters
G90 ; use absolute coordinates
M83 ; use relative distances for extrusion
; custom gcode: start_filament_gcode
; Filament gcode
; custom gcode end: start_filament_gcode
M109 S200 ; set temperature and wait for it to be reached
M190 S50 ; set bed temperature and wait for it to be reached
;LAYER_CHANGE
;Z:0.25
;HEIGHT:0.25
G1 E-2 F1800
G1 Z0.25 F27000
G1 Z0.55
G1 X37.631 Y35.055
G1 Z0.25
G1 E2 F1800
; custom gcode: feature_gcode
; External perimeter
;Skirt
SET_VELOCITY_LIMIT ACCEL=5000 ACCEL_TO_DECEL=2500 SQUARE_CORNER_VELOCITY=8

; Support material
; custom gcode end: feature_gcode

;TYPE:Skirt
;WIDTH:0.45
G1 X37.2 Y35.571 E0.02605
G1 X36.84 Y36.146 E0.02627
G1 X36.41 Y37.243 E0.04563
G1 X36.249 Y38.405 E0.04542
G1 X36.248 Y57.247 E0.72965
G1 X36.392 Y58.406 E0.04521
G1 X36.84 Y59.572 E0.04839
G1 X37.564 Y60.591 E0.04839
G1 X43.385 Y66.416 E0.31888
G1 X43.901 Y66.847 E0.02605
G1 X44.476 Y67.207 E0.02627
G1 X45.573 Y67.637 E0.04563
G1 X46.735 Y67.798 E0.04542
G1 X65.577 Y67.799 E0.72965
G1 X66.735 Y67.655 E0.04521
G1 X67.902 Y67.207 E0.04839
G1 X68.92 Y66.483 E0.04839
G1 X74.745 Y60.662 E0.31888
G1 X75.177 Y60.146 E0.02605
G1 X75.537 Y59.571 E0.02627
G1 X75.97 Y58.463 E0.04606
G1 X76.129 Y57.29 E0.04584
G1 X76.129 Y38.448 E0.72965
G1 X76.067 Y37.717 E0.0284
G1 X75.898 Y37.003 E0.0284
G1 X75.472 Y36.029 E0.04117
G1 X74.846 Y35.163 E0.04138
G1 X68.833 Y29.156 E0.32913
G1 X68.112 Y28.63 E0.03458
G1 X67.303 Y28.238 E0.03479
G1 X66.443 Y28 E0.03458
G1 X65.548 Y27.918 E0.03479
G1 X46.789 Y27.918 E0.72644
G1 X46.118 Y27.969 E0.02605
G1 X45.46 Y28.111 E0.02605
G1 X44.378 Y28.564 E0.04542
G1 X43.432 Y29.257 E0.04542
G1 X37.674 Y35.012 E0.31528
G1 X37.954 Y35.293 F27000
G1 F1800
G1 X37.925 Y35.321 E0.00157
G1 X37.199 Y36.315 E0.04764
G1 X36.796 Y37.331 E0.04235
G1 X36.645 Y38.414 E0.04235
G1 X36.644 Y57.242 E0.72907
G1 X36.775 Y58.301 E0.04133
G1 X37.188 Y59.381 E0.04479
G1 X37.858 Y60.324 E0.04479
G1 X43.651 Y66.122 E0.3174
G1 X44.644 Y66.848 E0.04764
G1 X45.661 Y67.251 E0.04235
G1 X46.744 Y67.402 E0.04235
G1 X65.571 Y67.403 E0.72907
G1 X66.631 Y67.272 E0.04133
G1 X67.711 Y66.859 E0.04479
G1 X68.654 Y66.189 E0.04479
G1 X74.452 Y60.396 E0.3174
G1 X75.178 Y59.402 E0.04764
G1 X75.582 Y58.381 E0.04255
G1 X75.732 Y57.287 E0.04275
G1 X75.733 Y38.46 E0.72907
G1 X75.678 Y37.795 E0.02582
G1 X75.528 Y37.146 E0.02582
G1 X75.13 Y36.229 E0.03868
G1 X74.548 Y35.424 E0.03848
G1 X68.589 Y29.469 E0.32621
G1 X67.921 Y28.977 E0.03215
G1 X67.174 Y28.614 E0.03215
G1 X66.375 Y28.39 E0.03215
G1 X65.548 Y28.314 E0.03215
G1 X46.795 Y28.314 E0.7262
G1 X45.587 Y28.486 E0.04723
G1 X44.578 Y28.906 E0.04235
G1 X43.7 Y29.549 E0.04214
G1 X37.996 Y35.25 E0.31227
G1 X38.276 Y35.53 F27000
G1 F1800
G1 X38.219 Y35.588 E0.00314
G1 X37.557 Y36.486 E0.04319
G1 X37.181 Y37.428 E0.0393
G1 X37.041 Y38.428 E0.03911
G1 X37.04 Y57.24 E0.72846
G1 X37.159 Y58.203 E0.03755
G1 X37.539 Y59.197 E0.04125
G1 X38.154 Y60.061 E0.04105
G1 X43.917 Y65.828 E0.31573
G1 X44.816 Y66.49 E0.04319
G1 X45.758 Y66.866 E0.0393
G1 X46.758 Y67.006 E0.03911
G1 X65.57 Y67.007 E0.72846
G1 X66.532 Y66.888 E0.03755
G1 X67.527 Y66.508 E0.04125
G1 X68.391 Y65.893 E0.04105
G1 X74.158 Y60.129 E0.31573
G1 X74.819 Y59.231 E0.04319
G1 X75.196 Y58.289 E0.0393
G1 X75.336 Y57.279 E0.0395
G1 X75.336 Y38.467 E0.72846
G1 X75.156 Y37.285 E0.0463
G1 X74.789 Y36.431 E0.03599
G1 X74.247 Y35.682 E0.0358
G1 X68.337 Y29.775 E0.32356
G1 X67.723 Y29.321 E0.02956
G1 X67.043 Y28.987 E0.02936
G1 X66.308 Y28.781 E0.02956
G1 X65.548 Y28.71 E0.02956
G1 X46.802 Y28.71 E0.72592
G1 X45.712 Y28.863 E0.04261
G1 X44.783 Y29.246 E0.03891
G1 X43.967 Y29.841 E0.03911
G1 X38.319 Y35.488 E0.30929
; INIT printing object Voron_Design_Cube_v7.stl id:0 copy 0
G1 E-2
G1 Z0.55 F27000
; printing object Voron_Design_Cube_v7.stl id:0 copy 0
G1 X48.343 Y42.663
G1 Z0.25
G1 E2 F1800
; custom gcode: feature_gcode
; External perimeter
;Perimeter
SET_VELOCITY_LIMIT ACCEL=800 ACCEL_TO_DECEL=400 SQUARE_CORNER_VELOCITY=8

; Overhang perimeter
; custom gcode end: feature_gcode

;TYPE:Internal perimeter
;WIDTH:0.5
G1 X48.258 Y42.782 E0.0064
G1 X47.778 Y43.624 E0.04227
G1 X47.456 Y44.344 E0.0344
G1 X47.22 Y44.99 E0.02999
G1 X46.973 Y45.923 E0.04207
G1 X46.823 Y46.885 E0.04249
G1 X46.772 Y47.859 E0.04249
G1 X46.823 Y48.832 E0.04249
M73 P0 R66
G1 X46.973 Y49.794 E0.04249
G1 X47.223 Y50.736 E0.04249
G1 X47.568 Y51.647 E0.04249
G1 X48.006 Y52.518 E0.04249
G1 X48.531 Y53.339 E0.04249
G1 X49.132 Y54.093 E0.04205
G1 X49.608 Y54.59 E0.03001
G1 X50.193 Y55.119 E0.03442
G1 X50.971 Y55.697 E0.04225
G1 X51.809 Y56.194 E0.04249
G1 X52.694 Y56.602 E0.04249
G1 X53.616 Y56.916 E0.04249
G1 X54.566 Y57.134 E0.04249
G1 X55.533 Y57.252 E0.04249
G1 X56.508 Y57.269 E0.04249
G1 X57.478 Y57.186 E0.04249
G1 X58.435 Y57.002 E0.04249
G1 X59.357 Y56.725 E0.04199
G1 X59.997 Y56.468 E0.03006
G1 X60.707 Y56.119 E0.03448
G1 X61.531 Y55.612 E0.0422
G1 X62.303 Y55.019 E0.04249
G1 X63.011 Y54.348 E0.04249
G1 X63.645 Y53.608 E0.04249
G1 X64.199 Y52.807 E0.04249
G1 X64.667 Y51.953 E0.04249
G1 X65.045 Y51.055 E0.04249
G1 X65.328 Y50.122 E0.04249
G1 X65.513 Y49.165 E0.04249
G1 X65.597 Y48.208 E0.04193
G1 X65.597 Y47.509 E0.03045
G1 X65.513 Y46.552 E0.04193
G1 X65.328 Y45.595 E0.04249
G1 X65.047 Y44.67 E0.04217
G1 X64.747 Y43.937 E0.03451
G1 X64.438 Y43.321 E0.03009
G1 X63.932 Y42.502 E0.04196
G1 X63.337 Y41.731 E0.04249
G1 X62.666 Y41.025 E0.04249
G1 X61.925 Y40.392 E0.04249
G1 X61.122 Y39.839 E0.04249
G1 X60.273 Y39.375 E0.0422
G1 X59.546 Y39.064 E0.03447
G1 X58.894 Y38.84 E0.03006
G1 X57.959 Y38.611 E0.04199
G1 X56.994 Y38.477 E0.04249
G1 X56.02 Y38.444 E0.04249
G1 X55.048 Y38.512 E0.04249
G1 X54.088 Y38.68 E0.04249
G1 X53.157 Y38.944 E0.04223
G1 X52.421 Y39.232 E0.03444
G1 X51.8 Y39.528 E0.03002
G1 X50.971 Y40.02 E0.04203
G1 X50.189 Y40.601 E0.04249
G1 X49.471 Y41.26 E0.04249
G1 X48.825 Y41.99 E0.04249
G1 X48.378 Y42.614 E0.03347
G1 X48.741 Y42.874 F27000
G1 F1800
G1 X48.634 Y43.023 E0.00801
G1 X48.177 Y43.826 E0.04031
G1 X47.87 Y44.512 E0.03277
G1 X47.647 Y45.124 E0.02842
G1 X47.411 Y46.015 E0.04017
G1 X47.267 Y46.932 E0.04048
G1 X47.219 Y47.859 E0.04048
G1 X47.267 Y48.785 E0.04048
G1 X47.411 Y49.702 E0.04048
G1 X47.648 Y50.6 E0.04048
G1 X47.977 Y51.468 E0.04048
G1 X48.394 Y52.297 E0.04048
G1 X48.895 Y53.079 E0.04048
G1 X49.469 Y53.799 E0.04016
G1 X49.919 Y54.269 E0.02843
G1 X50.477 Y54.774 E0.03278
G1 X51.219 Y55.325 E0.0403
G1 X52.017 Y55.799 E0.04048
G1 X52.86 Y56.187 E0.04048
G1 X53.738 Y56.487 E0.04048
G1 X54.643 Y56.694 E0.04048
G1 X55.564 Y56.806 E0.04048
G1 X56.492 Y56.822 E0.04048
G1 X57.417 Y56.743 E0.04048
G1 X58.329 Y56.568 E0.04048
G1 X59.209 Y56.303 E0.04012
G1 X59.815 Y56.06 E0.02846
G1 X60.491 Y55.728 E0.03282
G1 X61.277 Y55.244 E0.04026
G1 X62.013 Y54.679 E0.04047
G1 X62.687 Y54.04 E0.04047
G1 X63.291 Y53.336 E0.04047
G1 X63.819 Y52.572 E0.04047
G1 X64.265 Y51.758 E0.04047
G1 X64.625 Y50.903 E0.04047
G1 X64.894 Y50.015 E0.04047
G1 X65.07 Y49.103 E0.04047
G1 X65.151 Y48.188 E0.04007
G1 X65.151 Y47.529 E0.02874
G1 X65.07 Y46.614 E0.04007
G1 X64.894 Y45.702 E0.04047
G1 X64.626 Y44.819 E0.04024
G1 X64.341 Y44.122 E0.03285
G1 X64.048 Y43.538 E0.02849
G1 X63.565 Y42.756 E0.04009
G1 X62.998 Y42.021 E0.04047
G1 X62.358 Y41.349 E0.04047
G1 X61.652 Y40.746 E0.04047
G1 X60.888 Y40.22 E0.04047
G1 X60.078 Y39.777 E0.04027
G1 X59.386 Y39.481 E0.03282
G1 X58.769 Y39.269 E0.02846
G1 X57.875 Y39.05 E0.04012
G1 X56.956 Y38.922 E0.04048
G1 X56.028 Y38.891 E0.04048
G1 X55.102 Y38.955 E0.04048
G1 X54.188 Y39.115 E0.04048
G1 X53.299 Y39.368 E0.04029
G1 X52.599 Y39.642 E0.03279
G1 X52.01 Y39.922 E0.02844
G1 X51.219 Y40.392 E0.04015
G1 X50.474 Y40.946 E0.04048
G1 X49.79 Y41.573 E0.04048
G1 X49.175 Y42.268 E0.04048
G1 X48.776 Y42.825 E0.02985
G1 X49.139 Y43.084 F27000
G1 F1800
G1 X49.011 Y43.264 E0.00962
G1 X48.575 Y44.028 E0.03836
G1 X48.284 Y44.68 E0.03114
G1 X48.073 Y45.258 E0.02684
G1 X47.848 Y46.107 E0.03827
G1 X47.712 Y46.978 E0.03846
G1 X47.666 Y47.859 E0.03846
G1 X47.712 Y48.739 E0.03846
G1 X47.848 Y49.611 E0.03846
G1 X48.074 Y50.463 E0.03846
G1 X48.386 Y51.288 E0.03846
G1 X48.783 Y52.076 E0.03846
G1 X49.258 Y52.818 E0.03846
G1 X49.805 Y53.505 E0.03827
G1 X50.231 Y53.949 E0.02685
G1 X50.76 Y54.428 E0.03115
G1 X51.466 Y54.953 E0.03835
G1 X52.225 Y55.403 E0.03846
G1 X53.026 Y55.772 E0.03846
G1 X53.86 Y56.057 E0.03846
G1 X54.72 Y56.253 E0.03846
G1 X55.595 Y56.36 E0.03846
G1 X56.477 Y56.376 E0.03846
G1 X57.356 Y56.3 E0.03846
G1 X58.222 Y56.134 E0.03846
G1 X59.062 Y55.881 E0.03824
G1 X59.633 Y55.652 E0.02687
G1 X60.275 Y55.337 E0.03117
G1 X61.024 Y54.876 E0.03833
G1 X61.723 Y54.339 E0.03846
G1 X62.363 Y53.732 E0.03846
G1 X62.937 Y53.063 E0.03846
G1 X63.438 Y52.337 E0.03846
G1 X63.862 Y51.564 E0.03846
G1 X64.204 Y50.751 E0.03846
G1 X64.46 Y49.907 E0.03846
G1 X64.628 Y49.041 E0.03846
G1 X64.704 Y48.169 E0.03821
G1 X64.704 Y47.549 E0.02704
G1 X64.628 Y46.676 E0.03821
G1 X64.46 Y45.81 E0.03846
G1 X64.205 Y44.969 E0.03831
G1 X63.934 Y44.307 E0.03119
G1 X63.658 Y43.756 E0.02688
G1 X63.197 Y43.011 E0.03822
G1 X62.659 Y42.312 E0.03846
G1 X62.051 Y41.673 E0.03846
G1 X61.38 Y41.101 E0.03846
G1 X60.654 Y40.6 E0.03846
G1 X59.883 Y40.179 E0.03833
G1 X59.226 Y39.898 E0.03117
G1 X58.643 Y39.698 E0.02687
G1 X57.791 Y39.488 E0.03824
G1 X56.918 Y39.368 E0.03846
G1 X56.036 Y39.338 E0.03846
G1 X55.156 Y39.399 E0.03846
G1 X54.288 Y39.551 E0.03846
G1 X53.442 Y39.791 E0.03834
G1 X52.777 Y40.051 E0.03115
G1 X52.221 Y40.316 E0.02685
G1 X51.466 Y40.764 E0.03826
G1 X50.758 Y41.29 E0.03846
G1 X50.109 Y41.886 E0.03846
G1 X49.524 Y42.547 E0.03846
G1 X49.174 Y43.036 E0.02622
G1 X49.537 Y43.295 F27000
; custom gcode: feature_gcode
; External perimeter
;ExternalPerimeter
SET_VELOCITY_LIMIT ACCEL=450 ACCEL_TO_DECEL=250 SQUARE_CORNER_VELOCITY=8

; Perimeter
; custom gcode end: feature_gcode

;TYPE:External perimeter
G1 F1800
G1 X49.387 Y43.505 E0.01123
G1 X48.974 Y44.23 E0.03641
G1 X48.698 Y44.848 E0.02951
G1 X48.499 Y45.392 E0.02526
G1 X48.286 Y46.198 E0.03638
G1 X48.156 Y47.024 E0.03644
G1 X48.113 Y47.859 E0.03644
G1 X48.156 Y48.693 E0.03644
G1 X48.286 Y49.519 E0.03644
G1 X48.499 Y50.326 E0.03644
G1 X48.796 Y51.108 E0.03644
G1 X49.171 Y51.854 E0.03644
G1 X49.622 Y52.558 E0.03644
G1 X50.141 Y53.21 E0.03637
G1 X50.542 Y53.629 E0.02527
G1 X51.044 Y54.083 E0.02951
G1 X51.714 Y54.581 E0.0364
G1 X52.433 Y55.007 E0.03644
G1 X53.191 Y55.357 E0.03644
G1 X53.982 Y55.627 E0.03644
G1 X54.797 Y55.813 E0.03644
G1 X55.627 Y55.914 E0.03644
G1 X56.462 Y55.929 E0.03644
G1 X57.295 Y55.858 E0.03644
G1 X58.115 Y55.7 E0.03644
G1 X58.914 Y55.46 E0.03636
G1 X59.452 Y55.244 E0.02527
G1 X60.059 Y54.945 E0.02952
G1 X60.77 Y54.508 E0.03639
G1 X61.433 Y53.999 E0.03644
G1 X62.039 Y53.424 E0.03644
G1 X62.583 Y52.79 E0.03644
G1 X63.058 Y52.102 E0.03644
G1 X63.46 Y51.37 E0.03644
G1 X63.784 Y50.599 E0.03644
G1 X64.026 Y49.8 E0.03644
G1 X64.185 Y48.979 E0.03644
G1 X64.258 Y48.149 E0.03635
G1 X64.258 Y47.568 E0.02534
G1 X64.185 Y46.738 E0.03635
G1 X64.026 Y45.917 E0.03644
G1 X63.784 Y45.119 E0.03639
G1 X63.528 Y44.492 E0.02952
G1 X63.268 Y43.974 E0.02528
G1 X62.829 Y43.265 E0.03636
G1 X62.319 Y42.603 E0.03644
G1 X61.743 Y41.998 E0.03644
G1 X61.108 Y41.455 E0.03644
G1 X60.42 Y40.981 E0.03644
G1 X59.687 Y40.581 E0.0364
G1 X59.065 Y40.314 E0.02952
G1 X58.517 Y40.126 E0.02527
G1 X57.707 Y39.927 E0.03636
G1 X56.879 Y39.813 E0.03644
G1 X56.044 Y39.785 E0.03644
G1 X55.211 Y39.843 E0.03644
G1 X54.387 Y39.987 E0.03644
G1 X53.584 Y40.215 E0.0364
G1 X52.954 Y40.461 E0.02951
G1 X52.431 Y40.711 E0.02527
G1 X51.714 Y41.136 E0.03637
G1 X51.043 Y41.635 E0.03644
G1 X50.428 Y42.2 E0.03644
G1 X49.874 Y42.825 E0.03644
G1 X49.572 Y43.247 E0.0226
;WIPE_START
G1 X49.281 Y43.27 F27000
;WIPE_END
G1 X42.952 Y56.293
; custom gcode: feature_gcode
; External perimeter
;Perimeter
SET_VELOCITY_LIMIT ACCEL=800 ACCEL_TO_DECEL=400 SQUARE_CORNER_VELOCITY=8

; Overhang perimeter
; custom gcode end: feature_gcode

;TYPE:Internal perimeter
G1 F1800
G1 X42.952 Y39.424 E0.7356
G1 X47.754 Y34.623 E0.29615
G1 X64.622 Y34.623 E0.7356
G1 X69.424 Y39.424 E0.29615
G1 X69.424 Y56.293 E0.7356
G1 X64.622 Y61.094 E0.29615
G1 X47.754 Y61.094 E0.7356
G1 X42.995 Y56.335 E0.29353
G1 E-2
G1 Z0.55 F27000
G1 X64.807 Y34.176
G1 Z0.25
G1 E2 F1800
G1 X69.871 Y39.24 E0.31227
G1 X69.871 Y56.477 E0.75173
G1 X64.807 Y61.541 E0.31227
G1 X47.569 Y61.541 E0.75173
G1 X42.506 Y56.477 E0.31227
G1 X42.506 Y39.24 E0.75173
G1 X47.569 Y34.176 E0.31227
G1 X64.747 Y34.176 E0.74911
G1 E-2
G1 Z0.55 F27000
G1 X42.06 Y56.662
G1 Z0.25
G1 E2 F1800
G1 X42.06 Y39.055 E0.76785
G1 X47.385 Y33.73 E0.3284
G1 X64.992 Y33.73 E0.76785
M73 P1 R66
G1 X65.1 Y33.837 E0.00662
G1 X70.317 Y39.055 E0.32177
G1 X70.317 Y56.662 E0.76785
G1 X64.992 Y61.987 E0.3284
G1 X47.385 Y61.987 E0.76785
G1 X42.102 Y56.705 E0.32578
G1 E-2
G1 Z0.55 F27000
G1 X65.177 Y33.284
G1 Z0.25
G1 E2 F1800
; custom gcode: feature_gcode
; External perimeter
;ExternalPerimeter
SET_VELOCITY_LIMIT ACCEL=450 ACCEL_TO_DECEL=250 SQUARE_CORNER_VELOCITY=8

; Perimeter
; custom gcode end: feature_gcode

;TYPE:External perimeter
G1 X65.415 Y33.522 E0.01469
G1 X70.763 Y38.87 E0.32983
G1 X70.763 Y56.847 E0.78398
G1 X65.177 Y62.434 E0.34452
G1 X47.2 Y62.434 E0.78398
G1 X41.613 Y56.847 E0.34452
G1 X41.613 Y38.87 E0.78398
G1 X47.2 Y33.284 E0.34452
G1 X65.117 Y33.284 E0.78136
;WIPE_START
G1 X65.177 Y33.62 F27000
;WIPE_END
G1 X64.311 Y34.69
; custom gcode: feature_gcode
; External perimeter
;SolidInfill
SET_VELOCITY_LIMIT ACCEL=3800 ACCEL_TO_DECEL=2000 SQUARE_CORNER_VELOCITY=8

; Bridge infill
; custom gcode end: feature_gcode

;TYPE:Solid infill
;WIDTH:0.483317
G1 F3600
G1 X69.166 Y39.544 E0.28942
G1 X69.166 Y40.176 E0.02661
G1 X63.871 Y34.881 E0.31561
G1 X63.24 Y34.881 E0.02661
G1 X69.166 Y40.807 E0.35324
G1 X69.166 Y41.438 E0.02661
G1 X62.609 Y34.881 E0.39087
G1 X61.978 Y34.881 E0.02661
G1 X69.166 Y42.069 E0.4285
G1 X69.166 Y42.701 E0.02661
G1 X61.346 Y34.881 E0.46614
G1 X60.715 Y34.881 E0.02661
G1 X69.166 Y43.332 E0.50377
G1 X69.166 Y43.963 E0.02661
G1 X60.084 Y34.881 E0.5414
G1 X59.453 Y34.881 E0.02661
G1 X69.166 Y44.594 E0.57903
G1 X69.166 Y45.225 E0.02661
G1 X58.821 Y34.881 E0.61666
G1 X58.19 Y34.881 E0.02661
G1 X69.166 Y45.857 E0.65429
G1 X69.166 Y46.488 E0.02661
G1 X57.559 Y34.881 E0.69192
G1 X56.928 Y34.881 E0.02661
G1 X69.166 Y47.119 E0.72955
G1 X69.166 Y47.75 E0.02661
G1 X64.719 Y43.304 E0.26507
G1 X64.664 Y43.194 E0.00518
G1 X64.145 Y42.355 E0.0416
G1 X63.534 Y41.562 E0.0422
G1 X62.844 Y40.836 E0.0422
G1 X62.083 Y40.186 E0.0422
G1 X61.258 Y39.618 E0.0422
G1 X60.762 Y39.347 E0.02381
G1 X56.297 Y34.881 E0.26623
G1 X55.665 Y34.881 E0.02661
G1 X59.588 Y38.805 E0.23388
G1 X58.967 Y38.592 E0.02767
G1 X58.672 Y38.519 E0.01284
G1 X55.034 Y34.881 E0.21686
G1 X54.403 Y34.881 E0.02661
G1 X57.856 Y38.335 E0.20588
G1 X57.124 Y38.234 E0.03117
G1 X53.772 Y34.881 E0.19984
G1 X53.14 Y34.881 E0.02661
G1 X56.459 Y38.2 E0.19783
G1 X56.016 Y38.185 E0.01869
G1 X55.826 Y38.198 E0.00802
G1 X52.509 Y34.881 E0.19772
G1 X51.878 Y34.881 E0.02661
G1 X55.236 Y38.239 E0.20017
G1 X55.017 Y38.254 E0.00925
G1 X54.679 Y38.314 E0.01447
G1 X51.247 Y34.881 E0.20461
G1 X50.615 Y34.881 E0.02661
G1 X54.142 Y38.408 E0.21021
G1 X54.031 Y38.427 E0.00475
