; generated by SuperSlicer 2.3.57 on 2022-04-06 at 13:26:47 UTC


;
;

;
;
; 

; external perimeters extrusion width = 0.40mm
; perimeters extrusion width = 0.45mm
; infill extrusion width = 0.72mm
; solid infill extrusion width = 0.56mm
; top infill extrusion width = 0.42mm
; first layer extrusion width = 0.50mm

; object:{"name":"Voron_Design_Cube_v7","id":"Voron_Design_Cube_v7.stl id:0 copy 0","object_center":[57.532027,61.027197,0.000000],"boundingbox_center":[57.532027,61.027197,15.000000],"boundingbox_size":[30.000000,30.000000,30.000000]}
; plater:{"center":[57.532027,61.027197,0.000000],"boundingbox_center":[57.532027,61.027197,15.000000],"boundingbox_size":[30.000000,30.000000,30.000000]}

M73 P0 R67
;TYPE:Custom
; custom gcode: start_gcode
PRINT_START BED=50 HOTEND=200 CHAMBER=0
; custom gcode end: start_gcode
G21 ; set units to millimeters
G90 ; use absolute coordinates
M83 ; use relative distances for extrusion
; custom gcode: start_filament_gcode
; Filament gcode
; custom gcode end: start_filament_gcode
M109 S200 ; set temperature and wait for it to be reached
M190 S50 ; set bed temperature and wait for it to be reached
;LAYER_CHANGE
;Z:0.25
;HEIGHT:0.25
G1 E-2 F1800
G1 Z0.25 F27000
G1 Z0.55
G1 X43.59 Y43.61
G1 Z0.25
G1 E2 F1800
; custom gcode: feature_gcode
; External perimeter
;Skirt
SET_VELOCITY_LIMIT ACCEL=5000 ACCEL_TO_DECEL=2500 SQUARE_CORNER_VELOCITY=8

; Support material
; custom gcode end: feature_gcode

;TYPE:Skirt
;WIDTH:0.45
G1 X38.975 Y48.224 E0.2527
G1 X38.544 Y48.74 E0.02605
G1 X38.183 Y49.315 E0.02627
G1 X37.753 Y50.412 E0.04563
G1 X37.592 Y51.574 E0.04542
G1 X37.591 Y70.416 E0.72965
G1 X37.736 Y71.574 E0.04521
G1 X38.184 Y72.741 E0.04839
G1 X38.908 Y73.759 E0.04839
G1 X44.728 Y79.584 E0.31888
G1 X45.245 Y80.015 E0.02605
G1 X45.82 Y80.376 E0.02627
G1 X46.917 Y80.806 E0.04563
G1 X48.078 Y80.967 E0.04542
G1 X66.921 Y80.968 E0.72965
G1 X68.079 Y80.823 E0.04521
G1 X69.245 Y80.375 E0.04839
G1 X70.264 Y79.651 E0.04839
G1 X76.089 Y73.831 E0.31888
G1 X76.52 Y73.314 E0.02605
G1 X76.881 Y72.74 E0.02627
G1 X77.314 Y71.632 E0.04606
G1 X77.472 Y70.459 E0.04584
G1 X77.473 Y51.617 E0.72965
G1 X77.41 Y50.886 E0.0284
G1 X77.242 Y50.172 E0.0284
G1 X76.816 Y49.198 E0.04117
G1 X76.19 Y48.332 E0.04138
G1 X70.177 Y42.325 E0.32913
G1 X69.456 Y41.798 E0.03458
G1 X68.647 Y41.407 E0.03479
G1 X67.787 Y41.168 E0.03458
G1 X66.892 Y41.086 E0.03479
G1 X48.132 Y41.087 E0.72644
G1 X47.462 Y41.138 E0.02605
G1 X46.804 Y41.279 E0.02605
G1 X45.722 Y41.732 E0.04542
G1 X44.776 Y42.425 E0.04542
G1 X43.633 Y43.568 E0.06258
G1 X43.913 Y43.848 F27000
G1 F1800
G1 X39.269 Y48.49 E0.25427
G1 X38.543 Y49.483 E0.04764
G1 X38.14 Y50.5 E0.04235
G1 X37.988 Y51.583 E0.04235
G1 X37.988 Y70.41 E0.72907
G1 X38.118 Y71.469 E0.04133
G1 X38.531 Y72.55 E0.04479
G1 X39.201 Y73.493 E0.04479
G1 X44.995 Y79.291 E0.3174
G1 X45.988 Y80.016 E0.04764
G1 X47.005 Y80.419 E0.04235
G1 X48.088 Y80.571 E0.04235
G1 X66.915 Y80.572 E0.72907
G1 X67.974 Y80.441 E0.04133
G1 X69.055 Y80.028 E0.04479
G1 X69.998 Y79.358 E0.04479
G1 X75.795 Y73.564 E0.3174
G1 X76.521 Y72.571 E0.04764
G1 X76.926 Y71.549 E0.04255
G1 X77.076 Y70.456 E0.04275
G1 X77.076 Y51.628 E0.72907
G1 X77.022 Y50.964 E0.02582
G1 X76.871 Y50.314 E0.02582
G1 X76.474 Y49.398 E0.03868
G1 X75.891 Y48.593 E0.03848
G1 X69.933 Y42.638 E0.32621
G1 X69.264 Y42.146 E0.03215
G1 X68.518 Y41.782 E0.03215
G1 X67.718 Y41.559 E0.03215
G1 X66.892 Y41.483 E0.03215
G1 X48.138 Y41.483 E0.7262
G1 X46.931 Y41.655 E0.04723
G1 X45.921 Y42.075 E0.04235
G1 X45.043 Y42.718 E0.04214
G1 X43.955 Y43.806 E0.05957
G1 X44.235 Y44.086 F27000
G1 F1800
G1 X39.562 Y48.756 E0.25584
G1 X38.901 Y49.654 E0.04319
G1 X38.524 Y50.597 E0.0393
G1 X38.385 Y51.597 E0.03911
G1 X38.384 Y70.409 E0.72846
G1 X38.502 Y71.371 E0.03755
G1 X38.883 Y72.366 E0.04125
G1 X39.498 Y73.23 E0.04105
G1 X45.261 Y78.997 E0.31573
G1 X46.159 Y79.658 E0.04319
G1 X47.102 Y80.035 E0.0393
G1 X48.102 Y80.175 E0.03911
G1 X66.914 Y80.175 E0.72846
G1 X67.876 Y80.057 E0.03755
G1 X68.871 Y79.677 E0.04125
G1 X69.734 Y79.061 E0.04105
G1 X75.502 Y73.298 E0.31573
G1 X76.163 Y72.4 E0.04319
G1 X76.54 Y71.458 E0.0393
G1 X76.68 Y70.447 E0.0395
G1 X76.68 Y51.636 E0.72846
G1 X76.499 Y50.454 E0.0463
G1 X76.133 Y49.6 E0.03599
G1 X75.59 Y48.851 E0.0358
G1 X69.681 Y42.944 E0.32356
G1 X69.067 Y42.49 E0.02956
G1 X68.386 Y42.156 E0.02936
G1 X67.651 Y41.949 E0.02956
G1 X66.891 Y41.879 E0.02956
G1 X48.145 Y41.879 E0.72592
G1 X47.056 Y42.032 E0.04261
G1 X46.127 Y42.414 E0.03891
G1 X45.311 Y43.01 E0.03911
G1 X44.278 Y44.043 E0.05659
; INIT printing object Voron_Design_Cube_v7.stl id:0 copy 0
G1 E-2
G1 Z0.55 F27000
; printing object Voron_Design_Cube_v7.stl id:0 copy 0
G1 X51.532 Y53.77
G1 Z0.25
G1 E2 F1800
; custom gcode: feature_gcode
; External perimeter
;Perimeter
SET_VELOCITY_LIMIT ACCEL=400 ACCEL_TO_DECEL=200 SQUARE_CORNER_VELOCITY=8

; Overhang perimeter
; custom gcode end: feature_gcode

;TYPE:Internal perimeter
;WIDTH:0.5
G1 X50.815 Y54.429 E0.04249
G1 X50.169 Y55.158 E0.04249
G1 X49.602 Y55.951 E0.04249
G1 X49.122 Y56.793 E0.04227
G1 X48.8 Y57.513 E0.0344
G1 X48.564 Y58.159 E0.02999
G1 X48.317 Y59.091 E0.04207
G1 X48.166 Y60.054 E0.04249
G1 X48.116 Y61.027 E0.04249
G1 X48.166 Y62 E0.04249
G1 X48.317 Y62.963 E0.04249
G1 X48.566 Y63.905 E0.04249
G1 X48.912 Y64.816 E0.04249
G1 X49.349 Y65.687 E0.04249
M73 P0 R66
G1 X49.875 Y66.507 E0.04249
G1 X50.476 Y67.261 E0.04205
G1 X50.952 Y67.758 E0.03001
G1 X51.537 Y68.288 E0.03442
G1 X52.315 Y68.866 E0.04225
G1 X53.153 Y69.363 E0.04249
G1 X54.038 Y69.771 E0.04249
G1 X54.96 Y70.085 E0.04249
G1 X55.91 Y70.302 E0.04249
G1 X56.877 Y70.42 E0.04249
G1 X57.851 Y70.438 E0.04249
G1 X58.822 Y70.354 E0.04249
G1 X59.779 Y70.171 E0.04249
G1 X60.701 Y69.893 E0.04199
G1 X61.341 Y69.636 E0.03006
G1 X62.05 Y69.288 E0.03448
G1 X62.874 Y68.781 E0.0422
G1 X63.647 Y68.187 E0.04249
G1 X64.354 Y67.517 E0.04249
G1 X64.988 Y66.777 E0.04249
G1 X65.543 Y65.976 E0.04249
G1 X66.011 Y65.121 E0.04249
G1 X66.389 Y64.223 E0.04249
G1 X66.672 Y63.291 E0.04249
G1 X66.857 Y62.334 E0.04249
G1 X66.94 Y61.376 E0.04193
G1 X66.94 Y60.678 E0.03045
G1 X66.857 Y59.72 E0.04193
G1 X66.672 Y58.764 E0.04249
G1 X66.391 Y57.838 E0.04217
G1 X66.091 Y57.106 E0.03451
G1 X65.781 Y56.489 E0.03009
G1 X65.276 Y55.671 E0.04196
G1 X64.681 Y54.899 E0.04249
G1 X64.009 Y54.193 E0.04249
G1 X63.268 Y53.56 E0.04249
G1 X62.466 Y53.008 E0.04249
G1 X61.617 Y52.544 E0.0422
G1 X60.89 Y52.232 E0.03447
G1 X60.238 Y52.009 E0.03006
G1 X59.303 Y51.779 E0.04199
G1 X58.338 Y51.646 E0.04249
G1 X57.364 Y51.613 E0.04249
G1 X56.392 Y51.68 E0.04249
G1 X55.432 Y51.848 E0.04249
G1 X54.5 Y52.113 E0.04223
G1 X53.765 Y52.4 E0.03444
G1 X53.144 Y52.697 E0.03002
G1 X52.315 Y53.189 E0.04203
G1 X51.581 Y53.734 E0.03988
G1 X51.847 Y54.092 F27000
G1 F1800
G1 X51.817 Y54.114 E0.00161
G1 X51.133 Y54.742 E0.04048
G1 X50.518 Y55.437 E0.04048
G1 X49.978 Y56.192 E0.04048
G1 X49.521 Y56.995 E0.04031
G1 X49.214 Y57.681 E0.03277
G1 X48.99 Y58.293 E0.02842
G1 X48.754 Y59.183 E0.04017
G1 X48.611 Y60.1 E0.04048
G1 X48.563 Y61.027 E0.04048
G1 X48.611 Y61.954 E0.04048
G1 X48.754 Y62.871 E0.04048
G1 X48.992 Y63.768 E0.04048
G1 X49.321 Y64.636 E0.04048
G1 X49.738 Y65.465 E0.04048
G1 X50.238 Y66.247 E0.04048
G1 X50.812 Y66.967 E0.04016
G1 X51.263 Y67.438 E0.02843
G1 X51.82 Y67.942 E0.03278
G1 X52.562 Y68.494 E0.0403
G1 X53.36 Y68.967 E0.04048
G1 X54.203 Y69.356 E0.04048
G1 X55.082 Y69.655 E0.04048
G1 X55.987 Y69.862 E0.04048
G1 X56.908 Y69.975 E0.04048
G1 X57.836 Y69.991 E0.04048
G1 X58.761 Y69.912 E0.04048
G1 X59.672 Y69.737 E0.04048
G1 X60.553 Y69.472 E0.04012
G1 X61.159 Y69.228 E0.02846
G1 X61.834 Y68.897 E0.03282
G1 X62.621 Y68.413 E0.04026
G1 X63.357 Y67.847 E0.04047
G1 X64.03 Y67.209 E0.04047
G1 X64.634 Y66.504 E0.04047
G1 X65.162 Y65.741 E0.04047
G1 X65.609 Y64.927 E0.04047
G1 X65.968 Y64.072 E0.04047
G1 X66.238 Y63.183 E0.04047
G1 X66.414 Y62.272 E0.04047
G1 X66.494 Y61.357 E0.04007
G1 X66.494 Y60.698 E0.02874
G1 X66.414 Y59.782 E0.04007
G1 X66.238 Y58.871 E0.04047
G1 X65.97 Y57.988 E0.04024
G1 X65.684 Y57.291 E0.03285
G1 X65.391 Y56.707 E0.02849
G1 X64.908 Y55.925 E0.04009
G1 X64.341 Y55.19 E0.04047
G1 X63.702 Y54.518 E0.04047
G1 X62.996 Y53.915 E0.04047
G1 X62.232 Y53.388 E0.04047
G1 X61.421 Y52.946 E0.04027
G1 X60.73 Y52.649 E0.03282
G1 X60.112 Y52.438 E0.02846
G1 X59.219 Y52.218 E0.04012
G1 X58.299 Y52.091 E0.04048
G1 X57.372 Y52.06 E0.04048
G1 X56.446 Y52.124 E0.04048
G1 X55.532 Y52.284 E0.04048
G1 X54.643 Y52.536 E0.04029
G1 X53.943 Y52.81 E0.03279
G1 X53.354 Y53.091 E0.02844
G1 X52.562 Y53.561 E0.04015
G1 X51.895 Y54.057 E0.03625
G1 X52.161 Y54.415 F27000
G1 F1800
G1 X52.102 Y54.459 E0.00322
G1 X51.452 Y55.055 E0.03846
G1 X50.868 Y55.715 E0.03846
G1 X50.354 Y56.433 E0.03846
G1 X49.919 Y57.197 E0.03836
G1 X49.628 Y57.849 E0.03114
G1 X49.416 Y58.427 E0.02684
G1 X49.192 Y59.275 E0.03827
G1 X49.055 Y60.146 E0.03846
G1 X49.01 Y61.027 E0.03846
G1 X49.055 Y61.908 E0.03846
G1 X49.192 Y62.779 E0.03846
G1 X49.417 Y63.632 E0.03846
G1 X49.73 Y64.456 E0.03846
G1 X50.126 Y65.244 E0.03846
G1 X50.602 Y65.987 E0.03846
G1 X51.149 Y66.673 E0.03827
G1 X51.574 Y67.118 E0.02685
G1 X52.104 Y67.597 E0.03115
G1 X52.81 Y68.122 E0.03835
G1 X53.568 Y68.572 E0.03846
G1 X54.369 Y68.941 E0.03846
G1 X55.204 Y69.225 E0.03846
G1 X56.064 Y69.422 E0.03846
G1 X56.939 Y69.529 E0.03846
G1 X57.821 Y69.544 E0.03846
G1 X58.7 Y69.469 E0.03846
G1 X59.566 Y69.303 E0.03846
G1 X60.405 Y69.05 E0.03824
G1 X60.977 Y68.82 E0.02687
G1 X61.619 Y68.505 E0.03117
G1 X62.367 Y68.045 E0.03833
G1 X63.066 Y67.507 E0.03846
G1 X63.707 Y66.901 E0.03846
G1 X64.28 Y66.231 E0.03846
G1 X64.782 Y65.506 E0.03846
G1 X65.206 Y64.733 E0.03846
G1 X65.548 Y63.92 E0.03846
G1 X65.804 Y63.076 E0.03846
G1 X65.971 Y62.21 E0.03846
G1 X66.048 Y61.337 E0.03821
G1 X66.048 Y60.717 E0.02704
G1 X65.971 Y59.844 E0.03821
G1 X65.804 Y58.978 E0.03846
G1 X65.549 Y58.138 E0.03831
G1 X65.278 Y57.476 E0.03119
G1 X65.001 Y56.925 E0.02688
G1 X64.541 Y56.179 E0.03822
G1 X64.002 Y55.481 E0.03846
G1 X63.394 Y54.842 E0.03846
G1 X62.724 Y54.269 E0.03846
G1 X61.998 Y53.769 E0.03846
G1 X61.226 Y53.348 E0.03833
G1 X60.569 Y53.066 E0.03117
G1 X59.986 Y52.866 E0.02687
G1 X59.135 Y52.657 E0.03824
G1 X58.261 Y52.536 E0.03846
G1 X57.38 Y52.506 E0.03846
G1 X56.5 Y52.568 E0.03846
G1 X55.631 Y52.72 E0.03846
G1 X54.785 Y52.96 E0.03834
G1 X54.12 Y53.22 E0.03115
G1 X53.564 Y53.485 E0.02685
G1 X52.81 Y53.933 E0.03826
G1 X52.209 Y54.379 E0.03263
G1 X52.476 Y54.737 F27000
; custom gcode: feature_gcode
; External perimeter
;ExternalPerimeter
SET_VELOCITY_LIMIT ACCEL=200 ACCEL_TO_DECEL=100 SQUARE_CORNER_VELOCITY=8

; Perimeter
; custom gcode end: feature_gcode

;TYPE:External perimeter
G1 F1800
G1 X52.387 Y54.803 E0.00482
G1 X51.771 Y55.368 E0.03644
G1 X51.217 Y55.994 E0.03644
G1 X50.731 Y56.674 E0.03644
G1 X50.318 Y57.399 E0.03641
G1 X50.041 Y58.017 E0.02951
G1 X49.843 Y58.561 E0.02526
G1 X49.629 Y59.367 E0.03638
G1 X49.5 Y60.193 E0.03644
G1 X49.457 Y61.027 E0.03644
G1 X49.5 Y61.862 E0.03644
G1 X49.629 Y62.687 E0.03644
G1 X49.843 Y63.495 E0.03644
G1 X50.139 Y64.277 E0.03644
G1 X50.515 Y65.023 E0.03644
G1 X50.965 Y65.727 E0.03644
G1 X51.485 Y66.379 E0.03637
G1 X51.886 Y66.798 E0.02527
G1 X52.387 Y67.252 E0.02951
G1 X53.058 Y67.75 E0.0364
G1 X53.776 Y68.176 E0.03644
G1 X54.535 Y68.526 E0.03644
G1 X55.326 Y68.795 E0.03644
G1 X56.141 Y68.982 E0.03644
G1 X56.97 Y69.083 E0.03644
G1 X57.806 Y69.098 E0.03644
G1 X58.638 Y69.026 E0.03644
G1 X59.459 Y68.869 E0.03644
G1 X60.257 Y68.628 E0.03636
G1 X60.795 Y68.412 E0.02527
G1 X61.403 Y68.114 E0.02952
G1 X62.114 Y67.677 E0.03639
G1 X62.776 Y67.168 E0.03644
G1 X63.383 Y66.593 E0.03644
G1 X63.926 Y65.958 E0.03644
G1 X64.402 Y65.271 E0.03644
G1 X64.804 Y64.538 E0.03644
G1 X65.127 Y63.768 E0.03644
G1 X65.37 Y62.968 E0.03644
G1 X65.529 Y62.148 E0.03644
G1 X65.601 Y61.318 E0.03635
G1 X65.601 Y60.737 E0.02534
G1 X65.529 Y59.906 E0.03635
G1 X65.37 Y59.086 E0.03644
G1 X65.128 Y58.287 E0.03639
G1 X64.871 Y57.661 E0.02952
G1 X64.611 Y57.143 E0.02528
G1 X64.173 Y56.434 E0.03636
G1 X63.663 Y55.772 E0.03644
G1 X63.087 Y55.166 E0.03644
G1 X62.451 Y54.624 E0.03644
G1 X61.763 Y54.15 E0.03644
G1 X61.031 Y53.75 E0.0364
G1 X60.409 Y53.483 E0.02952
G1 X59.86 Y53.295 E0.02527
G1 X59.051 Y53.096 E0.03636
G1 X58.223 Y52.982 E0.03644
G1 X57.388 Y52.953 E0.03644
G1 X56.554 Y53.011 E0.03644
G1 X55.731 Y53.155 E0.03644
G1 X54.928 Y53.383 E0.0364
G1 X54.298 Y53.63 E0.02951
G1 X53.775 Y53.879 E0.02527
G1 X53.058 Y54.305 E0.03637
G1 X52.524 Y54.702 E0.029
;WIPE_START
G1 X52.374 Y54.693 F27000
;WIPE_END
G1 E-2 F1800
G1 Z0.55 F27000
G1 X44.296 Y69.461
G1 Z0.25
G1 E2 F1800
; custom gcode: feature_gcode
; External perimeter
;Perimeter
SET_VELOCITY_LIMIT ACCEL=400 ACCEL_TO_DECEL=200 SQUARE_CORNER_VELOCITY=8

; Overhang perimeter
; custom gcode end: feature_gcode

;TYPE:Internal perimeter
G1 X44.296 Y52.593 E0.7356
G1 X49.098 Y47.791 E0.29615
G1 X65.966 Y47.791 E0.7356
G1 X70.768 Y52.593 E0.29615
G1 X70.768 Y69.461 E0.7356
G1 X65.966 Y74.263 E0.29615
G1 X49.098 Y74.263 E0.7356
G1 X44.339 Y69.504 E0.29353
G1 E-2
G1 Z0.55 F27000
G1 X66.151 Y47.345
G1 Z0.25
G1 E2 F1800
G1 X71.214 Y52.408 E0.31227
G1 X71.214 Y69.646 E0.75173
G1 X66.151 Y74.709 E0.31227
G1 X48.913 Y74.709 E0.75173
G1 X43.85 Y69.646 E0.31227
G1 X43.85 Y52.408 E0.75173
G1 X48.913 Y47.345 E0.31227
G1 X66.091 Y47.345 E0.74911
G1 E-2
G1 Z0.55 F27000
G1 X43.403 Y69.831
G1 Z0.25
G1 E2 F1800
G1 X43.403 Y52.223 E0.76785
G1 X48.728 Y46.899 E0.3284
G1 X66.336 Y46.899 E0.76785
M73 P1 R66
G1 X66.443 Y47.006 E0.00662
G1 X71.661 Y52.223 E0.32177
G1 X71.661 Y69.831 E0.76785
G1 X66.336 Y75.156 E0.3284
G1 X48.728 Y75.156 E0.76785
G1 X43.446 Y69.873 E0.32578
G1 E-2
G1 Z0.55 F27000
G1 X66.521 Y46.452
G1 Z0.25
G1 E2 F1800
; custom gcode: feature_gcode
; External perimeter
;ExternalPerimeter
SET_VELOCITY_LIMIT ACCEL=200 ACCEL_TO_DECEL=100 SQUARE_CORNER_VELOCITY=8

; Perimeter
; custom gcode end: feature_gcode

;TYPE:External perimeter
G1 X66.759 Y46.69 E0.01469
G1 X72.107 Y52.039 E0.32983
G1 X72.107 Y70.016 E0.78398
G1 X66.521 Y75.602 E0.34452
G1 X48.543 Y75.602 E0.78398
G1 X42.957 Y70.016 E0.34452
G1 X42.957 Y52.039 E0.78398
G1 X48.543 Y46.452 E0.34452
G1 X66.461 Y46.452 E0.78136
;WIPE_START
G1 X66.521 Y46.789 F27000
;WIPE_END
G1 X65.654 Y47.858
; custom gcode: feature_gcode
; External perimeter
;SolidInfill
SET_VELOCITY_LIMIT ACCEL=3800 ACCEL_TO_DECEL=2000 SQUARE_CORNER_VELOCITY=8

; Bridge infill
; custom gcode end: feature_gcode

;TYPE:Solid infill
;WIDTH:0.483317
G1 F3600
G1 X70.509 Y52.713 E0.28942
G1 X70.509 Y53.344 E0.02661
G1 X65.215 Y48.05 E0.31561
G1 X64.584 Y48.05 E0.02661
G1 X70.509 Y53.976 E0.35324
G1 X70.509 Y54.607 E0.02661
G1 X63.952 Y48.05 E0.39087
G1 X63.321 Y48.05 E0.02661
G1 X70.509 Y55.238 E0.4285
G1 X70.509 Y55.869 E0.02661
G1 X62.69 Y48.05 E0.46614
G1 X62.059 Y48.05 E0.02661
G1 X70.509 Y56.5 E0.50377
G1 X70.509 Y57.132 E0.02661
G1 X61.428 Y48.05 E0.5414
G1 X60.796 Y48.05 E0.02661
G1 X70.509 Y57.763 E0.57903
G1 X70.509 Y58.394 E0.02661
G1 X60.165 Y48.05 E0.61666
G1 X59.534 Y48.05 E0.02661
G1 X70.509 Y59.025 E0.65429
G1 X70.509 Y59.657 E0.02661
G1 X58.903 Y48.05 E0.69192
G1 X58.271 Y48.05 E0.02661
G1 X70.509 Y60.288 E0.72955
G1 X70.509 Y60.919 E0.02661
G1 X66.063 Y56.473 E0.26507
G1 X66.008 Y56.363 E0.00518
G1 X65.489 Y55.523 E0.0416
G1 X64.878 Y54.73 E0.0422
G1 X64.188 Y54.005 E0.0422
G1 X63.426 Y53.355 E0.0422
G1 X62.602 Y52.787 E0.0422
G1 X62.106 Y52.516 E0.02381
G1 X57.64 Y48.05 E0.26623
G1 X57.009 Y48.05 E0.02661
G1 X60.932 Y51.973 E0.23388
G1 X60.311 Y51.76 E0.02767
G1 X60.015 Y51.688 E0.01284
G1 X56.378 Y48.05 E0.21686
G1 X55.746 Y48.05 E0.02661
G1 X59.2 Y51.504 E0.20588
G1 X58.467 Y51.402 E0.03117
G1 X55.115 Y48.05 E0.19984
G1 X54.484 Y48.05 E0.02661
G1 X57.802 Y51.369 E0.19783
G1 X57.359 Y51.353 E0.01869
G1 X57.169 Y51.367 E0.00802
G1 X53.853 Y48.05 E0.19772
G1 X53.221 Y48.05 E0.02661
G1 X56.579 Y51.408 E0.20017
G1 X56.36 Y51.423 E0.00925
G1 X56.022 Y51.482 E0.01447
G1 X52.59 Y48.05 E0.20461
G1 X51.959 Y48.05 E0.02661
G1 X55.485 Y51.576 E0.21021
