; generated by SuperSlicer 2.3.57 on 2022-04-03 at 13:15:48 UTC


;
;

;
;
; 

; external perimeters extrusion width = 0.40mm
; perimeters extrusion width = 0.45mm
; infill extrusion width = 0.72mm
; solid infill extrusion width = 0.56mm
; top infill extrusion width = 0.40mm
; first layer extrusion width = 0.50mm

; object:{"name":"Voron_Design_Cube_v7","id":"Voron_Design_Cube_v7.stl id:0 copy 0","object_center":[60.000000,60.000000,0.000000],"boundingbox_center":[60.000000,60.000000,15.000000],"boundingbox_size":[30.000000,30.000000,30.000000]}
; plater:{"center":[60.000000,60.000000,0.000000],"boundingbox_center":[60.000000,60.000000,15.000000],"boundingbox_size":[30.000000,30.000000,30.000000]}

M73 P0 R58
;TYPE:Custom
; custom gcode: start_gcode
PRINT_START BED=50 HOTEND=200 CHAMBER=0
; custom gcode end: start_gcode
G21 ; set units to millimeters
G90 ; use absolute coordinates
M83 ; use relative distances for extrusion
; custom gcode: start_filament_gcode
; Filament gcode
; custom gcode end: start_filament_gcode
M104 S200 ; set temperature
M109 S200 ; set temperature and wait for it to be reached
M190 S50 ; set bed temperature and wait for it to be reached
;LAYER_CHANGE
;Z:0.25
;HEIGHT:0.25
G1 Z0.25 F27000
G1 E-0.5 F1800
G1 Z0.45 F27000
G1 X44.31 Y44.33
G1 Z0.25
G1 E0.5 F1800
; custom gcode: feature_gcode
; External perimeter
;Skirt
SET_VELOCITY_LIMIT ACCEL=5000 ACCEL_TO_DECEL=2500 SQUARE_CORNER_VELOCITY=8

; Support material
; custom gcode end: feature_gcode

;TYPE:Skirt
;WIDTH:0.45
G1 X41.443 Y47.196 E0.16701
G1 X41.012 Y47.713 E0.02772
G1 X40.651 Y48.288 E0.02794
G1 X40.221 Y49.385 E0.04854
G1 X40.06 Y50.546 E0.04832
G1 X40.059 Y69.389 E0.77622
G1 X40.204 Y70.547 E0.04809
G1 X40.652 Y71.713 E0.05148
G1 X41.376 Y72.732 E0.05148
G1 X47.196 Y78.557 E0.33924
G1 X47.713 Y78.988 E0.02772
G1 X48.288 Y79.349 E0.02794
G1 X49.385 Y79.779 E0.04854
G1 X50.546 Y79.94 E0.04832
G1 X69.389 Y79.941 E0.77622
G1 X70.547 Y79.796 E0.04809
G1 X71.713 Y79.348 E0.05148
G1 X72.732 Y78.624 E0.05148
G1 X78.557 Y72.804 E0.33924
G1 X78.988 Y72.287 E0.02772
G1 X79.349 Y71.712 E0.02794
G1 X79.782 Y70.605 E0.04899
G1 X79.94 Y69.432 E0.04877
G1 X79.941 Y50.589 E0.77622
G1 X79.878 Y49.859 E0.03021
G1 X79.71 Y49.145 E0.03021
G1 X79.284 Y48.171 E0.0438
G1 X78.658 Y47.305 E0.04402
G1 X72.645 Y41.298 E0.35014
G1 X71.924 Y40.771 E0.03678
G1 X71.115 Y40.38 E0.03701
G1 X70.254 Y40.141 E0.03678
G1 X69.36 Y40.059 E0.03701
G1 X50.6 Y40.059 E0.77281
G1 X49.93 Y40.111 E0.02772
G1 X49.272 Y40.252 E0.02772
G1 X48.19 Y40.705 E0.04832
G1 X47.244 Y41.398 E0.04832
G1 X44.31 Y44.33 E0.17087
G1 X44.59 Y44.611 F27000
G1 F1800
G1 X41.737 Y47.463 E0.16621
G1 X41.011 Y48.456 E0.05068
G1 X40.608 Y49.473 E0.04505
G1 X40.456 Y50.556 E0.04505
G1 X40.456 Y69.383 E0.77561
G1 X40.586 Y70.442 E0.04397
G1 X40.999 Y71.523 E0.04765
G1 X41.669 Y72.466 E0.04765
G1 X47.463 Y78.263 E0.33766
G1 X48.456 Y78.989 E0.05068
G1 X49.473 Y79.392 E0.04505
G1 X50.556 Y79.544 E0.04505
G1 X69.383 Y79.544 E0.77561
G1 X70.442 Y79.414 E0.04397
G1 X71.523 Y79.001 E0.04765
G1 X72.466 Y78.331 E0.04765
G1 X78.263 Y72.537 E0.33766
G1 X78.989 Y71.544 E0.05068
G1 X79.394 Y70.522 E0.04527
G1 X79.544 Y69.428 E0.04548
G1 X79.544 Y50.601 E0.77561
G1 X79.489 Y49.937 E0.02746
G1 X79.339 Y49.287 E0.02746
G1 X78.942 Y48.371 E0.04115
G1 X78.359 Y47.566 E0.04093
G1 X72.401 Y41.611 E0.34703
G1 X71.732 Y41.119 E0.0342
G1 X70.986 Y40.755 E0.0342
G1 X70.186 Y40.531 E0.0342
G1 X69.36 Y40.455 E0.0342
G1 X50.606 Y40.456 E0.77255
G1 X49.399 Y40.628 E0.05024
G1 X48.389 Y41.048 E0.04505
G1 X47.511 Y41.691 E0.04483
G1 X44.59 Y44.611 E0.17014
G1 X44.87 Y44.891 F27000
G1 F1800
G1 X42.03 Y47.729 E0.1654
G1 X41.369 Y48.627 E0.04595
G1 X40.992 Y49.57 E0.04181
G1 X40.853 Y50.57 E0.04161
G1 X40.852 Y69.381 E0.77496
G1 X40.97 Y70.344 E0.03995
G1 X41.351 Y71.339 E0.04388
G1 X41.966 Y72.202 E0.04367
G1 X47.729 Y77.97 E0.33588
G1 X48.627 Y78.631 E0.04595
G1 X49.57 Y79.008 E0.04181
G1 X50.57 Y79.147 E0.04161
G1 X69.381 Y79.148 E0.77496
G1 X70.344 Y79.03 E0.03995
G1 X71.339 Y78.649 E0.04388
G1 X72.202 Y78.034 E0.04367
G1 X77.97 Y72.271 E0.33588
G1 X78.631 Y71.373 E0.04595
G1 X79.008 Y70.43 E0.04181
G1 X79.148 Y69.42 E0.04202
G1 X79.148 Y50.608 E0.77496
G1 X78.967 Y49.427 E0.04925
G1 X78.601 Y48.572 E0.03829
G1 X78.058 Y47.824 E0.03808
G1 X72.149 Y41.917 E0.34422
G1 X71.535 Y41.463 E0.03144
G1 X70.854 Y41.129 E0.03124
G1 X70.119 Y40.922 E0.03144
G1 X69.359 Y40.852 E0.03144
G1 X50.613 Y40.852 E0.77225
G1 X49.524 Y41.005 E0.04533
G1 X48.594 Y41.387 E0.0414
G1 X47.779 Y41.983 E0.04161
G1 X44.87 Y44.891 E0.16944
; INIT printing object Voron_Design_Cube_v7.stl id:0 copy 0
G1 E-0.5
G1 Z0.45 F27000
; printing object Voron_Design_Cube_v7.stl id:0 copy 0
G1 X53.283 Y53.402
G1 Z0.25
G1 E0.5 F1800
; custom gcode: feature_gcode
; External perimeter
;Perimeter
SET_VELOCITY_LIMIT ACCEL=1800 ACCEL_TO_DECEL=1000 SQUARE_CORNER_VELOCITY=8

; Overhang perimeter
; custom gcode end: feature_gcode

;TYPE:Internal perimeter
;WIDTH:0.5
G1 X52.637 Y54.131 E0.04521
G1 X52.069 Y54.923 E0.04521
G1 X51.59 Y55.766 E0.04496
G1 X51.268 Y56.486 E0.03659
G1 X51.032 Y57.132 E0.03191
G1 X50.785 Y58.064 E0.04476
G1 X50.634 Y59.027 E0.0452
G1 X50.584 Y60 E0.04521
G1 X50.634 Y60.973 E0.04521
G1 X50.785 Y61.936 E0.0452
G1 X51.034 Y62.878 E0.04521
G1 X51.38 Y63.789 E0.04521
G1 X51.817 Y64.659 E0.04521
G1 X52.343 Y65.48 E0.04521
G1 X52.944 Y66.234 E0.04473
G1 X53.42 Y66.731 E0.03192
G1 X54.005 Y67.261 E0.03661
G1 X54.783 Y67.839 E0.04495
G1 X55.621 Y68.336 E0.04521
G1 X56.505 Y68.744 E0.04521
G1 X57.428 Y69.058 E0.04521
G1 X58.378 Y69.275 E0.04521
G1 X59.345 Y69.393 E0.04521
G1 X60.319 Y69.411 E0.0452
G1 X61.29 Y69.327 E0.0452
G1 X62.247 Y69.144 E0.0452
G1 X63.169 Y68.866 E0.04467
G1 X63.809 Y68.609 E0.03198
G1 X64.518 Y68.261 E0.03668
G1 X65.342 Y67.754 E0.04489
G1 X66.115 Y67.16 E0.0452
G1 X66.822 Y66.49 E0.0452
G1 X67.456 Y65.75 E0.0452
G1 X68.011 Y64.949 E0.0452
G1 X68.479 Y64.094 E0.0452
G1 X68.857 Y63.196 E0.0452
G1 X69.14 Y62.264 E0.0452
G1 X69.324 Y61.307 E0.0452
G1 X69.408 Y60.349 E0.04461
G1 X69.408 Y59.651 E0.03239
G1 X69.324 Y58.693 E0.04461
G1 X69.14 Y57.736 E0.0452
G1 X68.859 Y56.811 E0.04486
G1 X68.559 Y56.079 E0.03671
G1 X68.249 Y55.462 E0.03201
G1 X67.744 Y54.644 E0.04463
G1 X67.149 Y53.872 E0.0452
G1 X66.477 Y53.166 E0.0452
G1 X65.736 Y52.533 E0.0452
G1 X64.934 Y51.98 E0.0452
G1 X64.085 Y51.517 E0.04489
G1 X63.358 Y51.205 E0.03667
G1 X62.706 Y50.982 E0.03198
G1 X61.771 Y50.752 E0.04468
G1 X60.806 Y50.619 E0.0452
G1 X59.832 Y50.585 E0.0452
G1 X58.86 Y50.653 E0.0452
G1 X57.9 Y50.821 E0.04521
G1 X56.968 Y51.086 E0.04493
G1 X56.233 Y51.373 E0.03663
G1 X55.612 Y51.67 E0.03194
G1 X54.783 Y52.161 E0.04472
G1 X54 Y52.743 E0.04521
G1 X53.283 Y53.402 E0.04521
G1 X53.601 Y53.715 F27000
G1 F1800
G1 X52.986 Y54.41 E0.04306
G1 X52.446 Y55.164 E0.04306
G1 X51.988 Y55.968 E0.04289
G1 X51.682 Y56.654 E0.03486
G1 X51.458 Y57.266 E0.03023
G1 X51.222 Y58.156 E0.04274
G1 X51.079 Y59.073 E0.04306
G1 X51.031 Y60 E0.04306
G1 X51.079 Y60.927 E0.04306
G1 X51.222 Y61.844 E0.04306
G1 X51.46 Y62.741 E0.04306
G1 X51.789 Y63.609 E0.04306
G1 X52.206 Y64.438 E0.04306
G1 X52.706 Y65.22 E0.04306
G1 X53.28 Y65.94 E0.04272
G1 X53.731 Y66.411 E0.03024
G1 X54.288 Y66.915 E0.03487
G1 X55.03 Y67.466 E0.04287
G1 X55.828 Y67.94 E0.04306
G1 X56.671 Y68.329 E0.04306
G1 X57.55 Y68.628 E0.04306
G1 X58.455 Y68.835 E0.04306
G1 X59.376 Y68.947 E0.04306
G1 X60.304 Y68.964 E0.04306
G1 X61.229 Y68.885 E0.04306
G1 X62.14 Y68.71 E0.04306
G1 X63.021 Y68.444 E0.04268
G1 X63.627 Y68.201 E0.03028
G1 X64.302 Y67.869 E0.03492
G1 X65.089 Y67.386 E0.04283
G1 X65.825 Y66.82 E0.04306
G1 X66.498 Y66.182 E0.04306
G1 X67.102 Y65.477 E0.04306
G1 X67.63 Y64.714 E0.04306
G1 X68.077 Y63.9 E0.04306
G1 X68.436 Y63.044 E0.04306
G1 X68.706 Y62.156 E0.04306
G1 X68.882 Y61.245 E0.04306
G1 X68.962 Y60.33 E0.04263
G1 X68.962 Y59.67 E0.03058
G1 X68.882 Y58.755 E0.04263
G1 X68.706 Y57.844 E0.04306
G1 X68.438 Y56.961 E0.04281
G1 X68.152 Y56.264 E0.03495
G1 X67.859 Y55.68 E0.0303
G1 X67.376 Y54.898 E0.04265
G1 X66.809 Y54.163 E0.04306
G1 X66.17 Y53.49 E0.04306
G1 X65.464 Y52.888 E0.04306
G1 X64.7 Y52.361 E0.04306
G1 X63.889 Y51.918 E0.04284
G1 X63.198 Y51.622 E0.03492
G1 X62.58 Y51.411 E0.03028
G1 X61.687 Y51.191 E0.04268
G1 X60.767 Y51.064 E0.04306
G1 X59.84 Y51.032 E0.04306
G1 X58.914 Y51.097 E0.04306
G1 X58 Y51.257 E0.04306
G1 X57.111 Y51.509 E0.04286
G1 X56.41 Y51.783 E0.03489
G1 X55.822 Y52.064 E0.03025
G1 X55.03 Y52.534 E0.04271
G1 X54.285 Y53.087 E0.04306
G1 X53.601 Y53.715 E0.04306
G1 X53.92 Y54.028 F27000
G1 F1800
G1 X53.336 Y54.688 E0.04091
G1 X52.822 Y55.405 E0.04091
G1 X52.387 Y56.17 E0.04081
G1 X52.096 Y56.821 E0.03312
G1 X51.884 Y57.4 E0.02855
G1 X51.66 Y58.248 E0.04072
G1 X51.523 Y59.119 E0.04091
G1 X51.478 Y60 E0.04091
G1 X51.523 Y60.881 E0.04091
G1 X51.66 Y61.752 E0.04091
G1 X51.885 Y62.605 E0.04091
G1 X52.198 Y63.429 E0.04091
G1 X52.594 Y64.217 E0.04091
G1 X53.07 Y64.96 E0.04091
G1 X53.617 Y65.646 E0.04071
G1 X54.042 Y66.091 E0.02856
G1 X54.572 Y66.57 E0.03313
G1 X55.278 Y67.094 E0.0408
G1 X56.036 Y67.544 E0.04091
G1 X56.837 Y67.914 E0.04091
G1 X57.672 Y68.198 E0.04091
G1 X58.532 Y68.395 E0.04091
G1 X59.407 Y68.502 E0.04091
G1 X60.289 Y68.517 E0.04091
G1 X61.167 Y68.442 E0.04091
G1 X62.034 Y68.276 E0.04091
G1 X62.873 Y68.023 E0.04068
G1 X63.445 Y67.793 E0.02858
G1 X64.087 Y67.478 E0.03316
G1 X64.835 Y67.018 E0.04078
G1 X65.534 Y66.48 E0.04091
G1 X66.174 Y65.874 E0.04091
G1 X66.748 Y65.204 E0.04091
G1 X67.25 Y64.479 E0.04091
G1 X67.674 Y63.706 E0.04091
G1 X68.016 Y62.893 E0.04091
G1 X68.272 Y62.049 E0.04091
G1 X68.439 Y61.183 E0.04091
G1 X68.516 Y60.31 E0.04065
G1 X68.516 Y59.69 E0.02876
G1 X68.439 Y58.817 E0.04065
G1 X68.272 Y57.951 E0.04091
G1 X68.017 Y57.111 E0.04076
G1 X67.746 Y56.449 E0.03318
G1 X67.469 Y55.898 E0.0286
G1 X67.009 Y55.152 E0.04066
G1 X66.47 Y54.454 E0.04091
G1 X65.862 Y53.815 E0.04091
G1 X65.192 Y53.242 E0.04091
G1 X64.466 Y52.742 E0.04091
G1 X63.694 Y52.32 E0.04078
G1 X63.037 Y52.039 E0.03316
G1 X62.454 Y51.839 E0.02858
G1 X61.603 Y51.63 E0.04068
G1 X60.729 Y51.509 E0.04091
G1 X59.848 Y51.479 E0.04091
G1 X58.968 Y51.541 E0.04091
G1 X58.099 Y51.692 E0.04091
G1 X57.253 Y51.933 E0.04079
G1 X56.588 Y52.193 E0.03314
G1 X56.032 Y52.458 E0.02857
G1 X55.278 Y52.906 E0.0407
G1 X54.57 Y53.432 E0.04091
G1 X53.92 Y54.028 E0.04091
G1 X54.239 Y54.341 F27000
; custom gcode: feature_gcode
; External perimeter
;ExternalPerimeter
SET_VELOCITY_LIMIT ACCEL=900 ACCEL_TO_DECEL=500 SQUARE_CORNER_VELOCITY=8

; Perimeter
; custom gcode end: feature_gcode

;TYPE:External perimeter
G1 F1800
G1 X53.685 Y54.967 E0.03877
G1 X53.199 Y55.646 E0.03877
G1 X52.786 Y56.372 E0.03873
G1 X52.509 Y56.989 E0.03139
G1 X52.311 Y57.534 E0.02688
G1 X52.097 Y58.34 E0.0387
G1 X51.968 Y59.165 E0.03877
G1 X51.925 Y60 E0.03877
G1 X51.968 Y60.835 E0.03877
G1 X52.097 Y61.66 E0.03877
G1 X52.311 Y62.468 E0.03877
G1 X52.607 Y63.249 E0.03877
G1 X52.983 Y63.996 E0.03877
G1 X53.433 Y64.7 E0.03877
G1 X53.953 Y65.352 E0.03869
G1 X54.354 Y65.77 E0.02688
G1 X54.855 Y66.224 E0.03139
G1 X55.526 Y66.722 E0.03873
G1 X56.244 Y67.149 E0.03877
G1 X57.003 Y67.499 E0.03877
G1 X57.794 Y67.768 E0.03877
G1 X58.609 Y67.954 E0.03877
G1 X59.438 Y68.056 E0.03877
G1 X60.274 Y68.071 E0.03877
G1 X61.106 Y67.999 E0.03877
G1 X61.927 Y67.842 E0.03877
G1 X62.725 Y67.601 E0.03868
G1 X63.263 Y67.385 E0.02689
G1 X63.871 Y67.087 E0.0314
G1 X64.582 Y66.65 E0.03872
G1 X65.244 Y66.14 E0.03877
G1 X65.851 Y65.566 E0.03877
G1 X66.394 Y64.931 E0.03877
G1 X66.87 Y64.244 E0.03877
G1 X67.272 Y63.511 E0.03877
G1 X67.595 Y62.741 E0.03877
G1 X67.838 Y61.941 E0.03877
G1 X67.997 Y61.121 E0.03877
G1 X68.069 Y60.29 E0.03867
G1 X68.069 Y59.71 E0.02695
G1 X67.997 Y58.879 E0.03867
G1 X67.838 Y58.059 E0.03877
G1 X67.596 Y57.26 E0.03871
G1 X67.339 Y56.634 E0.03141
G1 X67.079 Y56.116 E0.02689
G1 X66.641 Y55.406 E0.03868
G1 X66.131 Y54.745 E0.03877
G1 X65.555 Y54.139 E0.03877
G1 X64.919 Y53.596 E0.03877
G1 X64.231 Y53.122 E0.03877
G1 X63.499 Y52.722 E0.03872
G1 X62.877 Y52.456 E0.0314
G1 X62.328 Y52.268 E0.02689
G1 X61.519 Y52.069 E0.03868
G1 X60.691 Y51.954 E0.03877
G1 X59.856 Y51.926 E0.03877
G1 X59.022 Y51.984 E0.03877
G1 X58.199 Y52.128 E0.03877
G1 X57.396 Y52.356 E0.03872
G1 X56.766 Y52.603 E0.0314
G1 X56.243 Y52.852 E0.02688
G1 X55.526 Y53.278 E0.03869
G1 X54.855 Y53.776 E0.03877
G1 X54.239 Y54.341 E0.03877
;WIPE_START
G1 X53.85 Y54.248 F27000
;WIPE_END
G1 X46.764 Y68.434
; custom gcode: feature_gcode
; External perimeter
;Perimeter
SET_VELOCITY_LIMIT ACCEL=1800 ACCEL_TO_DECEL=1000 SQUARE_CORNER_VELOCITY=8

; Overhang perimeter
; custom gcode end: feature_gcode

;TYPE:Internal perimeter
G1 F1800
G1 X46.764 Y51.566 E0.78255
G1 X51.566 Y46.764 E0.31505
G1 X68.434 Y46.764 E0.78255
G1 X73.236 Y51.566 E0.31505
G1 X73.236 Y68.434 E0.78255
G1 X68.434 Y73.236 E0.31505
G1 X51.566 Y73.236 E0.78255
G1 X46.764 Y68.434 E0.31505
G1 X46.318 Y68.434 F27000
G1 F1800
G1 X46.318 Y51.381 E0.79113
G1 X51.381 Y46.318 E0.3322
G1 X68.619 Y46.318 E0.79971
G1 X73.682 Y51.381 E0.3322
M73 P1 R58
G1 X73.682 Y68.619 E0.79971
G1 X68.619 Y73.682 E0.3322
G1 X51.381 Y73.682 E0.79971
G1 X46.318 Y68.619 E0.3322
G1 X46.318 Y68.434 E0.00858
G1 X45.871 Y68.804 F27000
G1 F1800
G1 X45.871 Y51.196 E0.81686
G1 X51.196 Y45.871 E0.34936
G1 X68.804 Y45.871 E0.81686
G1 X68.911 Y45.979 E0.00705
G1 X74.129 Y51.196 E0.34231
G1 X74.129 Y68.804 E0.81686
G1 X68.804 Y74.129 E0.34936
G1 X51.196 Y74.129 E0.81686
G1 X45.871 Y68.804 E0.34936
G1 X45.425 Y68.804 F27000
; custom gcode: feature_gcode
; External perimeter
;ExternalPerimeter
SET_VELOCITY_LIMIT ACCEL=900 ACCEL_TO_DECEL=500 SQUARE_CORNER_VELOCITY=8

; Perimeter
; custom gcode end: feature_gcode

;TYPE:External perimeter
G1 F1800
G1 X45.425 Y51.011 E0.82544
G1 X51.011 Y45.425 E0.36651
G1 X68.989 Y45.425 E0.83402
G1 X69.227 Y45.663 E0.01563
G1 X74.575 Y51.011 E0.35089
G1 X74.575 Y68.989 E0.83402
G1 X68.989 Y74.575 E0.36651
G1 X51.011 Y74.575 E0.83402
G1 X45.425 Y68.989 E0.36651
G1 X45.425 Y68.804 E0.00858
;WIPE_START
G1 X45.771 Y68.604 F27000
;WIPE_END
G1 E-0.5 F1800
G1 Z0.45 F27000
G1 X68.122 Y46.831
G1 Z0.25
G1 E0.5 F1800
; custom gcode: feature_gcode
; External perimeter
;SolidInfill
SET_VELOCITY_LIMIT ACCEL=3800 ACCEL_TO_DECEL=2000 SQUARE_CORNER_VELOCITY=8

; Bridge infill
; custom gcode end: feature_gcode

;TYPE:Solid infill
;WIDTH:0.483317
G1 F3600
G1 X72.977 Y51.686 E0.3079
G1 X72.977 Y52.317 E0.02831
G1 X67.683 Y47.023 E0.33576
G1 X67.052 Y47.023 E0.02831
G1 X72.977 Y52.948 E0.37579
G1 X72.977 Y53.58 E0.02831
G1 X66.42 Y47.023 E0.41582
G1 X65.789 Y47.023 E0.02831
G1 X72.977 Y54.211 E0.45586
G1 X72.977 Y54.842 E0.02831
G1 X65.158 Y47.023 E0.49589
G1 X64.527 Y47.023 E0.02831
G1 X72.977 Y55.473 E0.53592
G1 X72.977 Y56.105 E0.02831
G1 X63.895 Y47.023 E0.57595
G1 X63.264 Y47.023 E0.02831
G1 X72.977 Y56.736 E0.61599
G1 X72.977 Y57.367 E0.02831
G1 X62.633 Y47.023 E0.65602
G1 X62.002 Y47.023 E0.02831
G1 X72.977 Y57.998 E0.69605
G1 X72.977 Y58.629 E0.02831
G1 X61.371 Y47.023 E0.73609
G1 X60.739 Y47.023 E0.02831
G1 X72.977 Y59.261 E0.77612
G1 X72.977 Y59.892 E0.02831
G1 X68.531 Y55.446 E0.28199
G1 X68.476 Y55.336 E0.00551
G1 X67.957 Y54.496 E0.04426
G1 X67.346 Y53.703 E0.0449
G1 X66.656 Y52.978 E0.0449
G1 X65.894 Y52.328 E0.0449
G1 X65.07 Y51.76 E0.0449
G1 X64.574 Y51.489 E0.02533
G1 X60.108 Y47.023 E0.28323
G1 X59.477 Y47.023 E0.02831
G1 X63.4 Y50.946 E0.2488
G1 X62.779 Y50.733 E0.02944
G1 X62.483 Y50.661 E0.01366
G1 X58.846 Y47.023 E0.2307
G1 X58.214 Y47.023 E0.02831
G1 X61.668 Y50.476 E0.21902
G1 X60.935 Y50.375 E0.03316
G1 X57.583 Y47.023 E0.2126
G1 X56.952 Y47.023 E0.02831
G1 X60.27 Y50.341 E0.21045
G1 X59.827 Y50.326 E0.01989
G1 X59.637 Y50.34 E0.00853
G1 X56.321 Y47.023 E0.21034
G1 X55.689 Y47.023 E0.02831
G1 X59.047 Y50.381 E0.21295
G1 X58.828 Y50.396 E0.00984
G1 X58.49 Y50.455 E0.01539
G1 X55.058 Y47.023 E0.21767
G1 X54.427 Y47.023 E0.02831
G1 X57.953 Y50.549 E0.22362
G1 X57.842 Y50.568 E0.00505
G1 X57.452 Y50.679 E0.01819
G1 X53.796 Y47.023 E0.23188
G1 X53.165 Y47.023 E0.02831
