; generated by SuperSlicer 2.3.57 on 2022-04-11 at 16:01:50 UTC


;
;

;
;
; 

; external perimeters extrusion width = 0.40mm
; perimeters extrusion width = 0.45mm
; infill extrusion width = 0.72mm
; solid infill extrusion width = 0.56mm
; top infill extrusion width = 0.40mm
; first layer extrusion width = 0.52mm

; object:{"name":"Wallet M3_TOP_VORON","id":"Wallet M3_TOP_VORON.stl id:0 copy 0","object_center":[58.838610,69.906210,0.000000],"boundingbox_center":[58.838610,69.906210,6.000000],"boundingbox_size":[107.757462,73.000000,12.000000]}
; plater:{"center":[58.838610,69.906210,0.000000],"boundingbox_center":[58.838610,69.906210,6.000000],"boundingbox_size":[107.757462,73.000000,12.000000]}

M73 P0 R193
;TYPE:Custom
; custom gcode: start_gcode
PRINT_START BED=110 HOTEND=260 CHAMBER=45
; custom gcode end: start_gcode
G21 ; set units to millimeters
G90 ; use absolute coordinates
M83 ; use relative distances for extrusion
; custom gcode: start_filament_gcode
; Filament gcode
; custom gcode end: start_filament_gcode
M104 S260 ; set temperature
M109 S260 ; set temperature and wait for it to be reached
M190 S110 ; set bed temperature and wait for it to be reached
;LAYER_CHANGE
;Z:0.11875
;HEIGHT:0.11875
G1 E-2 F1800
G1 Z0.11875 F27000
G1 X14.52 Y29.919
G1 E2 F1800
; custom gcode: feature_gcode
; External perimeter
;Skirt
SET_VELOCITY_LIMIT ACCEL=5000 ACCEL_TO_DECEL=2500 SQUARE_CORNER_VELOCITY=8

; Support material
; custom gcode end: feature_gcode

;TYPE:Skirt
;WIDTH:0.52
G1 X2.936 Y37.238 E0.32114
G1 X2.001 Y38.128 E0.03026
G1 X1.312 Y39.22 E0.03026
G1 X0.911 Y40.447 E0.03026
G1 X0.822 Y41.735 E0.03026
G1 X5.546 Y99.883 E1.36734
G1 X5.868 Y101.26 E0.03315
G1 X6.547 Y102.501 E0.03315
G1 X7.036 Y103.071 E0.01761
G1 X13.189 Y109.218 E0.20384
G1 X14.062 Y109.868 E0.02552
G1 X15.052 Y110.324 E0.02552
G1 X15.834 Y110.523 E0.01893
G1 X16.638 Y110.6 E0.01893
G1 X30.381 Y110.6 E0.32211
G1 X107.937 Y101.561 E1.83006
G1 X109.231 Y101.227 E0.03132
G1 X110.398 Y100.576 E0.03132
G1 X110.972 Y100.084 E0.01774
G1 X115.751 Y95.264 E0.15907
G1 X116.179 Y94.647 E0.01761
G1 X116.513 Y93.98 E0.01747
G1 X116.75 Y93.267 E0.01761
G1 X116.882 Y92.534 E0.01747
G1 X116.901 Y40.159 E1.22755
G1 X116.788 Y39.371 E0.01866
G1 X116.554 Y38.604 E0.0188
G1 X116.207 Y37.881 E0.0188
G1 X115.753 Y37.22 E0.0188
G1 X109.265 Y30.691 E0.21572
G1 X108.481 Y30.064 E0.02355
G1 X107.591 Y29.597 E0.02355
G1 X106.623 Y29.309 E0.02368
G1 X105.623 Y29.211 E0.02355
G1 X16.741 Y29.227 E2.08321
G1 X15.589 Y29.449 E0.0275
G1 X14.575 Y29.895 E0.02596
G1 X14.774 Y30.345 F27000
G1 F1800
G1 X14.757 Y30.353 E0.00043
G1 X3.241 Y37.627 E0.31925
G1 X2.388 Y38.435 E0.02754
G1 X1.76 Y39.429 E0.02754
G1 X1.395 Y40.546 E0.02754
G1 X1.317 Y41.718 E0.02754
G1 X6.037 Y99.826 E1.36641
G1 X6.324 Y101.069 E0.02992
G1 X6.936 Y102.196 E0.03004
G1 X13.514 Y108.846 E0.21924
G1 X14.315 Y109.443 E0.02341
G1 X15.217 Y109.858 E0.02328
G1 X15.926 Y110.038 E0.01713
G1 X16.659 Y110.106 E0.01726
G1 X30.381 Y110.106 E0.32161
G1 X107.872 Y101.071 E1.82855
G1 X109.037 Y100.772 E0.02817
G1 X110.093 Y100.187 E0.02829
G1 X115.348 Y94.976 E0.17346
G1 X116.053 Y93.799 E0.03216
G1 X116.392 Y92.475 E0.03204
G1 X116.408 Y40.204 E1.22512
G1 X116.305 Y39.475 E0.01726
G1 X116.089 Y38.771 E0.01726
G1 X115.767 Y38.109 E0.01726
G1 X115.347 Y37.504 E0.01726
G1 X108.923 Y31.048 E0.21347
G1 X108.21 Y30.477 E0.0214
G1 X107.401 Y30.054 E0.0214
G1 X106.531 Y29.794 E0.02128
G1 X105.623 Y29.705 E0.0214
G1 X16.783 Y29.72 E2.08222
G1 X15.734 Y29.921 E0.02504
G1 X14.828 Y30.321 E0.0232
G1 X15.028 Y30.771 F27000
G1 F1800
G1 X14.996 Y30.786 E0.00083
G1 X3.546 Y38.016 E0.31738
G1 X2.774 Y38.744 E0.02488
G1 X2.208 Y39.636 E0.02476
G1 X1.88 Y40.64 E0.02476
G1 X1.811 Y41.699 E0.02488
G1 X6.529 Y99.777 E1.36569
G1 X6.785 Y100.89 E0.02677
G1 X7.328 Y101.894 E0.02677
G1 X13.842 Y108.475 E0.21702
G1 X14.566 Y109.017 E0.0212
G1 X15.388 Y109.394 E0.0212
G1 X16.673 Y109.612 E0.03055
G1 X30.373 Y109.612 E0.3211
G1 X107.805 Y100.581 E1.82715
G1 X108.848 Y100.315 E0.02523
G1 X109.791 Y99.795 E0.02523
G1 X114.951 Y94.68 E0.17029
G1 X115.596 Y93.612 E0.02925
G1 X115.902 Y92.407 E0.02913
G1 X115.916 Y40.251 E1.22243
G1 X115.823 Y39.586 E0.01574
G1 X115.626 Y38.944 E0.01574
G1 X115.333 Y38.346 E0.01562
G1 X114.947 Y37.797 E0.01574
G1 X108.584 Y31.407 E0.21135
G1 X107.946 Y30.895 E0.01918
G1 X107.221 Y30.514 E0.01918
G1 X106.437 Y30.28 E0.01918
G1 X105.622 Y30.2 E0.01918
G1 X16.826 Y30.212 E2.08121
G1 X15.878 Y30.394 E0.02262
G1 X15.083 Y30.747 E0.02038
; INIT printing object Wallet M3_TOP_VORON.stl id:0 copy 0
G1 E-2
; printing object Wallet M3_TOP_VORON.stl id:0 copy 0
G1 X20.588 Y41.057 F27000
G1 E2 F1800
; custom gcode: feature_gcode
; External perimeter
;Perimeter
SET_VELOCITY_LIMIT ACCEL=800 ACCEL_TO_DECEL=400 SQUARE_CORNER_VELOCITY=8

; Overhang perimeter
; custom gcode end: feature_gcode

;TYPE:Internal perimeter
G1 X13.458 Y53.406 E0.33421
G1 X19.71 Y64.235 E0.29306
G1 X20.588 Y65.755 E0.04116
G1 X34.847 Y65.755 E0.33421
G1 X41.977 Y53.406 E0.33421
M73 P0 R192
G1 X35.725 Y42.578 E0.29306
G1 X34.847 Y41.057 E0.04116
G1 X20.648 Y41.057 E0.33281
G1 X20.873 Y41.552 F27000
G1 F1800
G1 X14.029 Y53.406 E0.32083
G1 X20.138 Y63.987 E0.28636
G1 X20.873 Y65.261 E0.03446
G1 X34.562 Y65.261 E0.32083
G1 X41.406 Y53.406 E0.32083
G1 X35.297 Y42.825 E0.28636
G1 X34.562 Y41.552 E0.03446
G1 X20.933 Y41.552 E0.31942
G1 X21.159 Y42.046 F27000
; custom gcode: feature_gcode
; External perimeter
;ExternalPerimeter
SET_VELOCITY_LIMIT ACCEL=450 ACCEL_TO_DECEL=250 SQUARE_CORNER_VELOCITY=8

; Perimeter
; custom gcode end: feature_gcode

;TYPE:External perimeter
G1 F1800
G1 X14.6 Y53.406 E0.30744
G1 X20.566 Y63.74 E0.27967
G1 X21.159 Y64.766 E0.02777
G1 X34.276 Y64.766 E0.30744
G1 X40.835 Y53.406 E0.30744
G1 X34.868 Y43.072 E0.27967
G1 X34.276 Y42.046 E0.02777
G1 X21.219 Y42.046 E0.30604
;WIPE_START
G1 X20.783 Y41.909 F27000
;WIPE_END
G1 X7.65 Y42.696
; custom gcode: feature_gcode
; External perimeter
;Perimeter
SET_VELOCITY_LIMIT ACCEL=800 ACCEL_TO_DECEL=400 SQUARE_CORNER_VELOCITY=8

; Overhang perimeter
; custom gcode end: feature_gcode

;TYPE:Internal perimeter
G1 F1800
G1 X10.666 Y42.696 E0.07069
G1 X17.665 Y35.696 E0.232
G1 X21.458 Y35.701 E0.08889
G1 X23.596 Y35.753 E0.05014
G1 X24.865 Y35.823 E0.02978
G1 X26.137 Y35.922 E0.02991
G1 X27.406 Y36.048 E0.02991
G1 X28.673 Y36.203 E0.02991
G1 X29.936 Y36.386 E0.02991
G1 X31.194 Y36.596 E0.02991
G1 X32.444 Y36.834 E0.02983
G1 X34.107 Y37.198 E0.03989
G1 X36.178 Y37.717 E0.05004
G1 X37.4 Y38.064 E0.02978
G1 X38.619 Y38.439 E0.0299
G1 X41.258 Y39.315 E0.06516
G1 X42.695 Y39.759 E0.03525
G1 X44.141 Y40.172 E0.03525
G1 X45.595 Y40.554 E0.03525
G1 X47.058 Y40.905 E0.03525
G1 X48.528 Y41.224 E0.03525
G1 X50.004 Y41.512 E0.03525
G1 X51.486 Y41.768 E0.03525
G1 X52.973 Y41.993 E0.03525
G1 X54.464 Y42.185 E0.03525
G1 X55.96 Y42.346 E0.03525
G1 X57.458 Y42.474 E0.03525
G1 X58.959 Y42.571 E0.03525
G1 X60.462 Y42.635 E0.03525
G1 X61.965 Y42.667 E0.03525
G1 X63.469 Y42.667 E0.03525
G1 X64.973 Y42.635 E0.03525
G1 X66.476 Y42.571 E0.03525
G1 X67.976 Y42.474 E0.03525
G1 X69.475 Y42.346 E0.03525
G1 X70.97 Y42.185 E0.03525
G1 X72.462 Y41.993 E0.03525
G1 X73.949 Y41.768 E0.03525
G1 X74.942 Y41.597 E0.02362
G1 X76.904 Y41.225 E0.0468
G1 X78.377 Y40.905 E0.03533
G1 X79.839 Y40.554 E0.03525
G1 X81.294 Y40.172 E0.03525
G1 X82.74 Y39.759 E0.03525
G1 X84.177 Y39.315 E0.03525
G1 X86.815 Y38.439 E0.06516
G1 X88.035 Y38.064 E0.0299
G1 X89.257 Y37.717 E0.02978
G1 X91.328 Y37.198 E0.05004
G1 X92.99 Y36.834 E0.03989
G1 X94.24 Y36.596 E0.02983
G1 X95.499 Y36.386 E0.02991
G1 X96.762 Y36.203 E0.02991
G1 X98.028 Y36.048 E0.02991
G1 X99.298 Y35.922 E0.02991
G1 X100.57 Y35.823 E0.02991
G1 X101.844 Y35.752 E0.02991
G1 X103.116 Y35.71 E0.02983
G1 X104.368 Y35.703 E0.02935
G1 X104.368 Y36.965 E0.02958
G1 X105.097 Y37.693 E0.02415
G1 X109.159 Y41.755 E0.13463
G1 X110.428 Y41.755 E0.02975
G1 X110.428 Y91.458 E1.16493
G1 X106.769 Y95.117 E0.12127
G1 X38.769 Y95.117 E1.59378
G1 X29.769 Y104.117 E0.29832
G1 X17.252 Y104.117 E0.29338
G1 X12.007 Y98.872 E0.17384
G1 X12.007 Y60.124 E0.90817
G1 X7.664 Y42.754 E0.41965
G1 X7.017 Y42.201 F27000
G1 F1800
G1 X10.461 Y42.201 E0.08073
G1 X17.461 Y35.202 E0.23201
G1 X21.464 Y35.206 E0.09383
G1 X23.616 Y35.258 E0.05045
G1 X24.897 Y35.329 E0.03008
G1 X26.18 Y35.429 E0.03016
G1 X27.461 Y35.557 E0.03016
G1 X28.738 Y35.713 E0.03016
G1 X30.012 Y35.897 E0.03016
G1 X31.281 Y36.11 E0.03016
G1 X32.543 Y36.35 E0.03011
G1 X34.22 Y36.717 E0.04022
G1 X36.305 Y37.239 E0.05039
G1 X37.54 Y37.589 E0.03008
G1 X38.77 Y37.968 E0.03016
G1 X41.409 Y38.844 E0.06517
G1 X42.835 Y39.285 E0.035
G1 X44.271 Y39.695 E0.035
G1 X45.716 Y40.074 E0.035
G1 X47.168 Y40.423 E0.035
G1 X48.627 Y40.74 E0.035
G1 X50.093 Y41.026 E0.035
G1 X51.565 Y41.28 E0.035
G1 X53.041 Y41.503 E0.035
G1 X54.522 Y41.694 E0.035
G1 X56.007 Y41.854 E0.035
G1 X57.495 Y41.981 E0.035
G1 X58.986 Y42.077 E0.035
G1 X60.478 Y42.141 E0.035
G1 X61.971 Y42.173 E0.035
G1 X63.464 Y42.173 E0.035
G1 X64.957 Y42.141 E0.035
G1 X66.449 Y42.077 E0.035
G1 X67.939 Y41.981 E0.035
G1 X69.427 Y41.854 E0.035
G1 X70.912 Y41.694 E0.035
G1 X72.393 Y41.503 E0.035
G1 X73.87 Y41.28 E0.035
G1 X74.854 Y41.11 E0.02341
G1 X76.805 Y40.74 E0.04655
G1 X78.267 Y40.423 E0.03505
G1 X79.719 Y40.074 E0.035
G1 X81.163 Y39.695 E0.035
G1 X82.599 Y39.285 E0.035
G1 X84.026 Y38.844 E0.035
G1 X86.665 Y37.968 E0.06517
G1 X87.895 Y37.589 E0.03016
G1 X89.129 Y37.239 E0.03008
G1 X91.215 Y36.717 E0.05039
G1 X92.891 Y36.35 E0.04022
G1 X94.153 Y36.11 E0.03011
G1 X95.423 Y35.897 E0.03016
G1 X96.696 Y35.713 E0.03016
G1 X97.974 Y35.557 E0.03016
G1 X99.254 Y35.429 E0.03016
G1 X100.537 Y35.329 E0.03016
G1 X101.822 Y35.258 E0.03016
G1 X103.106 Y35.216 E0.03012
G1 X104.863 Y35.206 E0.04117
G1 X104.863 Y36.76 E0.03643
G1 X105.446 Y37.344 E0.01934
G1 X109.363 Y41.261 E0.12983
G1 X110.922 Y41.261 E0.03654
G1 X110.922 Y91.663 E1.18132
G1 X106.974 Y95.611 E0.13088
G1 X38.974 Y95.611 E1.59378
G1 X29.974 Y104.611 E0.29832
G1 X17.047 Y104.611 E0.30298
G1 X11.512 Y99.077 E0.18344
G1 X11.512 Y60.185 E0.91154
G1 X7.031 Y42.26 E0.43307
G1 X6.383 Y41.707 F27000
; custom gcode: feature_gcode
; External perimeter
;ExternalPerimeter
SET_VELOCITY_LIMIT ACCEL=450 ACCEL_TO_DECEL=250 SQUARE_CORNER_VELOCITY=8

; Perimeter
; custom gcode end: feature_gcode

;TYPE:External perimeter
G1 F1800
G1 X10.256 Y41.707 E0.09077
G1 X17.256 Y34.707 E0.23202
G1 X21.47 Y34.712 E0.09877
G1 X23.635 Y34.764 E0.05076
G1 X24.93 Y34.836 E0.03039
G1 X26.224 Y34.936 E0.03042
G1 X27.516 Y35.065 E0.03042
G1 X28.804 Y35.223 E0.03042
G1 X30.088 Y35.409 E0.03042
G1 X31.368 Y35.623 E0.03042
G1 X32.643 Y35.865 E0.0304
G1 X34.333 Y36.235 E0.04055
G1 X36.433 Y36.761 E0.05074
G1 X37.68 Y37.115 E0.03039
G1 X38.921 Y37.497 E0.03042
G1 X41.56 Y38.373 E0.06517
G1 X42.976 Y38.811 E0.03475
G1 X44.402 Y39.218 E0.03475
G1 X45.836 Y39.595 E0.03475
G1 X47.278 Y39.941 E0.03475
G1 X48.727 Y40.255 E0.03475
G1 X50.183 Y40.539 E0.03475
G1 X51.644 Y40.792 E0.03475
G1 X53.11 Y41.013 E0.03475
G1 X54.581 Y41.203 E0.03475
G1 X56.055 Y41.361 E0.03475
G1 X57.532 Y41.488 E0.03475
G1 X59.012 Y41.583 E0.03475
G1 X60.493 Y41.647 E0.03475
G1 X61.976 Y41.678 E0.03475
G1 X63.459 Y41.678 E0.03475
G1 X64.941 Y41.647 E0.03475
G1 X66.423 Y41.583 E0.03475
G1 X67.902 Y41.488 E0.03475
G1 X69.38 Y41.361 E0.03475
G1 X70.854 Y41.203 E0.03475
G1 X72.325 Y41.013 E0.03475
G1 X73.791 Y40.792 E0.03475
G1 X74.766 Y40.623 E0.02319
G1 X76.707 Y40.256 E0.0463
G1 X78.156 Y39.941 E0.03477
G1 X79.598 Y39.595 E0.03475
G1 X81.033 Y39.218 E0.03475
G1 X82.458 Y38.811 E0.03475
G1 X83.875 Y38.373 E0.03475
G1 X86.514 Y37.497 E0.06517
G1 X87.754 Y37.115 E0.03042
G1 X89.002 Y36.761 E0.03039
G1 X91.102 Y36.235 E0.05074
G1 X92.792 Y35.865 E0.04055
G1 X94.066 Y35.623 E0.0304
G1 X95.346 Y35.409 E0.03042
G1 X96.631 Y35.223 E0.03042
G1 X97.919 Y35.065 E0.03042
G1 X99.211 Y34.936 E0.03042
G1 X100.505 Y34.836 E0.03042
G1 X101.8 Y34.764 E0.03042
G1 X103.097 Y34.721 E0.0304
G1 X105.357 Y34.708 E0.05298
G1 X105.357 Y36.555 E0.04329
G1 X105.796 Y36.994 E0.01454
G1 X109.568 Y40.766 E0.12503
G1 X111.417 Y40.766 E0.04332
G1 X111.417 Y91.867 E1.19771
G1 X107.179 Y96.106 E0.14048
G1 X39.179 Y96.106 E1.59378
G1 X30.179 Y105.106 E0.29832
G1 X16.842 Y105.106 E0.31259
G1 X11.018 Y99.282 E0.19304
G1 X11.018 Y60.246 E0.91491
G1 X6.398 Y41.765 E0.44649
;WIPE_START
G1 X6.745 Y41.878 F27000
;WIPE_END
G1 E-2 F1800
G1 X103.308 Y35.783 F27000
G1 E2 F1800
; custom gcode: feature_gcode
; External perimeter
;SolidInfill
SET_VELOCITY_LIMIT ACCEL=3800 ACCEL_TO_DECEL=2000 SQUARE_CORNER_VELOCITY=8

; Bridge infill
; custom gcode end: feature_gcode

;TYPE:Solid infill
;WIDTH:0.515707
G1 X104.082 Y36.557 E0.02544
G1 X104.082 Y37.084 E0.01224
G1 X109.04 Y42.042 E0.16299
G1 X109.567 Y42.042 E0.01224
G1 X110.141 Y42.616 E0.01888
G1 X110.141 Y43.316 E0.01626
G1 X102.832 Y36.007 E0.24027
G1 X102.155 Y36.029 E0.01574
G1 X110.141 Y44.015 E0.26252
G1 X110.141 Y44.714 E0.01626
G1 X101.486 Y36.059 E0.28451
G1 X100.823 Y36.096 E0.01543
G1 X110.141 Y45.414 E0.3063
G1 X110.141 Y46.113 E0.01626
G1 X100.169 Y36.142 E0.32779
G1 X99.52 Y36.192 E0.01513
G1 X110.141 Y46.813 E0.34913
G1 X110.141 Y47.512 E0.01626
G1 X98.88 Y36.251 E0.37016
G1 X98.245 Y36.315 E0.01485
G1 X110.141 Y48.211 E0.39106
G1 X110.141 Y48.911 E0.01626
G1 X97.618 Y36.387 E0.41167
G1 X96.994 Y36.464 E0.01459
G1 X110.141 Y49.61 E0.43216
M73 P0 R191
G1 X110.141 Y50.309 E0.01626
G1 X96.38 Y36.548 E0.45237
G1 X95.769 Y36.637 E0.01435
G1 X110.141 Y51.009 E0.47245
G1 X110.141 Y51.708 E0.01626
G1 X95.165 Y36.732 E0.49229
G1 X94.566 Y36.833 E0.01412
G1 X110.141 Y52.407 E0.51198
G1 X110.141 Y53.107 E0.01626
G1 X93.973 Y36.939 E0.53147
G1 X93.386 Y37.051 E0.0139
G1 X110.141 Y53.806 E0.55079
M73 P1 R191
G1 X110.141 Y54.505 E0.01626
G1 X92.804 Y37.169 E0.56991
G1 X92.23 Y37.294 E0.01365
G1 X110.141 Y55.205 E0.58877
G1 X110.141 Y55.904 E0.01626
G1 X91.657 Y37.42 E0.60763
G1 X91.394 Y37.477 E0.00626
G1 X91.091 Y37.553 E0.00726
G1 X110.141 Y56.603 E0.62623
G1 X110.141 Y57.303 E0.01626
G1 X90.531 Y37.693 E0.64461
G1 X89.972 Y37.833 E0.0134
G1 X110.141 Y58.002 E0.663
G1 X110.141 Y58.701 E0.01626
G1 X89.413 Y37.973 E0.68138
G1 X89.331 Y37.994 E0.00196
G1 X88.866 Y38.126 E0.01124
G1 X110.141 Y59.401 E0.69936
G1 X110.141 Y60.1 E0.01626
G1 X88.321 Y38.28 E0.71727
G1 X88.116 Y38.339 E0.00495
G1 X87.783 Y38.441 E0.00811
G1 X110.141 Y60.8 E0.73498
G1 X110.141 Y61.499 E0.01626
G1 X87.248 Y38.606 E0.75256
G1 X86.903 Y38.712 E0.00839
G1 X86.716 Y38.774 E0.00456
G1 X110.141 Y62.198 E0.77002
G1 X110.141 Y62.898 E0.01626
G1 X86.192 Y38.948 E0.78728
G1 X85.667 Y39.123 E0.01286
G1 X110.141 Y63.597 E0.80453
G1 X110.141 Y64.296 E0.01626
G1 X85.142 Y39.297 E0.82179
G1 X84.617 Y39.471 E0.01286
G1 X110.141 Y64.996 E0.83905
G1 X110.141 Y65.695 E0.01626
G1 X84.089 Y39.643 E0.8564
G1 X83.554 Y39.808 E0.013
G1 X110.141 Y66.394 E0.87397
G1 X110.141 Y67.094 E0.01626
G1 X83.02 Y39.973 E0.89153
G1 X82.822 Y40.034 E0.00482
G1 X82.48 Y40.132 E0.00827
G1 X110.141 Y67.793 E0.9093
G1 X110.141 Y68.492 E0.01626
G1 X81.936 Y40.287 E0.92718
G1 X81.392 Y40.443 E0.01315
G1 X110.141 Y69.192 E0.94506
G1 X110.141 Y69.891 E0.01626
G1 X80.838 Y40.588 E0.96326
G1 X80.284 Y40.734 E0.01331
G1 X110.141 Y70.59 E0.98147
G1 X110.141 Y71.29 E0.01626
G1 X79.727 Y40.876 E0.99978
G1 X79.163 Y41.011 E0.01348
G1 X110.141 Y71.989 E1.01833
G1 X110.141 Y72.689 E0.01626
G1 X78.599 Y41.146 E1.03687
G1 X78.441 Y41.184 E0.00378
G1 X78.027 Y41.274 E0.00983
G1 X110.141 Y73.388 E1.05566
G1 X110.141 Y74.087 E0.01626
G1 X77.453 Y41.399 E1.07454
G1 X76.96 Y41.506 E0.01172
G1 X76.876 Y41.522 E0.00199
G1 X110.141 Y74.787 E1.09351
G1 X110.141 Y75.486 E0.01626
G1 X76.285 Y41.63 E1.11292
G1 X75.694 Y41.739 E0.01396
G1 X110.141 Y76.185 E1.13234
G1 X110.141 Y76.885 E0.01626
G1 X75.104 Y41.847 E1.15176
M73 P1 R190
G1 X74.513 Y41.956 E0.01396
G1 X110.141 Y77.584 E1.17118
G1 X110.141 Y78.283 E0.01626
G1 X73.92 Y42.063 E1.19067
G1 X73.313 Y42.154 E0.01428
G1 X110.141 Y78.983 E1.21064
G1 X110.141 Y79.682 E0.01626
