; generated by SuperSlicer 2.3.57 on 2022-04-11 at 18:46:41 UTC


;
;

;
;
; 

; external perimeters extrusion width = 0.40mm
; perimeters extrusion width = 0.45mm
; infill extrusion width = 0.72mm
; solid infill extrusion width = 0.56mm
; top infill extrusion width = 0.40mm
; first layer extrusion width = 0.52mm

; object:{"name":"lever_wallet-m3-v2","id":"lever_wallet-m3-v2.stl id:0 copy 0","object_center":[47.228212,65.855445,0.000000],"boundingbox_center":[47.228212,65.855445,2.400000],"boundingbox_size":[53.995995,12.000000,4.800000]}
; object:{"name":"clip_wallet-m3-v2","id":"clip_wallet-m3-v2.stl id:1 copy 0","object_center":[57.200276,89.157682,0.000000],"boundingbox_center":[57.200276,89.157682,1.450000],"boundingbox_size":[75.000000,30.000000,2.900000]}
; plater:{"center":[57.200276,82.006564,0.000000],"boundingbox_center":[57.200276,82.006564,2.400000],"boundingbox_size":[75.000000,44.302238,4.800000]}

M73 P0 R43
;TYPE:Custom
; custom gcode: start_gcode
PRINT_START BED=110 HOTEND=260 CHAMBER=45
; custom gcode end: start_gcode
G21 ; set units to millimeters
G90 ; use absolute coordinates
M83 ; use relative distances for extrusion
; custom gcode: start_filament_gcode
; Filament gcode
; custom gcode end: start_filament_gcode
M104 S260 ; set temperature
M109 S260 ; set temperature and wait for it to be reached
M190 S110 ; set bed temperature and wait for it to be reached
;LAYER_CHANGE
;Z:0.11875
;HEIGHT:0.11875
G1 E-2 F1800
G1 Z0.11875 F27000
G1 X22.08 Y55.488
G1 E2 F1800
; custom gcode: feature_gcode
; External perimeter
;Skirt
SET_VELOCITY_LIMIT ACCEL=5000 ACCEL_TO_DECEL=2500 SQUARE_CORNER_VELOCITY=8

; Support material
; custom gcode end: feature_gcode

;TYPE:Skirt
;WIDTH:0.52
G1 X20.185 Y56.466 E0.04945
G1 X18.75 Y57.562 E0.04188
G1 X17.637 Y58.719 E0.03725
G1 X16.684 Y60.053 E0.03802
G1 X15.944 Y61.501 E0.03772
G1 X15.415 Y63.062 E0.03822
G1 X15.111 Y64.802 E0.04097
G1 X14.573 Y73.964 E0.21286
G1 X14.569 Y104.266 E0.70282
G1 X14.685 Y105.173 E0.02121
G1 X14.955 Y106.041 E0.02108
G1 X15.371 Y106.849 E0.02108
G1 X15.924 Y107.577 E0.02121
G1 X16.709 Y108.283 E0.02448
G1 X17.619 Y108.817 E0.02448
G1 X18.618 Y109.158 E0.02448
G1 X19.665 Y109.292 E0.02448
G1 X80.627 Y109.272 E1.41394
G1 X82.468 Y109.102 E0.04288
G1 X84.208 Y108.781 E0.04104
G1 X85.984 Y108.287 E0.04277
G1 X87.086 Y107.889 E0.02718
G1 X88.688 Y107.176 E0.04065
G1 X90.313 Y106.269 E0.04317
G1 X91.556 Y105.427 E0.03483
G1 X93.259 Y104.044 E0.05088
G1 X95.2 Y102.011 E0.0652
G1 X96.882 Y99.654 E0.06716
G1 X97.726 Y98.131 E0.04039
G1 X98.437 Y96.529 E0.04065
G1 X99.3 Y93.771 E0.06703
G1 X99.751 Y91.002 E0.06507
G1 X99.807 Y88.107 E0.06716
G1 X99.642 Y86.374 E0.04039
G1 X99.324 Y84.65 E0.04065
G1 X98.475 Y81.882 E0.06716
G1 X97.237 Y79.264 E0.06716
G1 X96.311 Y77.777 E0.04065
G1 X95.241 Y76.355 E0.04125
G1 X78.021 Y56.459 E0.61031
G1 X77.209 Y55.725 E0.02539
G1 X76.262 Y55.176 E0.02539
G1 X75.216 Y54.835 E0.02552
G1 X74.127 Y54.72 E0.02539
G1 X25.526 Y54.711 E1.12724
G1 X23.786 Y54.958 E0.04076
G1 X22.137 Y55.471 E0.04005
G1 X22.351 Y55.92 F27000
G1 F1800
G1 X20.889 Y56.615 E0.03754
G1 X19.225 Y57.803 E0.04741
G1 X18.026 Y59.024 E0.03971
G1 X17.038 Y60.427 E0.0398
G1 X16.167 Y62.296 E0.04781
G1 X15.72 Y63.984 E0.04051
G1 X15.568 Y65.333 E0.03148
G1 X15.06 Y74.182 E0.20559
G1 X15.062 Y104.222 E0.69672
G1 X15.24 Y105.356 E0.02664
G1 X15.689 Y106.419 E0.02676
G1 X16.377 Y107.338 E0.02664
G1 X17.266 Y108.065 E0.02664
G1 X18.458 Y108.605 E0.03035
G1 X19.752 Y108.799 E0.03035
G1 X79.706 Y108.799 E1.39057
G1 X81.584 Y108.708 E0.0436
G1 X84.099 Y108.299 E0.0591
G1 X85.949 Y107.778 E0.04457
G1 X88.357 Y106.788 E0.06038
G1 X90.044 Y105.854 E0.04473
G1 X92.162 Y104.338 E0.0604
G1 X93.586 Y103.049 E0.04457
G1 X94.877 Y101.625 E0.04457
G1 X96.375 Y99.537 E0.0596
G1 X97.328 Y97.819 E0.04557
G1 X98.326 Y95.393 E0.06085
G1 X98.989 Y92.86 E0.06072
G1 X99.267 Y90.861 E0.04681
G1 X99.321 Y88.249 E0.0606
G1 X99.023 Y85.637 E0.06097
G1 X98.562 Y83.683 E0.04656
G1 X97.65 Y81.183 E0.06172
G1 X96.396 Y78.812 E0.06222
G1 X94.807 Y76.605 E0.06306
G1 X77.687 Y56.828 E0.60671
G1 X76.66 Y55.95 E0.03134
G1 X75.479 Y55.412 E0.0301
G1 X74.197 Y55.215 E0.0301
G1 X26.23 Y55.184 E1.11253
M73 P0 R42
G1 X24.513 Y55.322 E0.03995
G1 X23.293 Y55.594 E0.02898
G1 X22.448 Y55.874 E0.02067
G1 X22.405 Y55.894 E0.00109
G1 X22.616 Y56.339 F27000
G1 F1800
G1 X21.14 Y57.041 E0.03791
G1 X19.54 Y58.184 E0.04563
G1 X18.404 Y59.342 E0.03761
G1 X17.466 Y60.674 E0.0378
G1 X16.63 Y62.467 E0.04588
G1 X16.206 Y64.077 E0.03861
G1 X16.061 Y65.368 E0.03014
G1 X15.554 Y74.186 E0.20487
G1 X15.555 Y104.187 E0.69582
G1 X15.714 Y105.215 E0.02415
G1 X16.116 Y106.17 E0.02403
G1 X16.741 Y107.003 E0.02415
G1 X17.549 Y107.659 E0.02415
G1 X18.61 Y108.135 E0.02696
G1 X19.765 Y108.305 E0.02707
G1 X79.706 Y108.305 E1.39026
M73 P1 R42
G1 X81.529 Y108.217 E0.04234
G1 X83.996 Y107.816 E0.05797
G1 X85.791 Y107.31 E0.04326
G1 X88.147 Y106.34 E0.05908
G1 X89.785 Y105.434 E0.04342
G1 X91.854 Y103.951 E0.05904
G1 X93.237 Y102.699 E0.04326
G1 X94.493 Y101.314 E0.04338
G1 X95.969 Y99.253 E0.05879
G1 X97.179 Y96.974 E0.05985
G1 X97.882 Y95.159 E0.04515
G1 X98.522 Y92.675 E0.0595
G1 X98.821 Y90.137 E0.05926
G1 X98.822 Y88.186 E0.04526
G1 X98.522 Y85.643 E0.05938
G1 X97.883 Y83.159 E0.0595
G1 X97.195 Y81.376 E0.04432
G1 X95.976 Y79.073 E0.06044
G1 X94.427 Y76.921 E0.06149
G1 X77.316 Y57.154 E0.60638
G1 X76.373 Y56.353 E0.02871
G1 X75.322 Y55.881 E0.02672
G1 X74.182 Y55.709 E0.02672
G1 X26.23 Y55.678 E1.1122
G1 X24.597 Y55.81 E0.03799
G1 X22.674 Y56.323 E0.04615
; INIT printing object lever_wallet-m3-v2.stl id:0 copy 0
G1 E-2
; printing object lever_wallet-m3-v2.stl id:0 copy 0
G1 X72.801 Y61.204 F27000
G1 E2 F1800
; custom gcode: feature_gcode
; External perimeter
;Perimeter
SET_VELOCITY_LIMIT ACCEL=800 ACCEL_TO_DECEL=400 SQUARE_CORNER_VELOCITY=8

; Overhang perimeter
; custom gcode end: feature_gcode

;TYPE:Internal perimeter
G1 X72.659 Y61.999 E0.01873
G1 X72.537 Y62.525 E0.01252
G1 X72.388 Y63.044 E0.01252
G1 X72.214 Y63.554 E0.01252
G1 X72.014 Y64.056 E0.01252
G1 X71.788 Y64.546 E0.01252
G1 X71.538 Y65.024 E0.01252
G1 X71.265 Y65.489 E0.01252
G1 X70.968 Y65.94 E0.01252
G1 X70.648 Y66.375 E0.01252
G1 X70.307 Y66.793 E0.01252
G1 X69.946 Y67.193 E0.01252
G1 X69.564 Y67.575 E0.01252
G1 X69.164 Y67.937 E0.01252
G1 X68.745 Y68.278 E0.01252
G1 X68.311 Y68.597 E0.01252
G1 X67.86 Y68.894 E0.01252
G1 X67.395 Y69.168 E0.01252
G1 X66.917 Y69.418 E0.01252
G1 X66.426 Y69.643 E0.01252
G1 X65.925 Y69.843 E0.01252
G1 X65.415 Y70.018 E0.01252
G1 X64.896 Y70.166 E0.01252
G1 X64.37 Y70.288 E0.01252
G1 X63.839 Y70.383 E0.01252
G1 X63.304 Y70.451 E0.01252
G1 X62.766 Y70.492 E0.01252
G1 X62.209 Y70.506 E0.01291
G1 X32.716 Y70.507 E0.68405
G1 X32.399 Y70.512 E0.00736
G1 X32.425 Y69.264 E0.02895
G1 X32.425 Y65.828 E0.07968
G1 X32.406 Y65.352 E0.01105
G1 X32.345 Y64.852 E0.01168
G1 X32.243 Y64.359 E0.01168
G1 X32.102 Y63.876 E0.01168
G1 X31.922 Y63.405 E0.01168
G1 X31.704 Y62.951 E0.01168
G1 X31.45 Y62.516 E0.01168
G1 X31.162 Y62.103 E0.01168
G1 X30.841 Y61.715 E0.01168
G1 X30.344 Y61.204 E0.01653
G1 X72.741 Y61.204 E0.98334
G1 X73.335 Y60.71 F27000
G1 F1800
G1 X73.314 Y60.983 E0.00635
G1 X73.243 Y61.543 E0.0131
G1 X73.143 Y62.099 E0.0131
G1 X73.016 Y62.649 E0.0131
G1 X72.86 Y63.192 E0.0131
G1 X72.678 Y63.726 E0.0131
G1 X72.468 Y64.251 E0.0131
G1 X72.232 Y64.764 E0.0131
G1 X71.971 Y65.264 E0.0131
G1 X71.685 Y65.751 E0.0131
G1 X71.374 Y66.222 E0.0131
G1 X71.04 Y66.677 E0.0131
G1 X70.683 Y67.115 E0.0131
G1 X70.304 Y67.534 E0.0131
G1 X69.905 Y67.933 E0.0131
G1 X69.486 Y68.312 E0.0131
G1 X69.048 Y68.669 E0.0131
G1 X68.593 Y69.003 E0.0131
G1 X68.122 Y69.314 E0.0131
G1 X67.635 Y69.6 E0.0131
G1 X67.134 Y69.862 E0.0131
G1 X66.621 Y70.097 E0.0131
G1 X66.097 Y70.307 E0.0131
G1 X65.563 Y70.49 E0.0131
G1 X65.02 Y70.645 E0.0131
G1 X64.47 Y70.773 E0.0131
G1 X63.914 Y70.872 E0.0131
G1 X63.354 Y70.943 E0.0131
G1 X62.791 Y70.986 E0.0131
G1 X62.215 Y71.001 E0.01335
G1 X32.72 Y71.001 E0.68411
G1 X31.894 Y71.014 E0.01917
G1 X31.931 Y69.258 E0.04073
G1 X31.931 Y65.838 E0.07933
G1 X31.913 Y65.392 E0.01035
G1 X31.856 Y64.932 E0.01075
G1 X31.763 Y64.479 E0.01075
G1 X31.633 Y64.034 E0.01075
G1 X31.467 Y63.601 E0.01075
G1 X31.267 Y63.183 E0.01075
G1 X31.033 Y62.783 E0.01075
G1 X30.768 Y62.403 E0.01075
G1 X30.473 Y62.046 E0.01075
G1 X30.15 Y61.713 E0.01075
G1 X29.801 Y61.409 E0.01075
G1 X29.292 Y61.033 E0.01467
G1 X29.398 Y60.71 E0.00788
G1 X73.275 Y60.71 E1.01767
G1 X31.399 Y71.033 F27000
; custom gcode: feature_gcode
; External perimeter
;ExternalPerimeter
SET_VELOCITY_LIMIT ACCEL=450 ACCEL_TO_DECEL=250 SQUARE_CORNER_VELOCITY=8

; Perimeter
; custom gcode end: feature_gcode

;TYPE:External perimeter
G1 F1800
G1 X31.436 Y69.253 E0.04129
G1 X31.436 Y65.848 E0.07898
G1 X31.419 Y65.433 E0.00965
G1 X31.368 Y65.013 E0.00982
G1 X31.282 Y64.598 E0.00982
G1 X31.164 Y64.192 E0.00982
G1 X31.012 Y63.797 E0.00982
G1 X30.83 Y63.415 E0.00982
G1 X30.616 Y63.049 E0.00982
G1 X30.374 Y62.702 E0.00982
G1 X30.105 Y62.376 E0.00982
G1 X29.809 Y62.073 E0.00982
G1 X29.491 Y61.794 E0.00982
G1 X29.15 Y61.543 E0.00982
G1 X28.791 Y61.32 E0.00982
G1 X28.414 Y61.127 E0.00982
G1 X28.023 Y60.965 E0.00982
G1 X27.618 Y60.836 E0.00985
G1 X27.202 Y60.743 E0.00989
G1 X26.776 Y60.692 E0.00994
G1 X25.949 Y60.686 E0.01918
G1 X25.528 Y60.726 E0.00981
G1 X25.113 Y60.799 E0.00976
G1 X24.706 Y60.907 E0.00976
G1 X24.31 Y61.047 E0.00975
G1 X23.926 Y61.218 E0.00975
G1 X23.558 Y61.42 E0.00975
G1 X23.207 Y61.652 E0.00975
G1 X22.875 Y61.91 E0.00975
G1 X22.566 Y62.195 E0.00975
G1 X22.281 Y62.504 E0.00975
G1 X22.021 Y62.835 E0.00976
G1 X21.79 Y63.187 E0.00976
G1 X21.589 Y63.556 E0.00975
G1 X21.418 Y63.94 E0.00975
G1 X21.278 Y64.336 E0.00975
G1 X21.171 Y64.743 E0.00975
G1 X21.097 Y65.157 E0.00975
G1 X21.057 Y65.575 E0.00975
G1 X21.051 Y65.995 E0.00975
G1 X21.079 Y66.415 E0.00976
G1 X21.142 Y66.831 E0.00976
G1 X21.238 Y67.241 E0.00975
G1 X21.368 Y67.641 E0.00975
G1 X21.529 Y68.029 E0.00975
G1 X21.72 Y68.403 E0.00975
G1 X21.942 Y68.76 E0.00975
G1 X22.191 Y69.098 E0.00975
G1 X22.468 Y69.415 E0.00975
G1 X22.769 Y69.709 E0.00976
G1 X23.093 Y69.977 E0.00976
G1 X23.439 Y70.217 E0.00975
G1 X23.802 Y70.429 E0.00975
G1 X24.181 Y70.61 E0.00975
G1 X24.573 Y70.761 E0.00975
G1 X24.977 Y70.879 E0.00975
G1 X25.388 Y70.964 E0.00975
G1 X25.806 Y71.015 E0.00975
G1 X26.219 Y71.033 E0.0096
G1 X31.339 Y71.033 E0.11873
;WIPE_START
G1 X31.798 Y71.039 F27000
;WIPE_END
G1 X73.857 Y60.215
G1 F1800
G1 X73.851 Y60.445 E0.00533
G1 X73.806 Y61.033 E0.01368
G1 X73.732 Y61.618 E0.01368
G1 X73.628 Y62.199 E0.01368
G1 X73.495 Y62.773 E0.01368
G1 X73.332 Y63.34 E0.01368
G1 X73.142 Y63.898 E0.01368
G1 X72.923 Y64.446 E0.01368
G1 X72.677 Y64.982 E0.01368
G1 X72.404 Y65.504 E0.01368
G1 X72.104 Y66.013 E0.01368
G1 X71.78 Y66.505 E0.01368
G1 X71.431 Y66.98 E0.01368
G1 X71.058 Y67.437 E0.01368
G1 X70.663 Y67.875 E0.01368
G1 X70.246 Y68.292 E0.01368
G1 X69.808 Y68.687 E0.01368
G1 X69.351 Y69.06 E0.01368
G1 X68.876 Y69.409 E0.01368
G1 X68.383 Y69.734 E0.01368
G1 X67.875 Y70.033 E0.01368
G1 X67.352 Y70.306 E0.01368
G1 X66.816 Y70.552 E0.01368
G1 X66.269 Y70.771 E0.01368
G1 X65.711 Y70.962 E0.01368
G1 X65.144 Y71.124 E0.01368
G1 X64.569 Y71.257 E0.01368
G1 X63.989 Y71.361 E0.01368
G1 X63.404 Y71.436 E0.01368
G1 X62.816 Y71.48 E0.01368
G1 X62.222 Y71.495 E0.01378
G1 X32.724 Y71.496 E0.68416
G1 X30.724 Y71.528 E0.04639
G1 X26.232 Y71.528 E0.10418
G1 X25.813 Y71.512 E0.00974
G1 X25.401 Y71.466 E0.00961
G1 X24.994 Y71.39 E0.00961
G1 X24.593 Y71.285 E0.00961
G1 X24.201 Y71.151 E0.00961
G1 X23.819 Y70.989 E0.00961
G1 X23.451 Y70.8 E0.00961
G1 X23.097 Y70.585 E0.00961
G1 X22.76 Y70.344 E0.00961
G1 X22.441 Y70.08 E0.0096
G1 X22.144 Y69.792 E0.0096
G1 X21.868 Y69.483 E0.00961
G1 X21.615 Y69.155 E0.00961
G1 X21.386 Y68.809 E0.00961
G1 X21.184 Y68.448 E0.00961
G1 X21.008 Y68.073 E0.00961
G1 X20.859 Y67.686 E0.00961
G1 X20.739 Y67.289 E0.00961
G1 X20.649 Y66.885 E0.00961
G1 X20.588 Y66.476 E0.0096
G1 X20.559 Y66.063 E0.0096
G1 X20.559 Y65.649 E0.00961
G1 X20.59 Y65.236 E0.00961
G1 X20.65 Y64.826 E0.00961
G1 X20.74 Y64.421 E0.00961
G1 X20.86 Y64.024 E0.00961
G1 X21.007 Y63.637 E0.00961
G1 X21.183 Y63.262 E0.00961
G1 X21.385 Y62.901 E0.00961
G1 X21.613 Y62.555 E0.0096
G1 X21.867 Y62.228 E0.0096
G1 X22.143 Y61.92 E0.00961
G1 X22.442 Y61.632 E0.00961
G1 X22.761 Y61.368 E0.00961
G1 X23.098 Y61.127 E0.00961
G1 X23.451 Y60.911 E0.00961
G1 X23.82 Y60.721 E0.00961
G1 X24.201 Y60.558 E0.00961
G1 X24.592 Y60.424 E0.00961
G1 X24.993 Y60.319 E0.0096
G1 X25.4 Y60.245 E0.0096
G1 X25.812 Y60.2 E0.00961
G1 X26.229 Y60.185 E0.00968
G1 X26.722 Y60.195 E0.01143
G1 X28.224 Y60.215 E0.03486
G1 X73.797 Y60.215 E1.057
;WIPE_START
G1 X73.739 Y60.412 F27000
;WIPE_END
G1 X71.718 Y61.279
; custom gcode: feature_gcode
; External perimeter
;SolidInfill
SET_VELOCITY_LIMIT ACCEL=3800 ACCEL_TO_DECEL=2000 SQUARE_CORNER_VELOCITY=8

; Bridge infill
; custom gcode end: feature_gcode

;TYPE:Solid infill
;WIDTH:0.506546
G1 F1800
G1 X72.378 Y61.939 E0.0211
G1 X72.259 Y62.453 E0.01192
G1 X72.244 Y62.505 E0.00121
G1 X71.231 Y61.491 E0.03238
G1 X70.532 Y61.491 E0.0158
G1 X72.085 Y63.045 E0.04963
G1 X71.945 Y63.455 E0.0098
G1 X71.902 Y63.561 E0.00259
G1 X69.832 Y61.491 E0.06614
G1 X69.133 Y61.491 E0.0158
G1 X71.698 Y64.056 E0.08195
G1 X71.531 Y64.42 E0.00904
G1 X71.473 Y64.53 E0.00283
G1 X68.434 Y61.491 E0.09711
G1 X67.734 Y61.491 E0.0158
G1 X71.228 Y64.985 E0.11165
G1 X71.021 Y65.337 E0.00923
G1 X70.966 Y65.422 E0.00229
G1 X67.035 Y61.491 E0.12559
G1 X66.336 Y61.491 E0.0158
G1 X70.685 Y65.841 E0.13897
G1 X70.422 Y66.199 E0.01005
G1 X70.387 Y66.242 E0.00124
G1 X65.636 Y61.491 E0.15179
M73 P2 R42
G1 X64.937 Y61.491 E0.0158
G1 X70.072 Y66.626 E0.16407
G1 X69.74 Y66.993 E0.01119
G1 X64.238 Y61.491 E0.17581
G1 X63.538 Y61.491 E0.0158
G1 X69.39 Y67.343 E0.18698
G1 X69.366 Y67.367 E0.00076
G1 X69.024 Y67.676 E0.01043
G1 X62.839 Y61.491 E0.19763
G1 X62.139 Y61.491 E0.0158
G1 X68.641 Y67.993 E0.20774
G1 X68.57 Y68.051 E0.00207
G1 X68.241 Y68.292 E0.00922
G1 X61.44 Y61.491 E0.21731
G1 X60.741 Y61.491 E0.0158
G1 X67.824 Y68.574 E0.22632
G1 X67.708 Y68.65 E0.00313
G1 X67.389 Y68.839 E0.00838
G1 X60.041 Y61.491 E0.23476
G1 X59.342 Y61.491 E0.0158
G1 X66.935 Y69.084 E0.24262
G1 X66.79 Y69.16 E0.00369
G1 X66.462 Y69.311 E0.00816
G1 X58.643 Y61.491 E0.24985
G1 X57.943 Y61.491 E0.0158
G1 X65.969 Y69.517 E0.25643
G1 X65.826 Y69.574 E0.00349
G1 X65.454 Y69.701 E0.00888
G1 X57.244 Y61.491 E0.26232
G1 X56.545 Y61.491 E0.0158
G1 X64.915 Y69.862 E0.26747
G1 X64.824 Y69.888 E0.00215
G1 X64.352 Y69.998 E0.01095
G1 X55.845 Y61.491 E0.2718
G1 X55.146 Y61.491 E0.0158
G1 X63.759 Y70.104 E0.27521
G1 X63.275 Y70.166 E0.01103
G1 X63.132 Y70.177 E0.00323
G1 X54.447 Y61.491 E0.27752
G1 X53.747 Y61.491 E0.0158
G1 X62.469 Y70.213 E0.27868
G1 X62.205 Y70.22 E0.00595
G1 X61.776 Y70.22 E0.0097
G1 X53.048 Y61.491 E0.27889
G1 X52.349 Y61.491 E0.0158
G1 X61.077 Y70.22 E0.2789
G1 X60.378 Y70.22 E0.0158
G1 X51.649 Y61.491 E0.2789
G1 X50.95 Y61.491 E0.0158
G1 X59.679 Y70.22 E0.27891
G1 X58.979 Y70.22 E0.0158
G1 X50.25 Y61.491 E0.27891
G1 X49.551 Y61.491 E0.0158
G1 X58.28 Y70.22 E0.27891
G1 X57.581 Y70.22 E0.0158
G1 X48.852 Y61.491 E0.27892
G1 X48.152 Y61.491 E0.0158
G1 X56.882 Y70.221 E0.27892
G1 X56.182 Y70.221 E0.0158
G1 X47.453 Y61.491 E0.27893
G1 X46.754 Y61.491 E0.0158
G1 X55.483 Y70.221 E0.27893
G1 X54.784 Y70.221 E0.0158
G1 X46.054 Y61.491 E0.27893
G1 X45.355 Y61.491 E0.0158
G1 X54.085 Y70.221 E0.27894
G1 X53.386 Y70.221 E0.0158
G1 X44.656 Y61.491 E0.27894
G1 X43.956 Y61.491 E0.0158
G1 X52.686 Y70.221 E0.27894
G1 X51.987 Y70.221 E0.0158
G1 X43.257 Y61.491 E0.27895
G1 X42.558 Y61.491 E0.0158
G1 X51.288 Y70.222 E0.27895
G1 X50.589 Y70.222 E0.0158
G1 X41.858 Y61.491 E0.27896
G1 X41.159 Y61.491 E0.0158
G1 X49.889 Y70.222 E0.27896
G1 X49.19 Y70.222 E0.0158
G1 X40.46 Y61.491 E0.27896
G1 X39.76 Y61.491 E0.0158
G1 X48.491 Y70.222 E0.27897
G1 X47.792 Y70.222 E0.0158
G1 X39.061 Y61.491 E0.27897
G1 X38.362 Y61.491 E0.0158
G1 X47.093 Y70.222 E0.27898
